( Made using CamBam - http://www.cambam.co.uk )
( efm_vcf3_panel 12/13/2015 12:26:48 PM )
( T3 : 3.175 )
G21 G90 G64 G40
G0 Z3.0
( T3 : 3.175 )
T3 M6
( mounting )
G17
M3 S1000
G0 X18.5232 Y3.6704
G0 Z3.0
G0 X18.5357 Y3.6704
G1 F1000.0 Z0.0
G2 F2000.0 X18.5169 Y3.6595 Z-0.0333 I-0.0125 J0.0
G2 Y3.6812 Z-0.0667 I0.0063 J0.0108
G2 X18.5357 Y3.6704 Z-0.1 I0.0063 J-0.0108
G2 X18.5169 Y3.6595 Z-0.1333 I-0.0125 J0.0
G2 Y3.6812 Z-0.1667 I0.0063 J0.0108
G2 X18.5357 Y3.6704 Z-0.2 I0.0063 J-0.0108
G2 X18.5169 Y3.6595 Z-0.2333 I-0.0125 J0.0
G2 Y3.6812 Z-0.2667 I0.0063 J0.0108
G2 X18.5357 Y3.6704 Z-0.3 I0.0063 J-0.0108
G2 X18.5169 Y3.6595 Z-0.3333 I-0.0125 J0.0
G2 Y3.6812 Z-0.3667 I0.0063 J0.0108
G2 X18.5357 Y3.6704 Z-0.4 I0.0063 J-0.0108
G2 X18.5169 Y3.6595 Z-0.4333 I-0.0125 J0.0
G2 Y3.6812 Z-0.4667 I0.0063 J0.0108
G2 X18.5357 Y3.6704 Z-0.5 I0.0063 J-0.0108
G2 X18.5169 Y3.6595 Z-0.5333 I-0.0125 J0.0
G2 Y3.6812 Z-0.5667 I0.0063 J0.0108
G2 X18.5357 Y3.6704 Z-0.6 I0.0063 J-0.0108
G2 X18.5169 Y3.6595 Z-0.6333 I-0.0125 J0.0
G2 Y3.6812 Z-0.6667 I0.0063 J0.0108
G2 X18.5357 Y3.6704 Z-0.7 I0.0063 J-0.0108
G2 X18.5169 Y3.6595 Z-0.7333 I-0.0125 J0.0
G2 Y3.6812 Z-0.7667 I0.0063 J0.0108
G2 X18.5357 Y3.6704 Z-0.8 I0.0063 J-0.0108
G2 X18.5169 Y3.6595 Z-0.8333 I-0.0125 J0.0
G2 Y3.6812 Z-0.8667 I0.0063 J0.0108
G2 X18.5357 Y3.6704 Z-0.9 I0.0063 J-0.0108
G2 X18.5169 Y3.6595 Z-0.9333 I-0.0125 J0.0
G2 Y3.6812 Z-0.9667 I0.0063 J0.0108
G2 X18.5357 Y3.6704 Z-1.0 I0.0063 J-0.0108
G2 X18.5169 Y3.6595 Z-1.0333 I-0.0125 J0.0
G2 Y3.6812 Z-1.0667 I0.0063 J0.0108
G2 X18.5357 Y3.6704 Z-1.1 I0.0063 J-0.0108
G2 X18.5169 Y3.6595 Z-1.1333 I-0.0125 J0.0
G2 Y3.6812 Z-1.1667 I0.0063 J0.0108
G2 X18.5357 Y3.6704 Z-1.2 I0.0063 J-0.0108
G2 X18.5169 Y3.6595 Z-1.2333 I-0.0125 J0.0
G2 Y3.6812 Z-1.2667 I0.0062 J0.0108
G2 X18.5357 Y3.6704 Z-1.3 I0.0063 J-0.0108
G2 X18.5169 Y3.6595 Z-1.3333 I-0.0125 J0.0
G2 Y3.6812 Z-1.3667 I0.0062 J0.0108
G2 X18.5357 Y3.6704 Z-1.4 I0.0063 J-0.0108
G2 X18.5169 Y3.6595 Z-1.4333 I-0.0125 J0.0
G2 Y3.6812 Z-1.4667 I0.0062 J0.0108
G2 X18.5357 Y3.6704 Z-1.5 I0.0063 J-0.0108
G2 X18.5169 Y3.6595 Z-1.5333 I-0.0125 J0.0
G2 Y3.6812 Z-1.5667 I0.0062 J0.0108
G2 X18.5357 Y3.6704 Z-1.6 I0.0063 J-0.0108
G2 X18.5169 Y3.6595 Z-1.6333 I-0.0125 J0.0
G2 Y3.6812 Z-1.6667 I0.0062 J0.0108
G2 X18.5357 Y3.6704 Z-1.7 I0.0063 J-0.0108
G2 X18.5169 Y3.6595 Z-1.7333 I-0.0125 J0.0
G2 Y3.6812 Z-1.7667 I0.0062 J0.0108
G2 X18.5357 Y3.6704 Z-1.8 I0.0063 J-0.0108
G2 X18.5169 Y3.6595 Z-1.8333 I-0.0125 J0.0
G2 Y3.6812 Z-1.8667 I0.0062 J0.0108
G2 X18.5357 Y3.6704 Z-1.9 I0.0063 J-0.0108
G2 X18.5169 Y3.6595 Z-1.9333 I-0.0125 J0.0
G2 Y3.6812 Z-1.9667 I0.0062 J0.0108
G2 X18.5357 Y3.6704 Z-2.0 I0.0063 J-0.0108
G2 X18.5169 Y3.6595 Z-2.0333 I-0.0125 J0.0
G2 Y3.6812 Z-2.0667 I0.0062 J0.0108
G2 X18.5357 Y3.6704 Z-2.1 I0.0063 J-0.0108
G2 X18.5169 Y3.6595 Z-2.1333 I-0.0125 J0.0
G2 Y3.6812 Z-2.1667 I0.0062 J0.0108
G2 X18.5357 Y3.6704 Z-2.2 I0.0063 J-0.0108
G2 X18.5169 Y3.6595 Z-2.2333 I-0.0125 J0.0
G2 Y3.6812 Z-2.2667 I0.0063 J0.0108
G2 X18.5357 Y3.6704 Z-2.3 I0.0063 J-0.0108
G2 X18.5169 Y3.6595 Z-2.3333 I-0.0125 J0.0
G2 Y3.6812 Z-2.3667 I0.0063 J0.0108
G2 X18.5357 Y3.6704 Z-2.4 I0.0063 J-0.0108
G2 X18.5169 Y3.6595 Z-2.4333 I-0.0125 J0.0
G2 Y3.6812 Z-2.4667 I0.0063 J0.0108
G2 X18.5357 Y3.6704 Z-2.5 I0.0062 J-0.0108
G2 X18.5169 Y3.6595 Z-2.5333 I-0.0125 J0.0
G2 Y3.6812 Z-2.5667 I0.0063 J0.0108
G2 X18.5357 Y3.6704 Z-2.6 I0.0062 J-0.0108
G2 X18.5169 Y3.6595 Z-2.6333 I-0.0125 J0.0
G2 Y3.6812 Z-2.6667 I0.0063 J0.0108
G2 X18.5357 Y3.6704 Z-2.7 I0.0062 J-0.0108
G2 X18.5169 Y3.6595 Z-2.7333 I-0.0125 J0.0
G2 Y3.6812 Z-2.7667 I0.0063 J0.0108
G2 X18.5357 Y3.6704 Z-2.8 I0.0062 J-0.0108
G2 X18.5169 Y3.6595 Z-2.8333 I-0.0125 J0.0
G2 Y3.6812 Z-2.8667 I0.0063 J0.0108
G2 X18.5357 Y3.6704 Z-2.9 I0.0062 J-0.0108
G2 X18.5169 Y3.6595 Z-2.9333 I-0.0125 J0.0
G2 Y3.6812 Z-2.9667 I0.0063 J0.0108
G2 X18.5357 Y3.6704 Z-3.0 I0.0062 J-0.0108
G2 X18.5169 Y3.6595 Z-3.0333 I-0.0125 J0.0
G2 Y3.6812 Z-3.0667 I0.0063 J0.0108
G2 X18.5357 Y3.6704 Z-3.1 I0.0062 J-0.0108
G2 X18.5169 Y3.6595 Z-3.1333 I-0.0125 J0.0
G2 Y3.6812 Z-3.1667 I0.0063 J0.0108
G2 X18.5357 Y3.6704 Z-3.2 I0.0062 J-0.0108
G2 X18.5169 Y3.6595 I-0.0125 J0.0
G2 Y3.6812 I0.0063 J0.0108
G2 X18.5357 Y3.6704 I0.0062 J-0.0108
G0 Z3.0
G0 X19.5698 Y19.626
G1 F1000.0 Z0.0
G2 F2000.0 X19.5511 Y19.6152 Z-0.0333 I-0.0125 J0.0
G2 Y19.6368 Z-0.0667 I0.0062 J0.0108
G2 X19.5698 Y19.626 Z-0.1 I0.0063 J-0.0108
G2 X19.5511 Y19.6152 Z-0.1333 I-0.0125 J0.0
G2 Y19.6368 Z-0.1667 I0.0062 J0.0108
G2 X19.5698 Y19.626 Z-0.2 I0.0063 J-0.0108
G2 X19.5511 Y19.6152 Z-0.2333 I-0.0125 J0.0
G2 Y19.6368 Z-0.2667 I0.0062 J0.0108
G2 X19.5698 Y19.626 Z-0.3 I0.0063 J-0.0108
G2 X19.5511 Y19.6152 Z-0.3333 I-0.0125 J0.0
G2 Y19.6368 Z-0.3667 I0.0062 J0.0108
G2 X19.5698 Y19.626 Z-0.4 I0.0063 J-0.0108
G2 X19.5511 Y19.6152 Z-0.4333 I-0.0125 J0.0
G2 Y19.6368 Z-0.4667 I0.0062 J0.0108
G2 X19.5698 Y19.626 Z-0.5 I0.0063 J-0.0108
G2 X19.5511 Y19.6152 Z-0.5333 I-0.0125 J0.0
G2 Y19.6368 Z-0.5667 I0.0062 J0.0108
G2 X19.5698 Y19.626 Z-0.6 I0.0063 J-0.0108
G2 X19.5511 Y19.6152 Z-0.6333 I-0.0125 J0.0
G2 Y19.6368 Z-0.6667 I0.0062 J0.0108
G2 X19.5698 Y19.626 Z-0.7 I0.0063 J-0.0108
G2 X19.5511 Y19.6152 Z-0.7333 I-0.0125 J0.0
G2 Y19.6368 Z-0.7667 I0.0062 J0.0108
G2 X19.5698 Y19.626 Z-0.8 I0.0063 J-0.0108
G2 X19.5511 Y19.6152 Z-0.8333 I-0.0125 J0.0
G2 Y19.6368 Z-0.8667 I0.0062 J0.0108
G2 X19.5698 Y19.626 Z-0.9 I0.0063 J-0.0108
G2 X19.5511 Y19.6152 Z-0.9333 I-0.0125 J0.0
G2 Y19.6368 Z-0.9667 I0.0062 J0.0108
G2 X19.5698 Y19.626 Z-1.0 I0.0063 J-0.0108
G2 X19.5511 Y19.6152 Z-1.0333 I-0.0125 J0.0
G2 Y19.6368 Z-1.0667 I0.0062 J0.0108
G2 X19.5698 Y19.626 Z-1.1 I0.0063 J-0.0108
G2 X19.5511 Y19.6152 Z-1.1333 I-0.0125 J0.0
G2 Y19.6368 Z-1.1667 I0.0062 J0.0108
G2 X19.5698 Y19.626 Z-1.2 I0.0063 J-0.0108
G2 X19.5511 Y19.6152 Z-1.2333 I-0.0125 J0.0
G2 Y19.6368 Z-1.2667 I0.0062 J0.0108
G2 X19.5698 Y19.626 Z-1.3 I0.0063 J-0.0108
G2 X19.5511 Y19.6152 Z-1.3333 I-0.0125 J0.0
G2 Y19.6368 Z-1.3667 I0.0062 J0.0108
G2 X19.5698 Y19.626 Z-1.4 I0.0063 J-0.0108
G2 X19.5511 Y19.6152 Z-1.4333 I-0.0125 J0.0
G2 Y19.6368 Z-1.4667 I0.0062 J0.0108
G2 X19.5698 Y19.626 Z-1.5 I0.0063 J-0.0108
G2 X19.5511 Y19.6152 Z-1.5333 I-0.0125 J0.0
G2 Y19.6368 Z-1.5667 I0.0062 J0.0108
G2 X19.5698 Y19.626 Z-1.6 I0.0063 J-0.0108
G2 X19.5511 Y19.6152 Z-1.6333 I-0.0125 J0.0
G2 Y19.6368 Z-1.6667 I0.0062 J0.0108
G2 X19.5698 Y19.626 Z-1.7 I0.0063 J-0.0108
G2 X19.5511 Y19.6152 Z-1.7333 I-0.0125 J0.0
G2 Y19.6368 Z-1.7667 I0.0062 J0.0108
G2 X19.5698 Y19.626 Z-1.8 I0.0063 J-0.0108
G2 X19.5511 Y19.6152 Z-1.8333 I-0.0125 J0.0
G2 Y19.6368 Z-1.8667 I0.0062 J0.0108
G2 X19.5698 Y19.626 Z-1.9 I0.0063 J-0.0108
G2 X19.5511 Y19.6152 Z-1.9333 I-0.0125 J0.0
G2 Y19.6368 Z-1.9667 I0.0062 J0.0108
G2 X19.5698 Y19.626 Z-2.0 I0.0063 J-0.0108
G2 X19.5511 Y19.6152 Z-2.0333 I-0.0125 J0.0
G2 Y19.6368 Z-2.0667 I0.0062 J0.0108
G2 X19.5698 Y19.626 Z-2.1 I0.0063 J-0.0108
G2 X19.5511 Y19.6152 Z-2.1333 I-0.0125 J0.0
G2 Y19.6368 Z-2.1667 I0.0062 J0.0108
G2 X19.5698 Y19.626 Z-2.2 I0.0063 J-0.0108
G2 X19.5511 Y19.6152 Z-2.2333 I-0.0125 J0.0
G2 Y19.6368 Z-2.2667 I0.0062 J0.0108
G2 X19.5698 Y19.626 Z-2.3 I0.0063 J-0.0108
G2 X19.5511 Y19.6152 Z-2.3333 I-0.0125 J0.0
G2 Y19.6368 Z-2.3667 I0.0062 J0.0108
G2 X19.5698 Y19.626 Z-2.4 I0.0063 J-0.0108
G2 X19.5511 Y19.6152 Z-2.4333 I-0.0125 J0.0
G2 Y19.6368 Z-2.4667 I0.0063 J0.0108
G2 X19.5698 Y19.626 Z-2.5 I0.0062 J-0.0108
G2 X19.5511 Y19.6152 Z-2.5333 I-0.0125 J0.0
G2 Y19.6368 Z-2.5667 I0.0063 J0.0108
G2 X19.5698 Y19.626 Z-2.6 I0.0062 J-0.0108
G2 X19.5511 Y19.6152 Z-2.6333 I-0.0125 J0.0
G2 Y19.6368 Z-2.6667 I0.0063 J0.0108
G2 X19.5698 Y19.626 Z-2.7 I0.0062 J-0.0108
G2 X19.5511 Y19.6152 Z-2.7333 I-0.0125 J0.0
G2 Y19.6368 Z-2.7667 I0.0063 J0.0108
G2 X19.5698 Y19.626 Z-2.8 I0.0062 J-0.0108
G2 X19.5511 Y19.6152 Z-2.8333 I-0.0125 J0.0
G2 Y19.6368 Z-2.8667 I0.0063 J0.0108
G2 X19.5698 Y19.626 Z-2.9 I0.0062 J-0.0108
G2 X19.5511 Y19.6152 Z-2.9333 I-0.0125 J0.0
G2 Y19.6368 Z-2.9667 I0.0063 J0.0108
G2 X19.5698 Y19.626 Z-3.0 I0.0062 J-0.0108
G2 X19.5511 Y19.6152 Z-3.0333 I-0.0125 J0.0
G2 Y19.6368 Z-3.0667 I0.0063 J0.0108
G2 X19.5698 Y19.626 Z-3.1 I0.0062 J-0.0108
G2 X19.5511 Y19.6152 Z-3.1333 I-0.0125 J0.0
G2 Y19.6368 Z-3.1667 I0.0063 J0.0108
G2 X19.5698 Y19.626 Z-3.2 I0.0062 J-0.0108
G2 X19.5511 Y19.6152 I-0.0125 J0.0
G2 Y19.6368 I0.0063 J0.0108
G2 X19.5698 Y19.626 I0.0062 J-0.0108
G0 Z3.0
G0 X26.6162 Y33.6836
G1 F1000.0 Z0.0
G2 F2000.0 X26.5974 Y33.6727 Z-0.0333 I-0.0125 J0.0
G2 Y33.6944 Z-0.0667 I0.0063 J0.0108
G2 X26.6162 Y33.6836 Z-0.1 I0.0062 J-0.0108
G2 X26.5974 Y33.6727 Z-0.1333 I-0.0125 J0.0
G2 Y33.6944 Z-0.1667 I0.0063 J0.0108
G2 X26.6162 Y33.6836 Z-0.2 I0.0062 J-0.0108
G2 X26.5974 Y33.6727 Z-0.2333 I-0.0125 J0.0
G2 Y33.6944 Z-0.2667 I0.0063 J0.0108
G2 X26.6162 Y33.6836 Z-0.3 I0.0062 J-0.0108
G2 X26.5974 Y33.6727 Z-0.3333 I-0.0125 J0.0
G2 Y33.6944 Z-0.3667 I0.0063 J0.0108
G2 X26.6162 Y33.6836 Z-0.4 I0.0062 J-0.0108
G2 X26.5974 Y33.6727 Z-0.4333 I-0.0125 J0.0
G2 Y33.6944 Z-0.4667 I0.0063 J0.0108
G2 X26.6162 Y33.6836 Z-0.5 I0.0062 J-0.0108
G2 X26.5974 Y33.6727 Z-0.5333 I-0.0125 J0.0
G2 Y33.6944 Z-0.5667 I0.0063 J0.0108
G2 X26.6162 Y33.6836 Z-0.6 I0.0062 J-0.0108
G2 X26.5974 Y33.6727 Z-0.6333 I-0.0125 J0.0
G2 Y33.6944 Z-0.6667 I0.0063 J0.0108
G2 X26.6162 Y33.6836 Z-0.7 I0.0062 J-0.0108
G2 X26.5974 Y33.6727 Z-0.7333 I-0.0125 J0.0
G2 Y33.6944 Z-0.7667 I0.0063 J0.0108
G2 X26.6162 Y33.6836 Z-0.8 I0.0062 J-0.0108
G2 X26.5974 Y33.6727 Z-0.8333 I-0.0125 J0.0
G2 Y33.6944 Z-0.8667 I0.0063 J0.0108
G2 X26.6162 Y33.6836 Z-0.9 I0.0062 J-0.0108
G2 X26.5974 Y33.6727 Z-0.9333 I-0.0125 J0.0
G2 Y33.6944 Z-0.9667 I0.0063 J0.0108
G2 X26.6162 Y33.6836 Z-1.0 I0.0062 J-0.0108
G2 X26.5974 Y33.6727 Z-1.0333 I-0.0125 J0.0
G2 Y33.6944 Z-1.0667 I0.0063 J0.0108
G2 X26.6162 Y33.6836 Z-1.1 I0.0062 J-0.0108
G2 X26.5974 Y33.6727 Z-1.1333 I-0.0125 J0.0
G2 Y33.6944 Z-1.1667 I0.0063 J0.0108
G2 X26.6162 Y33.6836 Z-1.2 I0.0062 J-0.0108
G2 X26.5974 Y33.6727 Z-1.2333 I-0.0125 J0.0
G2 Y33.6944 Z-1.2667 I0.0063 J0.0108
G2 X26.6162 Y33.6836 Z-1.3 I0.0062 J-0.0108
G2 X26.5974 Y33.6727 Z-1.3333 I-0.0125 J0.0
G2 Y33.6944 Z-1.3667 I0.0063 J0.0108
G2 X26.6162 Y33.6836 Z-1.4 I0.0062 J-0.0108
G2 X26.5974 Y33.6727 Z-1.4333 I-0.0125 J0.0
G2 Y33.6944 Z-1.4667 I0.0063 J0.0108
G2 X26.6162 Y33.6836 Z-1.5 I0.0062 J-0.0108
G2 X26.5974 Y33.6727 Z-1.5333 I-0.0125 J0.0
G2 Y33.6944 Z-1.5667 I0.0063 J0.0108
G2 X26.6162 Y33.6836 Z-1.6 I0.0062 J-0.0108
G2 X26.5974 Y33.6727 Z-1.6333 I-0.0125 J0.0
G2 Y33.6944 Z-1.6667 I0.0063 J0.0108
G2 X26.6162 Y33.6836 Z-1.7 I0.0062 J-0.0108
G2 X26.5974 Y33.6727 Z-1.7333 I-0.0125 J0.0
G2 Y33.6944 Z-1.7667 I0.0063 J0.0108
G2 X26.6162 Y33.6836 Z-1.8 I0.0062 J-0.0108
G2 X26.5974 Y33.6727 Z-1.8333 I-0.0125 J0.0
G2 Y33.6944 Z-1.8667 I0.0063 J0.0108
G2 X26.6162 Y33.6836 Z-1.9 I0.0062 J-0.0108
G2 X26.5974 Y33.6727 Z-1.9333 I-0.0125 J0.0
G2 Y33.6944 Z-1.9667 I0.0063 J0.0108
G2 X26.6162 Y33.6836 Z-2.0 I0.0062 J-0.0108
G2 X26.5974 Y33.6727 Z-2.0333 I-0.0125 J0.0
G2 Y33.6944 Z-2.0667 I0.0063 J0.0108
G2 X26.6162 Y33.6836 Z-2.1 I0.0062 J-0.0108
G2 X26.5974 Y33.6727 Z-2.1333 I-0.0125 J0.0
G2 Y33.6944 Z-2.1667 I0.0063 J0.0108
G2 X26.6162 Y33.6836 Z-2.2 I0.0062 J-0.0108
G2 X26.5974 Y33.6727 Z-2.2333 I-0.0125 J0.0
G2 Y33.6944 Z-2.2667 I0.0063 J0.0108
G2 X26.6162 Y33.6836 Z-2.3 I0.0062 J-0.0108
G2 X26.5974 Y33.6727 Z-2.3333 I-0.0125 J0.0
G2 Y33.6944 Z-2.3667 I0.0063 J0.0108
G2 X26.6162 Y33.6836 Z-2.4 I0.0062 J-0.0108
G2 X26.5974 Y33.6727 Z-2.4333 I-0.0125 J0.0
G2 Y33.6944 Z-2.4667 I0.0063 J0.0108
G2 X26.6162 Y33.6836 Z-2.5 I0.0062 J-0.0108
G2 X26.5974 Y33.6727 Z-2.5333 I-0.0125 J0.0
G2 Y33.6944 Z-2.5667 I0.0063 J0.0108
G2 X26.6162 Y33.6836 Z-2.6 I0.0062 J-0.0108
G2 X26.5974 Y33.6727 Z-2.6333 I-0.0125 J0.0
G2 Y33.6944 Z-2.6667 I0.0063 J0.0108
G2 X26.6162 Y33.6836 Z-2.7 I0.0062 J-0.0108
G2 X26.5974 Y33.6727 Z-2.7333 I-0.0125 J0.0
G2 Y33.6944 Z-2.7667 I0.0063 J0.0108
G2 X26.6162 Y33.6836 Z-2.8 I0.0062 J-0.0108
G2 X26.5974 Y33.6727 Z-2.8333 I-0.0125 J0.0
G2 Y33.6944 Z-2.8667 I0.0063 J0.0108
G2 X26.6162 Y33.6836 Z-2.9 I0.0062 J-0.0108
G2 X26.5974 Y33.6727 Z-2.9333 I-0.0125 J0.0
G2 Y33.6944 Z-2.9667 I0.0063 J0.0108
G2 X26.6162 Y33.6836 Z-3.0 I0.0062 J-0.0108
G2 X26.5974 Y33.6727 Z-3.0333 I-0.0125 J0.0
G2 Y33.6944 Z-3.0667 I0.0063 J0.0108
G2 X26.6162 Y33.6836 Z-3.1 I0.0062 J-0.0108
G2 X26.5974 Y33.6727 Z-3.1333 I-0.0125 J0.0
G2 Y33.6944 Z-3.1667 I0.0063 J0.0108
G2 X26.6162 Y33.6836 Z-3.2 I0.0062 J-0.0108
G2 X26.5974 Y33.6727 I-0.0125 J0.0
G2 Y33.6944 I0.0063 J0.0108
G2 X26.6162 Y33.6836 I0.0062 J-0.0108
G0 Z3.0
G0 Y50.3942
G1 F1000.0 Z0.0
G2 F2000.0 X26.5974 Y50.3834 Z-0.0333 I-0.0125 J0.0
G2 Y50.405 Z-0.0667 I0.0063 J0.0108
G2 X26.6162 Y50.3942 Z-0.1 I0.0062 J-0.0108
G2 X26.5974 Y50.3834 Z-0.1333 I-0.0125 J0.0
G2 Y50.405 Z-0.1667 I0.0063 J0.0108
G2 X26.6162 Y50.3942 Z-0.2 I0.0062 J-0.0108
G2 X26.5974 Y50.3834 Z-0.2333 I-0.0125 J0.0
G2 Y50.405 Z-0.2667 I0.0063 J0.0108
G2 X26.6162 Y50.3942 Z-0.3 I0.0062 J-0.0108
G2 X26.5974 Y50.3834 Z-0.3333 I-0.0125 J0.0
G2 Y50.405 Z-0.3667 I0.0063 J0.0108
G2 X26.6162 Y50.3942 Z-0.4 I0.0062 J-0.0108
G2 X26.5974 Y50.3834 Z-0.4333 I-0.0125 J0.0
G2 Y50.405 Z-0.4667 I0.0063 J0.0108
G2 X26.6162 Y50.3942 Z-0.5 I0.0062 J-0.0108
G2 X26.5974 Y50.3834 Z-0.5333 I-0.0125 J0.0
G2 Y50.405 Z-0.5667 I0.0063 J0.0108
G2 X26.6162 Y50.3942 Z-0.6 I0.0062 J-0.0108
G2 X26.5974 Y50.3834 Z-0.6333 I-0.0125 J0.0
G2 Y50.405 Z-0.6667 I0.0063 J0.0108
G2 X26.6162 Y50.3942 Z-0.7 I0.0062 J-0.0108
G2 X26.5974 Y50.3834 Z-0.7333 I-0.0125 J0.0
G2 Y50.405 Z-0.7667 I0.0063 J0.0108
G2 X26.6162 Y50.3942 Z-0.8 I0.0062 J-0.0108
G2 X26.5974 Y50.3834 Z-0.8333 I-0.0125 J0.0
G2 Y50.405 Z-0.8667 I0.0063 J0.0108
G2 X26.6162 Y50.3942 Z-0.9 I0.0062 J-0.0108
G2 X26.5974 Y50.3834 Z-0.9333 I-0.0125 J0.0
G2 Y50.405 Z-0.9667 I0.0063 J0.0108
G2 X26.6162 Y50.3942 Z-1.0 I0.0062 J-0.0108
G2 X26.5974 Y50.3834 Z-1.0333 I-0.0125 J0.0
G2 Y50.405 Z-1.0667 I0.0063 J0.0108
G2 X26.6162 Y50.3942 Z-1.1 I0.0062 J-0.0108
G2 X26.5974 Y50.3834 Z-1.1333 I-0.0125 J0.0
G2 Y50.405 Z-1.1667 I0.0063 J0.0108
G2 X26.6162 Y50.3942 Z-1.2 I0.0062 J-0.0108
G2 X26.5974 Y50.3834 Z-1.2333 I-0.0125 J0.0
G2 Y50.405 Z-1.2667 I0.0063 J0.0108
G2 X26.6162 Y50.3942 Z-1.3 I0.0062 J-0.0108
G2 X26.5974 Y50.3834 Z-1.3333 I-0.0125 J0.0
G2 Y50.405 Z-1.3667 I0.0063 J0.0108
G2 X26.6162 Y50.3942 Z-1.4 I0.0062 J-0.0108
G2 X26.5974 Y50.3834 Z-1.4333 I-0.0125 J0.0
G2 Y50.405 Z-1.4667 I0.0063 J0.0108
G2 X26.6162 Y50.3942 Z-1.5 I0.0062 J-0.0108
G2 X26.5974 Y50.3834 Z-1.5333 I-0.0125 J0.0
G2 Y50.405 Z-1.5667 I0.0063 J0.0108
G2 X26.6162 Y50.3942 Z-1.6 I0.0062 J-0.0108
G2 X26.5974 Y50.3834 Z-1.6333 I-0.0125 J0.0
G2 Y50.405 Z-1.6667 I0.0063 J0.0108
G2 X26.6162 Y50.3942 Z-1.7 I0.0062 J-0.0108
G2 X26.5974 Y50.3834 Z-1.7333 I-0.0125 J0.0
G2 Y50.405 Z-1.7667 I0.0063 J0.0108
G2 X26.6162 Y50.3942 Z-1.8 I0.0062 J-0.0108
G2 X26.5974 Y50.3834 Z-1.8333 I-0.0125 J0.0
G2 Y50.405 Z-1.8667 I0.0063 J0.0108
G2 X26.6162 Y50.3942 Z-1.9 I0.0062 J-0.0108
G2 X26.5974 Y50.3834 Z-1.9333 I-0.0125 J0.0
G2 Y50.405 Z-1.9667 I0.0063 J0.0108
G2 X26.6162 Y50.3942 Z-2.0 I0.0062 J-0.0108
G2 X26.5974 Y50.3834 Z-2.0333 I-0.0125 J0.0
G2 Y50.405 Z-2.0667 I0.0063 J0.0108
G2 X26.6162 Y50.3942 Z-2.1 I0.0062 J-0.0108
G2 X26.5974 Y50.3834 Z-2.1333 I-0.0125 J0.0
G2 Y50.405 Z-2.1667 I0.0063 J0.0108
G2 X26.6162 Y50.3942 Z-2.2 I0.0062 J-0.0108
G2 X26.5974 Y50.3834 Z-2.2333 I-0.0125 J0.0
G2 Y50.405 Z-2.2667 I0.0063 J0.0108
G2 X26.6162 Y50.3942 Z-2.3 I0.0062 J-0.0108
G2 X26.5974 Y50.3834 Z-2.3333 I-0.0125 J0.0
G2 Y50.405 Z-2.3667 I0.0063 J0.0108
G2 X26.6162 Y50.3942 Z-2.4 I0.0062 J-0.0108
G2 X26.5974 Y50.3834 Z-2.4333 I-0.0125 J0.0
G2 Y50.405 Z-2.4667 I0.0063 J0.0108
G2 X26.6162 Y50.3942 Z-2.5 I0.0062 J-0.0108
G2 X26.5974 Y50.3834 Z-2.5333 I-0.0125 J0.0
G2 Y50.405 Z-2.5667 I0.0063 J0.0108
G2 X26.6162 Y50.3942 Z-2.6 I0.0062 J-0.0108
G2 X26.5974 Y50.3834 Z-2.6333 I-0.0125 J0.0
G2 Y50.405 Z-2.6667 I0.0063 J0.0108
G2 X26.6162 Y50.3942 Z-2.7 I0.0062 J-0.0108
G2 X26.5974 Y50.3834 Z-2.7333 I-0.0125 J0.0
G2 Y50.405 Z-2.7667 I0.0063 J0.0108
G2 X26.6162 Y50.3942 Z-2.8 I0.0062 J-0.0108
G2 X26.5974 Y50.3834 Z-2.8333 I-0.0125 J0.0
G2 Y50.405 Z-2.8667 I0.0063 J0.0108
G2 X26.6162 Y50.3942 Z-2.9 I0.0062 J-0.0108
G2 X26.5974 Y50.3834 Z-2.9333 I-0.0125 J0.0
G2 Y50.405 Z-2.9667 I0.0063 J0.0108
G2 X26.6162 Y50.3942 Z-3.0 I0.0062 J-0.0108
G2 X26.5974 Y50.3834 Z-3.0333 I-0.0125 J0.0
G2 Y50.405 Z-3.0667 I0.0063 J0.0108
G2 X26.6162 Y50.3942 Z-3.1 I0.0062 J-0.0108
G2 X26.5974 Y50.3834 Z-3.1333 I-0.0125 J0.0
G2 Y50.405 Z-3.1667 I0.0063 J0.0108
G2 X26.6162 Y50.3942 Z-3.2 I0.0062 J-0.0108
G2 X26.5974 Y50.3834 I-0.0125 J0.0
G2 Y50.405 I0.0063 J0.0108
G2 X26.6162 Y50.3942 I0.0062 J-0.0108
G0 Z3.0
G0 Y66.7631
G1 F1000.0 Z0.0
G2 F2000.0 X26.5974 Y66.7523 Z-0.0333 I-0.0125 J0.0
G2 Y66.7739 Z-0.0667 I0.0062 J0.0108
G2 X26.6162 Y66.7631 Z-0.1 I0.0063 J-0.0108
G2 X26.5974 Y66.7523 Z-0.1333 I-0.0125 J0.0
G2 Y66.7739 Z-0.1667 I0.0062 J0.0108
G2 X26.6162 Y66.7631 Z-0.2 I0.0063 J-0.0108
G2 X26.5974 Y66.7523 Z-0.2333 I-0.0125 J0.0
G2 Y66.7739 Z-0.2667 I0.0062 J0.0108
G2 X26.6162 Y66.7631 Z-0.3 I0.0063 J-0.0108
G2 X26.5974 Y66.7523 Z-0.3333 I-0.0125 J0.0
G2 Y66.7739 Z-0.3667 I0.0062 J0.0108
G2 X26.6162 Y66.7631 Z-0.4 I0.0063 J-0.0108
G2 X26.5974 Y66.7523 Z-0.4333 I-0.0125 J0.0
G2 Y66.7739 Z-0.4667 I0.0062 J0.0108
G2 X26.6162 Y66.7631 Z-0.5 I0.0063 J-0.0108
G2 X26.5974 Y66.7523 Z-0.5333 I-0.0125 J0.0
G2 Y66.7739 Z-0.5667 I0.0062 J0.0108
G2 X26.6162 Y66.7631 Z-0.6 I0.0063 J-0.0108
G2 X26.5974 Y66.7523 Z-0.6333 I-0.0125 J0.0
G2 Y66.7739 Z-0.6667 I0.0062 J0.0108
G2 X26.6162 Y66.7631 Z-0.7 I0.0063 J-0.0108
G2 X26.5974 Y66.7523 Z-0.7333 I-0.0125 J0.0
G2 Y66.7739 Z-0.7667 I0.0062 J0.0108
G2 X26.6162 Y66.7631 Z-0.8 I0.0063 J-0.0108
G2 X26.5974 Y66.7523 Z-0.8333 I-0.0125 J0.0
G2 Y66.7739 Z-0.8667 I0.0062 J0.0108
G2 X26.6162 Y66.7631 Z-0.9 I0.0063 J-0.0108
G2 X26.5974 Y66.7523 Z-0.9333 I-0.0125 J0.0
G2 Y66.7739 Z-0.9667 I0.0062 J0.0108
G2 X26.6162 Y66.7631 Z-1.0 I0.0063 J-0.0108
G2 X26.5974 Y66.7523 Z-1.0333 I-0.0125 J0.0
G2 Y66.7739 Z-1.0667 I0.0062 J0.0108
G2 X26.6162 Y66.7631 Z-1.1 I0.0063 J-0.0108
G2 X26.5974 Y66.7523 Z-1.1333 I-0.0125 J0.0
G2 Y66.7739 Z-1.1667 I0.0062 J0.0108
G2 X26.6162 Y66.7631 Z-1.2 I0.0063 J-0.0108
G2 X26.5974 Y66.7523 Z-1.2333 I-0.0125 J0.0
G2 Y66.7739 Z-1.2667 I0.0062 J0.0108
G2 X26.6162 Y66.7631 Z-1.3 I0.0063 J-0.0108
G2 X26.5974 Y66.7523 Z-1.3333 I-0.0125 J0.0
G2 Y66.7739 Z-1.3667 I0.0062 J0.0108
G2 X26.6162 Y66.7631 Z-1.4 I0.0063 J-0.0108
G2 X26.5974 Y66.7523 Z-1.4333 I-0.0125 J0.0
G2 Y66.7739 Z-1.4667 I0.0062 J0.0108
G2 X26.6162 Y66.7631 Z-1.5 I0.0063 J-0.0108
G2 X26.5974 Y66.7523 Z-1.5333 I-0.0125 J0.0
G2 Y66.7739 Z-1.5667 I0.0062 J0.0108
G2 X26.6162 Y66.7631 Z-1.6 I0.0063 J-0.0108
G2 X26.5974 Y66.7523 Z-1.6333 I-0.0125 J0.0
G2 Y66.7739 Z-1.6667 I0.0062 J0.0108
G2 X26.6162 Y66.7631 Z-1.7 I0.0063 J-0.0108
G2 X26.5974 Y66.7523 Z-1.7333 I-0.0125 J0.0
G2 Y66.7739 Z-1.7667 I0.0062 J0.0108
G2 X26.6162 Y66.7631 Z-1.8 I0.0063 J-0.0108
G2 X26.5974 Y66.7523 Z-1.8333 I-0.0125 J0.0
G2 Y66.7739 Z-1.8667 I0.0062 J0.0108
G2 X26.6162 Y66.7631 Z-1.9 I0.0063 J-0.0108
G2 X26.5974 Y66.7523 Z-1.9333 I-0.0125 J0.0
G2 Y66.7739 Z-1.9667 I0.0062 J0.0108
G2 X26.6162 Y66.7631 Z-2.0 I0.0063 J-0.0108
G2 X26.5974 Y66.7523 Z-2.0333 I-0.0125 J0.0
G2 Y66.7739 Z-2.0667 I0.0062 J0.0108
G2 X26.6162 Y66.7631 Z-2.1 I0.0063 J-0.0108
G2 X26.5974 Y66.7523 Z-2.1333 I-0.0125 J0.0
G2 Y66.7739 Z-2.1667 I0.0062 J0.0108
G2 X26.6162 Y66.7631 Z-2.2 I0.0063 J-0.0108
G2 X26.5974 Y66.7523 Z-2.2333 I-0.0125 J0.0
G2 Y66.7739 Z-2.2667 I0.0062 J0.0108
G2 X26.6162 Y66.7631 Z-2.3 I0.0063 J-0.0108
G2 X26.5974 Y66.7523 Z-2.3333 I-0.0125 J0.0
G2 Y66.7739 Z-2.3667 I0.0062 J0.0108
G2 X26.6162 Y66.7631 Z-2.4 I0.0063 J-0.0108
G2 X26.5974 Y66.7523 Z-2.4333 I-0.0125 J0.0
G2 Y66.7739 Z-2.4667 I0.0062 J0.0108
G2 X26.6162 Y66.7631 Z-2.5 I0.0063 J-0.0108
G2 X26.5974 Y66.7523 Z-2.5333 I-0.0125 J0.0
G2 Y66.7739 Z-2.5667 I0.0062 J0.0108
G2 X26.6162 Y66.7631 Z-2.6 I0.0063 J-0.0108
G2 X26.5974 Y66.7523 Z-2.6333 I-0.0125 J0.0
G2 Y66.7739 Z-2.6667 I0.0062 J0.0108
G2 X26.6162 Y66.7631 Z-2.7 I0.0063 J-0.0108
G2 X26.5974 Y66.7523 Z-2.7333 I-0.0125 J0.0
G2 Y66.7739 Z-2.7667 I0.0062 J0.0108
G2 X26.6162 Y66.7631 Z-2.8 I0.0063 J-0.0108
G2 X26.5974 Y66.7523 Z-2.8333 I-0.0125 J0.0
G2 Y66.7739 Z-2.8667 I0.0062 J0.0108
G2 X26.6162 Y66.7631 Z-2.9 I0.0063 J-0.0108
G2 X26.5974 Y66.7523 Z-2.9333 I-0.0125 J0.0
G2 Y66.7739 Z-2.9667 I0.0062 J0.0108
G2 X26.6162 Y66.7631 Z-3.0 I0.0063 J-0.0108
G2 X26.5974 Y66.7523 Z-3.0333 I-0.0125 J0.0
G2 Y66.7739 Z-3.0667 I0.0062 J0.0108
G2 X26.6162 Y66.7631 Z-3.1 I0.0063 J-0.0108
G2 X26.5974 Y66.7523 Z-3.1333 I-0.0125 J0.0
G2 Y66.7739 Z-3.1667 I0.0062 J0.0108
G2 X26.6162 Y66.7631 Z-3.2 I0.0063 J-0.0108
G2 X26.5974 Y66.7523 I-0.0125 J0.0
G2 Y66.7739 I0.0063 J0.0108
G2 X26.6162 Y66.7631 I0.0062 J-0.0108
G0 Z3.0
G0 X19.5732 Y80.5414
G1 F1000.0 Z0.0
G2 F2000.0 X19.5545 Y80.5305 Z-0.0333 I-0.0125 J0.0
G2 Y80.5522 Z-0.0667 I0.0062 J0.0108
G2 X19.5732 Y80.5414 Z-0.1 I0.0063 J-0.0108
G2 X19.5545 Y80.5305 Z-0.1333 I-0.0125 J0.0
G2 Y80.5522 Z-0.1667 I0.0062 J0.0108
G2 X19.5732 Y80.5414 Z-0.2 I0.0063 J-0.0108
G2 X19.5545 Y80.5305 Z-0.2333 I-0.0125 J0.0
G2 Y80.5522 Z-0.2667 I0.0062 J0.0108
G2 X19.5732 Y80.5414 Z-0.3 I0.0063 J-0.0108
G2 X19.5545 Y80.5305 Z-0.3333 I-0.0125 J0.0
G2 Y80.5522 Z-0.3667 I0.0062 J0.0108
G2 X19.5732 Y80.5414 Z-0.4 I0.0063 J-0.0108
G2 X19.5545 Y80.5305 Z-0.4333 I-0.0125 J0.0
G2 Y80.5522 Z-0.4667 I0.0062 J0.0108
G2 X19.5732 Y80.5414 Z-0.5 I0.0063 J-0.0108
G2 X19.5545 Y80.5305 Z-0.5333 I-0.0125 J0.0
G2 Y80.5522 Z-0.5667 I0.0062 J0.0108
G2 X19.5732 Y80.5414 Z-0.6 I0.0063 J-0.0108
G2 X19.5545 Y80.5305 Z-0.6333 I-0.0125 J0.0
G2 Y80.5522 Z-0.6667 I0.0062 J0.0108
G2 X19.5732 Y80.5414 Z-0.7 I0.0063 J-0.0108
G2 X19.5545 Y80.5305 Z-0.7333 I-0.0125 J0.0
G2 Y80.5522 Z-0.7667 I0.0062 J0.0108
G2 X19.5732 Y80.5414 Z-0.8 I0.0063 J-0.0108
G2 X19.5545 Y80.5305 Z-0.8333 I-0.0125 J0.0
G2 Y80.5522 Z-0.8667 I0.0062 J0.0108
G2 X19.5732 Y80.5414 Z-0.9 I0.0063 J-0.0108
G2 X19.5545 Y80.5305 Z-0.9333 I-0.0125 J0.0
G2 Y80.5522 Z-0.9667 I0.0062 J0.0108
G2 X19.5732 Y80.5414 Z-1.0 I0.0063 J-0.0108
G2 X19.5545 Y80.5305 Z-1.0333 I-0.0125 J0.0
G2 Y80.5522 Z-1.0667 I0.0062 J0.0108
G2 X19.5732 Y80.5414 Z-1.1 I0.0063 J-0.0108
G2 X19.5545 Y80.5305 Z-1.1333 I-0.0125 J0.0
G2 Y80.5522 Z-1.1667 I0.0062 J0.0108
G2 X19.5732 Y80.5414 Z-1.2 I0.0063 J-0.0108
G2 X19.5545 Y80.5305 Z-1.2333 I-0.0125 J0.0
G2 Y80.5522 Z-1.2667 I0.0062 J0.0108
G2 X19.5732 Y80.5414 Z-1.3 I0.0063 J-0.0108
G2 X19.5545 Y80.5305 Z-1.3333 I-0.0125 J0.0
G2 Y80.5522 Z-1.3667 I0.0062 J0.0108
G2 X19.5732 Y80.5414 Z-1.4 I0.0063 J-0.0108
G2 X19.5545 Y80.5305 Z-1.4333 I-0.0125 J0.0
G2 Y80.5522 Z-1.4667 I0.0062 J0.0108
G2 X19.5732 Y80.5414 Z-1.5 I0.0063 J-0.0108
G2 X19.5545 Y80.5305 Z-1.5333 I-0.0125 J0.0
G2 Y80.5522 Z-1.5667 I0.0062 J0.0108
G2 X19.5732 Y80.5414 Z-1.6 I0.0063 J-0.0108
G2 X19.5545 Y80.5305 Z-1.6333 I-0.0125 J0.0
G2 Y80.5522 Z-1.6667 I0.0062 J0.0108
G2 X19.5732 Y80.5414 Z-1.7 I0.0063 J-0.0108
G2 X19.5545 Y80.5305 Z-1.7333 I-0.0125 J0.0
G2 Y80.5522 Z-1.7667 I0.0062 J0.0108
G2 X19.5732 Y80.5414 Z-1.8 I0.0063 J-0.0108
G2 X19.5545 Y80.5305 Z-1.8333 I-0.0125 J0.0
G2 Y80.5522 Z-1.8667 I0.0062 J0.0108
G2 X19.5732 Y80.5414 Z-1.9 I0.0063 J-0.0108
G2 X19.5545 Y80.5305 Z-1.9333 I-0.0125 J0.0
G2 Y80.5522 Z-1.9667 I0.0062 J0.0108
G2 X19.5732 Y80.5414 Z-2.0 I0.0063 J-0.0108
G2 X19.5545 Y80.5305 Z-2.0333 I-0.0125 J0.0
G2 Y80.5522 Z-2.0667 I0.0062 J0.0108
G2 X19.5732 Y80.5414 Z-2.1 I0.0063 J-0.0108
G2 X19.5545 Y80.5305 Z-2.1333 I-0.0125 J0.0
G2 Y80.5522 Z-2.1667 I0.0062 J0.0108
G2 X19.5732 Y80.5414 Z-2.2 I0.0063 J-0.0108
G2 X19.5545 Y80.5305 Z-2.2333 I-0.0125 J0.0
G2 Y80.5522 Z-2.2667 I0.0062 J0.0108
G2 X19.5732 Y80.5414 Z-2.3 I0.0063 J-0.0108
G2 X19.5545 Y80.5305 Z-2.3333 I-0.0125 J0.0
G2 Y80.5522 Z-2.3667 I0.0062 J0.0108
G2 X19.5732 Y80.5414 Z-2.4 I0.0063 J-0.0108
G2 X19.5545 Y80.5305 Z-2.4333 I-0.0125 J0.0
G2 Y80.5522 Z-2.4667 I0.0062 J0.0108
G2 X19.5732 Y80.5414 Z-2.5 I0.0063 J-0.0108
G2 X19.5545 Y80.5305 Z-2.5333 I-0.0125 J0.0
G2 Y80.5522 Z-2.5667 I0.0062 J0.0108
G2 X19.5732 Y80.5414 Z-2.6 I0.0063 J-0.0108
G2 X19.5545 Y80.5305 Z-2.6333 I-0.0125 J0.0
G2 Y80.5522 Z-2.6667 I0.0062 J0.0108
G2 X19.5732 Y80.5414 Z-2.7 I0.0063 J-0.0108
G2 X19.5545 Y80.5305 Z-2.7333 I-0.0125 J0.0
G2 Y80.5522 Z-2.7667 I0.0062 J0.0108
G2 X19.5732 Y80.5414 Z-2.8 I0.0063 J-0.0108
G2 X19.5545 Y80.5305 Z-2.8333 I-0.0125 J0.0
G2 Y80.5522 Z-2.8667 I0.0062 J0.0108
G2 X19.5732 Y80.5414 Z-2.9 I0.0063 J-0.0108
G2 X19.5545 Y80.5305 Z-2.9333 I-0.0125 J0.0
G2 Y80.5522 Z-2.9667 I0.0062 J0.0108
G2 X19.5732 Y80.5414 Z-3.0 I0.0063 J-0.0108
G2 X19.5545 Y80.5305 Z-3.0333 I-0.0125 J0.0
G2 Y80.5522 Z-3.0667 I0.0062 J0.0108
G2 X19.5732 Y80.5414 Z-3.1 I0.0063 J-0.0108
G2 X19.5545 Y80.5305 Z-3.1333 I-0.0125 J0.0
G2 Y80.5522 Z-3.1667 I0.0062 J0.0108
G2 X19.5732 Y80.5414 Z-3.2 I0.0063 J-0.0108
G2 X19.5545 Y80.5305 I-0.0125 J0.0
G2 Y80.5522 I0.0063 J0.0108
G2 X19.5732 Y80.5414 I0.0062 J-0.0108
G0 Z3.0
G0 X26.6163 Y94.6709
G1 F1000.0 Z0.0
G2 F2000.0 X26.5976 Y94.6601 Z-0.0333 I-0.0125 J0.0
G2 Y94.6817 Z-0.0667 I0.0062 J0.0108
G2 X26.6163 Y94.6709 Z-0.1 I0.0063 J-0.0108
G2 X26.5976 Y94.6601 Z-0.1333 I-0.0125 J0.0
G2 Y94.6817 Z-0.1667 I0.0062 J0.0108
G2 X26.6163 Y94.6709 Z-0.2 I0.0063 J-0.0108
G2 X26.5976 Y94.6601 Z-0.2333 I-0.0125 J0.0
G2 Y94.6817 Z-0.2667 I0.0062 J0.0108
G2 X26.6163 Y94.6709 Z-0.3 I0.0063 J-0.0108
G2 X26.5976 Y94.6601 Z-0.3333 I-0.0125 J0.0
G2 Y94.6817 Z-0.3667 I0.0062 J0.0108
G2 X26.6163 Y94.6709 Z-0.4 I0.0063 J-0.0108
G2 X26.5976 Y94.6601 Z-0.4333 I-0.0125 J0.0
G2 Y94.6817 Z-0.4667 I0.0062 J0.0108
G2 X26.6163 Y94.6709 Z-0.5 I0.0063 J-0.0108
G2 X26.5976 Y94.6601 Z-0.5333 I-0.0125 J0.0
G2 Y94.6817 Z-0.5667 I0.0062 J0.0108
G2 X26.6163 Y94.6709 Z-0.6 I0.0063 J-0.0108
G2 X26.5976 Y94.6601 Z-0.6333 I-0.0125 J0.0
G2 Y94.6817 Z-0.6667 I0.0062 J0.0108
G2 X26.6163 Y94.6709 Z-0.7 I0.0063 J-0.0108
G2 X26.5976 Y94.6601 Z-0.7333 I-0.0125 J0.0
G2 Y94.6817 Z-0.7667 I0.0062 J0.0108
G2 X26.6163 Y94.6709 Z-0.8 I0.0063 J-0.0108
G2 X26.5976 Y94.6601 Z-0.8333 I-0.0125 J0.0
G2 Y94.6817 Z-0.8667 I0.0062 J0.0108
G2 X26.6163 Y94.6709 Z-0.9 I0.0063 J-0.0108
G2 X26.5976 Y94.6601 Z-0.9333 I-0.0125 J0.0
G2 Y94.6817 Z-0.9667 I0.0062 J0.0108
G2 X26.6163 Y94.6709 Z-1.0 I0.0063 J-0.0108
G2 X26.5976 Y94.6601 Z-1.0333 I-0.0125 J0.0
G2 Y94.6817 Z-1.0667 I0.0062 J0.0108
G2 X26.6163 Y94.6709 Z-1.1 I0.0063 J-0.0108
G2 X26.5976 Y94.6601 Z-1.1333 I-0.0125 J0.0
G2 Y94.6817 Z-1.1667 I0.0062 J0.0108
G2 X26.6163 Y94.6709 Z-1.2 I0.0063 J-0.0108
G2 X26.5976 Y94.6601 Z-1.2333 I-0.0125 J0.0
G2 Y94.6817 Z-1.2667 I0.0062 J0.0108
G2 X26.6163 Y94.6709 Z-1.3 I0.0063 J-0.0108
G2 X26.5976 Y94.6601 Z-1.3333 I-0.0125 J0.0
G2 Y94.6817 Z-1.3667 I0.0062 J0.0108
G2 X26.6163 Y94.6709 Z-1.4 I0.0063 J-0.0108
G2 X26.5976 Y94.6601 Z-1.4333 I-0.0125 J0.0
G2 Y94.6817 Z-1.4667 I0.0062 J0.0108
G2 X26.6163 Y94.6709 Z-1.5 I0.0063 J-0.0108
G2 X26.5976 Y94.6601 Z-1.5333 I-0.0125 J0.0
G2 Y94.6817 Z-1.5667 I0.0062 J0.0108
G2 X26.6163 Y94.6709 Z-1.6 I0.0063 J-0.0108
G2 X26.5976 Y94.6601 Z-1.6333 I-0.0125 J0.0
G2 Y94.6817 Z-1.6667 I0.0062 J0.0108
G2 X26.6163 Y94.6709 Z-1.7 I0.0063 J-0.0108
G2 X26.5976 Y94.6601 Z-1.7333 I-0.0125 J0.0
G2 Y94.6817 Z-1.7667 I0.0062 J0.0108
G2 X26.6163 Y94.6709 Z-1.8 I0.0063 J-0.0108
G2 X26.5976 Y94.6601 Z-1.8333 I-0.0125 J0.0
G2 Y94.6817 Z-1.8667 I0.0062 J0.0108
G2 X26.6163 Y94.6709 Z-1.9 I0.0063 J-0.0108
G2 X26.5976 Y94.6601 Z-1.9333 I-0.0125 J0.0
G2 Y94.6817 Z-1.9667 I0.0062 J0.0108
G2 X26.6163 Y94.6709 Z-2.0 I0.0063 J-0.0108
G2 X26.5976 Y94.6601 Z-2.0333 I-0.0125 J0.0
G2 Y94.6817 Z-2.0667 I0.0062 J0.0108
G2 X26.6163 Y94.6709 Z-2.1 I0.0063 J-0.0108
G2 X26.5976 Y94.6601 Z-2.1333 I-0.0125 J0.0
G2 Y94.6817 Z-2.1667 I0.0062 J0.0108
G2 X26.6163 Y94.6709 Z-2.2 I0.0063 J-0.0108
G2 X26.5976 Y94.6601 Z-2.2333 I-0.0125 J0.0
G2 Y94.6817 Z-2.2667 I0.0062 J0.0108
G2 X26.6163 Y94.6709 Z-2.3 I0.0063 J-0.0108
G2 X26.5976 Y94.6601 Z-2.3333 I-0.0125 J0.0
G2 Y94.6817 Z-2.3667 I0.0062 J0.0108
G2 X26.6163 Y94.6709 Z-2.4 I0.0063 J-0.0108
G2 X26.5976 Y94.6601 Z-2.4333 I-0.0125 J0.0
G2 Y94.6817 Z-2.4667 I0.0062 J0.0108
G2 X26.6163 Y94.6709 Z-2.5 I0.0063 J-0.0108
G2 X26.5976 Y94.6601 Z-2.5333 I-0.0125 J0.0
G2 Y94.6817 Z-2.5667 I0.0062 J0.0108
G2 X26.6163 Y94.6709 Z-2.6 I0.0063 J-0.0108
G2 X26.5976 Y94.6601 Z-2.6333 I-0.0125 J0.0
G2 Y94.6817 Z-2.6667 I0.0062 J0.0108
G2 X26.6163 Y94.6709 Z-2.7 I0.0063 J-0.0108
G2 X26.5976 Y94.6601 Z-2.7333 I-0.0125 J0.0
G2 Y94.6817 Z-2.7667 I0.0062 J0.0108
G2 X26.6163 Y94.6709 Z-2.8 I0.0063 J-0.0108
G2 X26.5976 Y94.6601 Z-2.8333 I-0.0125 J0.0
G2 Y94.6817 Z-2.8667 I0.0062 J0.0108
G2 X26.6163 Y94.6709 Z-2.9 I0.0063 J-0.0108
G2 X26.5976 Y94.6601 Z-2.9333 I-0.0125 J0.0
G2 Y94.6817 Z-2.9667 I0.0062 J0.0108
G2 X26.6163 Y94.6709 Z-3.0 I0.0063 J-0.0108
G2 X26.5976 Y94.6601 Z-3.0333 I-0.0125 J0.0
G2 Y94.6817 Z-3.0667 I0.0062 J0.0108
G2 X26.6163 Y94.6709 Z-3.1 I0.0063 J-0.0108
G2 X26.5976 Y94.6601 Z-3.1333 I-0.0125 J0.0
G2 Y94.6817 Z-3.1667 I0.0062 J0.0108
G2 X26.6163 Y94.6709 Z-3.2 I0.0063 J-0.0108
G2 X26.5976 Y94.6601 I-0.0125 J0.0
G2 Y94.6817 I0.0063 J0.0108
G2 X26.6163 Y94.6709 I0.0062 J-0.0108
G0 Z3.0
G0 X19.5752 Y108.449
G1 F1000.0 Z0.0
G2 F2000.0 X19.5565 Y108.4382 Z-0.0333 I-0.0125 J0.0
G2 Y108.4598 Z-0.0667 I0.0062 J0.0108
G2 X19.5752 Y108.449 Z-0.1 I0.0063 J-0.0108
G2 X19.5565 Y108.4382 Z-0.1333 I-0.0125 J0.0
G2 Y108.4598 Z-0.1667 I0.0062 J0.0108
G2 X19.5752 Y108.449 Z-0.2 I0.0063 J-0.0108
G2 X19.5565 Y108.4382 Z-0.2333 I-0.0125 J0.0
G2 Y108.4598 Z-0.2667 I0.0062 J0.0108
G2 X19.5752 Y108.449 Z-0.3 I0.0063 J-0.0108
G2 X19.5565 Y108.4382 Z-0.3333 I-0.0125 J0.0
G2 Y108.4598 Z-0.3667 I0.0062 J0.0108
G2 X19.5752 Y108.449 Z-0.4 I0.0063 J-0.0108
G2 X19.5565 Y108.4382 Z-0.4333 I-0.0125 J0.0
G2 Y108.4598 Z-0.4667 I0.0062 J0.0108
G2 X19.5752 Y108.449 Z-0.5 I0.0063 J-0.0108
G2 X19.5565 Y108.4382 Z-0.5333 I-0.0125 J0.0
G2 Y108.4598 Z-0.5667 I0.0062 J0.0108
G2 X19.5752 Y108.449 Z-0.6 I0.0063 J-0.0108
G2 X19.5565 Y108.4382 Z-0.6333 I-0.0125 J0.0
G2 Y108.4598 Z-0.6667 I0.0062 J0.0108
G2 X19.5752 Y108.449 Z-0.7 I0.0063 J-0.0108
G2 X19.5565 Y108.4382 Z-0.7333 I-0.0125 J0.0
G2 Y108.4598 Z-0.7667 I0.0062 J0.0108
G2 X19.5752 Y108.449 Z-0.8 I0.0063 J-0.0108
G2 X19.5565 Y108.4382 Z-0.8333 I-0.0125 J0.0
G2 Y108.4598 Z-0.8667 I0.0062 J0.0108
G2 X19.5752 Y108.449 Z-0.9 I0.0063 J-0.0108
G2 X19.5565 Y108.4382 Z-0.9333 I-0.0125 J0.0
G2 Y108.4598 Z-0.9667 I0.0062 J0.0108
G2 X19.5752 Y108.449 Z-1.0 I0.0063 J-0.0108
G2 X19.5565 Y108.4382 Z-1.0333 I-0.0125 J0.0
G2 Y108.4598 Z-1.0667 I0.0062 J0.0108
G2 X19.5752 Y108.449 Z-1.1 I0.0063 J-0.0108
G2 X19.5565 Y108.4382 Z-1.1333 I-0.0125 J0.0
G2 Y108.4598 Z-1.1667 I0.0062 J0.0108
G2 X19.5752 Y108.449 Z-1.2 I0.0063 J-0.0108
G2 X19.5565 Y108.4382 Z-1.2333 I-0.0125 J0.0
G2 Y108.4598 Z-1.2667 I0.0062 J0.0108
G2 X19.5752 Y108.449 Z-1.3 I0.0063 J-0.0108
G2 X19.5565 Y108.4382 Z-1.3333 I-0.0125 J0.0
G2 Y108.4598 Z-1.3667 I0.0062 J0.0108
G2 X19.5752 Y108.449 Z-1.4 I0.0063 J-0.0108
G2 X19.5565 Y108.4382 Z-1.4333 I-0.0125 J0.0
G2 Y108.4598 Z-1.4667 I0.0062 J0.0108
G2 X19.5752 Y108.449 Z-1.5 I0.0063 J-0.0108
G2 X19.5565 Y108.4382 Z-1.5333 I-0.0125 J0.0
G2 Y108.4598 Z-1.5667 I0.0062 J0.0108
G2 X19.5752 Y108.449 Z-1.6 I0.0063 J-0.0108
G2 X19.5565 Y108.4382 Z-1.6333 I-0.0125 J0.0
G2 Y108.4598 Z-1.6667 I0.0062 J0.0108
G2 X19.5752 Y108.449 Z-1.7 I0.0063 J-0.0108
G2 X19.5565 Y108.4382 Z-1.7333 I-0.0125 J0.0
G2 Y108.4598 Z-1.7667 I0.0062 J0.0108
G2 X19.5752 Y108.449 Z-1.8 I0.0063 J-0.0108
G2 X19.5565 Y108.4382 Z-1.8333 I-0.0125 J0.0
G2 Y108.4598 Z-1.8667 I0.0062 J0.0108
G2 X19.5752 Y108.449 Z-1.9 I0.0063 J-0.0108
G2 X19.5565 Y108.4382 Z-1.9333 I-0.0125 J0.0
G2 Y108.4598 Z-1.9667 I0.0062 J0.0108
G2 X19.5752 Y108.449 Z-2.0 I0.0063 J-0.0108
G2 X19.5565 Y108.4382 Z-2.0333 I-0.0125 J0.0
G2 Y108.4598 Z-2.0667 I0.0062 J0.0108
G2 X19.5752 Y108.449 Z-2.1 I0.0063 J-0.0108
G2 X19.5565 Y108.4382 Z-2.1333 I-0.0125 J0.0
G2 Y108.4598 Z-2.1667 I0.0062 J0.0108
G2 X19.5752 Y108.449 Z-2.2 I0.0063 J-0.0108
G2 X19.5565 Y108.4382 Z-2.2333 I-0.0125 J0.0
G2 Y108.4598 Z-2.2667 I0.0062 J0.0108
G2 X19.5752 Y108.449 Z-2.3 I0.0063 J-0.0108
G2 X19.5565 Y108.4382 Z-2.3333 I-0.0125 J0.0
G2 Y108.4598 Z-2.3667 I0.0062 J0.0108
G2 X19.5752 Y108.449 Z-2.4 I0.0063 J-0.0108
G2 X19.5565 Y108.4382 Z-2.4333 I-0.0125 J0.0
G2 Y108.4598 Z-2.4667 I0.0062 J0.0108
G2 X19.5752 Y108.449 Z-2.5 I0.0063 J-0.0108
G2 X19.5565 Y108.4382 Z-2.5333 I-0.0125 J0.0
G2 Y108.4598 Z-2.5667 I0.0062 J0.0108
G2 X19.5752 Y108.449 Z-2.6 I0.0063 J-0.0108
G2 X19.5565 Y108.4382 Z-2.6333 I-0.0125 J0.0
G2 Y108.4598 Z-2.6667 I0.0062 J0.0108
G2 X19.5752 Y108.449 Z-2.7 I0.0063 J-0.0108
G2 X19.5565 Y108.4382 Z-2.7333 I-0.0125 J0.0
G2 Y108.4598 Z-2.7667 I0.0062 J0.0108
G2 X19.5752 Y108.449 Z-2.8 I0.0063 J-0.0108
G2 X19.5565 Y108.4382 Z-2.8333 I-0.0125 J0.0
G2 Y108.4598 Z-2.8667 I0.0062 J0.0108
G2 X19.5752 Y108.449 Z-2.9 I0.0063 J-0.0108
G2 X19.5565 Y108.4382 Z-2.9333 I-0.0125 J0.0
G2 Y108.4598 Z-2.9667 I0.0062 J0.0108
G2 X19.5752 Y108.449 Z-3.0 I0.0063 J-0.0108
G2 X19.5565 Y108.4382 Z-3.0333 I-0.0125 J0.0
G2 Y108.4598 Z-3.0667 I0.0062 J0.0108
G2 X19.5752 Y108.449 Z-3.1 I0.0063 J-0.0108
G2 X19.5565 Y108.4382 Z-3.1333 I-0.0125 J0.0
G2 Y108.4598 Z-3.1667 I0.0062 J0.0108
G2 X19.5752 Y108.449 Z-3.2 I0.0063 J-0.0108
G2 X19.5565 Y108.4382 I-0.0125 J0.0
G2 Y108.4598 I0.0063 J0.0108
G2 X19.5752 Y108.449 I0.0062 J-0.0108
G0 Z3.0
G0 X24.3591 Y124.9709
G1 F1000.0 Z0.0
G2 F2000.0 X24.3404 Y124.9601 Z-0.0333 I-0.0125 J0.0
G2 Y124.9817 Z-0.0667 I0.0062 J0.0108
G2 X24.3591 Y124.9709 Z-0.1 I0.0063 J-0.0108
G2 X24.3404 Y124.9601 Z-0.1333 I-0.0125 J0.0
G2 Y124.9817 Z-0.1667 I0.0062 J0.0108
G2 X24.3591 Y124.9709 Z-0.2 I0.0063 J-0.0108
G2 X24.3404 Y124.9601 Z-0.2333 I-0.0125 J0.0
G2 Y124.9817 Z-0.2667 I0.0062 J0.0108
G2 X24.3591 Y124.9709 Z-0.3 I0.0063 J-0.0108
G2 X24.3404 Y124.9601 Z-0.3333 I-0.0125 J0.0
G2 Y124.9817 Z-0.3667 I0.0062 J0.0108
G2 X24.3591 Y124.9709 Z-0.4 I0.0063 J-0.0108
G2 X24.3404 Y124.9601 Z-0.4333 I-0.0125 J0.0
G2 Y124.9817 Z-0.4667 I0.0062 J0.0108
G2 X24.3591 Y124.9709 Z-0.5 I0.0063 J-0.0108
G2 X24.3404 Y124.9601 Z-0.5333 I-0.0125 J0.0
G2 Y124.9817 Z-0.5667 I0.0062 J0.0108
G2 X24.3591 Y124.9709 Z-0.6 I0.0063 J-0.0108
G2 X24.3404 Y124.9601 Z-0.6333 I-0.0125 J0.0
G2 Y124.9817 Z-0.6667 I0.0062 J0.0108
G2 X24.3591 Y124.9709 Z-0.7 I0.0063 J-0.0108
G2 X24.3404 Y124.9601 Z-0.7333 I-0.0125 J0.0
G2 Y124.9817 Z-0.7667 I0.0062 J0.0108
G2 X24.3591 Y124.9709 Z-0.8 I0.0063 J-0.0108
G2 X24.3404 Y124.9601 Z-0.8333 I-0.0125 J0.0
G2 Y124.9817 Z-0.8667 I0.0062 J0.0108
G2 X24.3591 Y124.9709 Z-0.9 I0.0063 J-0.0108
G2 X24.3404 Y124.9601 Z-0.9333 I-0.0125 J0.0
G2 Y124.9817 Z-0.9667 I0.0062 J0.0108
G2 X24.3591 Y124.9709 Z-1.0 I0.0063 J-0.0108
G2 X24.3404 Y124.9601 Z-1.0333 I-0.0125 J0.0
G2 Y124.9817 Z-1.0667 I0.0062 J0.0108
G2 X24.3591 Y124.9709 Z-1.1 I0.0063 J-0.0108
G2 X24.3404 Y124.9601 Z-1.1333 I-0.0125 J0.0
G2 Y124.9817 Z-1.1667 I0.0062 J0.0108
G2 X24.3591 Y124.9709 Z-1.2 I0.0063 J-0.0108
G2 X24.3404 Y124.9601 Z-1.2333 I-0.0125 J0.0
G2 Y124.9817 Z-1.2667 I0.0062 J0.0108
G2 X24.3591 Y124.9709 Z-1.3 I0.0063 J-0.0108
G2 X24.3404 Y124.9601 Z-1.3333 I-0.0125 J0.0
G2 Y124.9817 Z-1.3667 I0.0062 J0.0108
G2 X24.3591 Y124.9709 Z-1.4 I0.0063 J-0.0108
G2 X24.3404 Y124.9601 Z-1.4333 I-0.0125 J0.0
G2 Y124.9817 Z-1.4667 I0.0062 J0.0108
G2 X24.3591 Y124.9709 Z-1.5 I0.0063 J-0.0108
G2 X24.3404 Y124.9601 Z-1.5333 I-0.0125 J0.0
G2 Y124.9817 Z-1.5667 I0.0062 J0.0108
G2 X24.3591 Y124.9709 Z-1.6 I0.0063 J-0.0108
G2 X24.3404 Y124.9601 Z-1.6333 I-0.0125 J0.0
G2 Y124.9817 Z-1.6667 I0.0062 J0.0108
G2 X24.3591 Y124.9709 Z-1.7 I0.0063 J-0.0108
G2 X24.3404 Y124.9601 Z-1.7333 I-0.0125 J0.0
G2 Y124.9817 Z-1.7667 I0.0062 J0.0108
G2 X24.3591 Y124.9709 Z-1.8 I0.0063 J-0.0108
G2 X24.3404 Y124.9601 Z-1.8333 I-0.0125 J0.0
G2 Y124.9817 Z-1.8667 I0.0062 J0.0108
G2 X24.3591 Y124.9709 Z-1.9 I0.0063 J-0.0108
G2 X24.3404 Y124.9601 Z-1.9333 I-0.0125 J0.0
G2 Y124.9817 Z-1.9667 I0.0062 J0.0108
G2 X24.3591 Y124.9709 Z-2.0 I0.0063 J-0.0108
G2 X24.3404 Y124.9601 Z-2.0333 I-0.0125 J0.0
G2 Y124.9817 Z-2.0667 I0.0062 J0.0108
G2 X24.3591 Y124.9709 Z-2.1 I0.0063 J-0.0108
G2 X24.3404 Y124.9601 Z-2.1333 I-0.0125 J0.0
G2 Y124.9817 Z-2.1667 I0.0062 J0.0108
G2 X24.3591 Y124.9709 Z-2.2 I0.0063 J-0.0108
G2 X24.3404 Y124.9601 Z-2.2333 I-0.0125 J0.0
G2 Y124.9817 Z-2.2667 I0.0062 J0.0108
G2 X24.3591 Y124.9709 Z-2.3 I0.0063 J-0.0108
G2 X24.3404 Y124.9601 Z-2.3333 I-0.0125 J0.0
G2 Y124.9817 Z-2.3667 I0.0062 J0.0108
G2 X24.3591 Y124.9709 Z-2.4 I0.0063 J-0.0108
G2 X24.3404 Y124.9601 Z-2.4333 I-0.0125 J0.0
G2 Y124.9817 Z-2.4667 I0.0062 J0.0108
G2 X24.3591 Y124.9709 Z-2.5 I0.0063 J-0.0108
G2 X24.3404 Y124.9601 Z-2.5333 I-0.0125 J0.0
G2 Y124.9817 Z-2.5667 I0.0062 J0.0108
G2 X24.3591 Y124.9709 Z-2.6 I0.0063 J-0.0108
G2 X24.3404 Y124.9601 Z-2.6333 I-0.0125 J0.0
G2 Y124.9817 Z-2.6667 I0.0062 J0.0108
G2 X24.3591 Y124.9709 Z-2.7 I0.0063 J-0.0108
G2 X24.3404 Y124.9601 Z-2.7333 I-0.0125 J0.0
G2 Y124.9817 Z-2.7667 I0.0062 J0.0108
G2 X24.3591 Y124.9709 Z-2.8 I0.0063 J-0.0108
G2 X24.3404 Y124.9601 Z-2.8333 I-0.0125 J0.0
G2 Y124.9817 Z-2.8667 I0.0062 J0.0108
G2 X24.3591 Y124.9709 Z-2.9 I0.0063 J-0.0108
G2 X24.3404 Y124.9601 Z-2.9333 I-0.0125 J0.0
G2 Y124.9817 Z-2.9667 I0.0062 J0.0108
G2 X24.3591 Y124.9709 Z-3.0 I0.0063 J-0.0108
G2 X24.3404 Y124.9601 Z-3.0333 I-0.0125 J0.0
G2 Y124.9817 Z-3.0667 I0.0062 J0.0108
G2 X24.3591 Y124.9709 Z-3.1 I0.0063 J-0.0108
G2 X24.3404 Y124.9601 Z-3.1333 I-0.0125 J0.0
G2 Y124.9817 Z-3.1667 I0.0062 J0.0108
G2 X24.3591 Y124.9709 Z-3.2 I0.0063 J-0.0108
G2 X24.3404 Y124.9601 I-0.0125 J0.0
G2 Y124.9817 I0.0063 J0.0108
G2 X24.3591 Y124.9709 I0.0062 J-0.0108
( Profile1 )
S1000
G0 Z3.0
G0 X15.422 Y-1.5146
G1 F1000.0 Z-0.1
G1 F2000.0 X0.1202
G2 X-1.4673 Y0.0729 I0.0 J1.5875
G1 Y128.1709
G2 X0.1202 Y129.7584 I1.5875 J0.0
G1 X42.4925
G2 X44.08 Y128.1709 I0.0 J-1.5875
G1 Y0.0729
G2 X42.4925 Y-1.5146 I-1.5875 J0.0
G1 X15.422
G1 F1000.0 Z-0.2
G1 F2000.0 X0.1202
G2 X-1.4673 Y0.0729 I0.0 J1.5875
G1 Y128.1709
G2 X0.1202 Y129.7584 I1.5875 J0.0
G1 X42.4925
G2 X44.08 Y128.1709 I0.0 J-1.5875
G1 Y0.0729
G2 X42.4925 Y-1.5146 I-1.5875 J0.0
G1 X15.422
G1 F1000.0 Z-0.3
G1 F2000.0 X0.1202
G2 X-1.4673 Y0.0729 I0.0 J1.5875
G1 Y128.1709
G2 X0.1202 Y129.7584 I1.5875 J0.0
G1 X42.4925
G2 X44.08 Y128.1709 I0.0 J-1.5875
G1 Y0.0729
G2 X42.4925 Y-1.5146 I-1.5875 J0.0
G1 X15.422
G1 F1000.0 Z-0.4
G1 F2000.0 X0.1202
G2 X-1.4673 Y0.0729 I0.0 J1.5875
G1 Y128.1709
G2 X0.1202 Y129.7584 I1.5875 J0.0
G1 X42.4925
G2 X44.08 Y128.1709 I0.0 J-1.5875
G1 Y0.0729
G2 X42.4925 Y-1.5146 I-1.5875 J0.0
G1 X15.422
G1 F1000.0 Z-0.5
G1 F2000.0 X0.1202
G2 X-1.4673 Y0.0729 I0.0 J1.5875
G1 Y128.1709
G2 X0.1202 Y129.7584 I1.5875 J0.0
G1 X42.4925
G2 X44.08 Y128.1709 I0.0 J-1.5875
G1 Y0.0729
G2 X42.4925 Y-1.5146 I-1.5875 J0.0
G1 X15.422
G1 F1000.0 Z-0.6
G1 F2000.0 X0.1202
G2 X-1.4673 Y0.0729 I0.0 J1.5875
G1 Y128.1709
G2 X0.1202 Y129.7584 I1.5875 J0.0
G1 X42.4925
G2 X44.08 Y128.1709 I0.0 J-1.5875
G1 Y0.0729
G2 X42.4925 Y-1.5146 I-1.5875 J0.0
G1 X15.422
G1 F1000.0 Z-0.7
G1 F2000.0 X0.1202
G2 X-1.4673 Y0.0729 I0.0 J1.5875
G1 Y128.1709
G2 X0.1202 Y129.7584 I1.5875 J0.0
G1 X42.4925
G2 X44.08 Y128.1709 I0.0 J-1.5875
G1 Y0.0729
G2 X42.4925 Y-1.5146 I-1.5875 J0.0
G1 X15.422
G1 F1000.0 Z-0.8
G1 F2000.0 X0.1202
G2 X-1.4673 Y0.0729 I0.0 J1.5875
G1 Y54.3711
G1 Y56.9586 Z-0.7
G1 Y59.5461 Z-0.8
G1 Y107.1613
G1 Y109.7488 Z-0.7
G1 Y112.3363 Z-0.8
G1 Y128.1709
G2 X0.1202 Y129.7584 I1.5875 J0.0
G1 X42.4925
G2 X44.08 Y128.1709 I0.0 J-1.5875
G1 Y93.879
G1 Y91.2915 Z-0.7
G1 Y88.704 Z-0.8
G1 Y22.484
G1 Y19.8965 Z-0.7
G1 Y17.309 Z-0.8
G1 Y0.0729
G2 X42.4925 Y-1.5146 I-1.5875 J0.0
G1 X15.422
G1 F1000.0 Z-0.9
G1 F2000.0 X0.1202
G2 X-1.4673 Y0.0729 I0.0 J1.5875
G1 Y54.3711
G1 Y56.9586 Z-0.7
G1 Y59.5461 Z-0.9
G1 Y107.1613
G1 Y109.7488 Z-0.7
G1 Y112.3363 Z-0.9
G1 Y128.1709
G2 X0.1202 Y129.7584 I1.5875 J0.0
G1 X42.4925
G2 X44.08 Y128.1709 I0.0 J-1.5875
G1 Y93.879
G1 Y91.2915 Z-0.7
G1 Y88.704 Z-0.9
G1 Y22.484
G1 Y19.8965 Z-0.7
G1 Y17.309 Z-0.9
G1 Y0.0729
G2 X42.4925 Y-1.5146 I-1.5875 J0.0
G1 X15.422
G1 F1000.0 Z-1.0
G1 F2000.0 X0.1202
G2 X-1.4673 Y0.0729 I0.0 J1.5875
G1 Y54.3711
G1 Y56.9586 Z-0.7
G1 Y59.5461 Z-1.0
G1 Y107.1613
G1 Y109.7488 Z-0.7
G1 Y112.3363 Z-1.0
G1 Y128.1709
G2 X0.1202 Y129.7584 I1.5875 J0.0
G1 X42.4925
G2 X44.08 Y128.1709 I0.0 J-1.5875
G1 Y93.879
G1 Y91.2915 Z-0.7
G1 Y88.704 Z-1.0
G1 Y22.484
G1 Y19.8965 Z-0.7
G1 Y17.309 Z-1.0
G1 Y0.0729
G2 X42.4925 Y-1.5146 I-1.5875 J0.0
G1 X15.422
G1 F1000.0 Z-1.1
G1 F2000.0 X0.1202
G2 X-1.4673 Y0.0729 I0.0 J1.5875
G1 Y54.3711
G1 Y56.9586 Z-0.7
G1 Y59.5461 Z-1.1
G1 Y107.1613
G1 Y109.7488 Z-0.7
G1 Y112.3363 Z-1.1
G1 Y128.1709
G2 X0.1202 Y129.7584 I1.5875 J0.0
G1 X42.4925
G2 X44.08 Y128.1709 I0.0 J-1.5875
G1 Y93.879
G1 Y91.2915 Z-0.7
G1 Y88.704 Z-1.1
G1 Y22.484
G1 Y19.8965 Z-0.7
G1 Y17.309 Z-1.1
G1 Y0.0729
G2 X42.4925 Y-1.5146 I-1.5875 J0.0
G1 X15.422
G1 F1000.0 Z-1.2
G1 F2000.0 X0.1202
G2 X-1.4673 Y0.0729 I0.0 J1.5875
G1 Y54.3711
G1 Y56.9586 Z-0.7
G1 Y59.5461 Z-1.2
G1 Y107.1613
G1 Y109.7488 Z-0.7
G1 Y112.3363 Z-1.2
G1 Y128.1709
G2 X0.1202 Y129.7584 I1.5875 J0.0
G1 X42.4925
G2 X44.08 Y128.1709 I0.0 J-1.5875
G1 Y93.879
G1 Y91.2915 Z-0.7
G1 Y88.704 Z-1.2
G1 Y22.484
G1 Y19.8965 Z-0.7
G1 Y17.309 Z-1.2
G1 Y0.0729
G2 X42.4925 Y-1.5146 I-1.5875 J0.0
G1 X15.422
G1 F1000.0 Z-1.3
G1 F2000.0 X0.1202
G2 X-1.4673 Y0.0729 I0.0 J1.5875
G1 Y54.3711
G1 Y56.9586 Z-0.7
G1 Y59.5461 Z-1.3
G1 Y107.1613
G1 Y109.7488 Z-0.7
G1 Y112.3363 Z-1.3
G1 Y128.1709
G2 X0.1202 Y129.7584 I1.5875 J0.0
G1 X42.4925
G2 X44.08 Y128.1709 I0.0 J-1.5875
G1 Y93.879
G1 Y91.2915 Z-0.7
G1 Y88.704 Z-1.3
G1 Y22.484
G1 Y19.8965 Z-0.7
G1 Y17.309 Z-1.3
G1 Y0.0729
G2 X42.4925 Y-1.5146 I-1.5875 J0.0
G1 X15.422
G1 F1000.0 Z-1.4
G1 F2000.0 X0.1202
G2 X-1.4673 Y0.0729 I0.0 J1.5875
G1 Y54.3711
G1 Y56.9586 Z-0.7
G1 Y59.5461 Z-1.4
G1 Y107.1613
G1 Y109.7488 Z-0.7
G1 Y112.3363 Z-1.4
G1 Y128.1709
G2 X0.1202 Y129.7584 I1.5875 J0.0
G1 X42.4925
G2 X44.08 Y128.1709 I0.0 J-1.5875
G1 Y93.879
G1 Y91.2915 Z-0.7
G1 Y88.704 Z-1.4
G1 Y22.484
G1 Y19.8965 Z-0.7
G1 Y17.309 Z-1.4
G1 Y0.0729
G2 X42.4925 Y-1.5146 I-1.5875 J0.0
G1 X15.422
G1 F1000.0 Z-1.5
G1 F2000.0 X0.1202
G2 X-1.4673 Y0.0729 I0.0 J1.5875
G1 Y54.3711
G1 Y56.9586 Z-0.7
G1 Y59.5461 Z-1.5
G1 Y107.1613
G1 Y109.7488 Z-0.7
G1 Y112.3363 Z-1.5
G1 Y128.1709
G2 X0.1202 Y129.7584 I1.5875 J0.0
G1 X42.4925
G2 X44.08 Y128.1709 I0.0 J-1.5875
G1 Y93.879
G1 Y91.2915 Z-0.7
G1 Y88.704 Z-1.5
G1 Y22.484
G1 Y19.8965 Z-0.7
G1 Y17.309 Z-1.5
G1 Y0.0729
G2 X42.4925 Y-1.5146 I-1.5875 J0.0
G1 X15.422
G1 F1000.0 Z-1.6
G1 F2000.0 X0.1202
G2 X-1.4673 Y0.0729 I0.0 J1.5875
G1 Y54.3711
G1 Y56.9586 Z-0.7
G1 Y59.5461 Z-1.6
G1 Y107.1613
G1 Y109.7488 Z-0.7
G1 Y112.3363 Z-1.6
G1 Y128.1709
G2 X0.1202 Y129.7584 I1.5875 J0.0
G1 X42.4925
G2 X44.08 Y128.1709 I0.0 J-1.5875
G1 Y93.879
G1 Y91.2915 Z-0.7
G1 Y88.704 Z-1.6
G1 Y22.484
G1 Y19.8965 Z-0.7
G1 Y17.309 Z-1.6
G1 Y0.0729
G2 X42.4925 Y-1.5146 I-1.5875 J0.0
G1 X15.422
G1 F1000.0 Z-1.7
G1 F2000.0 X0.1202
G2 X-1.4673 Y0.0729 I0.0 J1.5875
G1 Y54.3711
G1 Y56.9586 Z-0.7
G1 Y59.5461 Z-1.7
G1 Y107.1613
G1 Y109.7488 Z-0.7
G1 Y112.3363 Z-1.7
G1 Y128.1709
G2 X0.1202 Y129.7584 I1.5875 J0.0
G1 X42.4925
G2 X44.08 Y128.1709 I0.0 J-1.5875
G1 Y93.879
G1 Y91.2915 Z-0.7
G1 Y88.704 Z-1.7
G1 Y22.484
G1 Y19.8965 Z-0.7
G1 Y17.309 Z-1.7
G1 Y0.0729
G2 X42.4925 Y-1.5146 I-1.5875 J0.0
G1 X15.422
G1 F1000.0 Z-1.8
G1 F2000.0 X0.1202
G2 X-1.4673 Y0.0729 I0.0 J1.5875
G1 Y54.3711
G1 Y56.9586 Z-0.7
G1 Y59.5461 Z-1.8
G1 Y107.1613
G1 Y109.7488 Z-0.7
G1 Y112.3363 Z-1.8
G1 Y128.1709
G2 X0.1202 Y129.7584 I1.5875 J0.0
G1 X42.4925
G2 X44.08 Y128.1709 I0.0 J-1.5875
G1 Y93.879
G1 Y91.2915 Z-0.7
G1 Y88.704 Z-1.8
G1 Y22.484
G1 Y19.8965 Z-0.7
G1 Y17.309 Z-1.8
G1 Y0.0729
G2 X42.4925 Y-1.5146 I-1.5875 J0.0
G1 X15.422
G1 F1000.0 Z-1.9
G1 F2000.0 X0.1202
G2 X-1.4673 Y0.0729 I0.0 J1.5875
G1 Y54.3711
G1 Y56.9586 Z-0.7
G1 Y59.5461 Z-1.9
G1 Y107.1613
G1 Y109.7488 Z-0.7
G1 Y112.3363 Z-1.9
G1 Y128.1709
G2 X0.1202 Y129.7584 I1.5875 J0.0
G1 X42.4925
G2 X44.08 Y128.1709 I0.0 J-1.5875
G1 Y93.879
G1 Y91.2915 Z-0.7
G1 Y88.704 Z-1.9
G1 Y22.484
G1 Y19.8965 Z-0.7
G1 Y17.309 Z-1.9
G1 Y0.0729
G2 X42.4925 Y-1.5146 I-1.5875 J0.0
G1 X15.422
G1 F1000.0 Z-2.0
G1 F2000.0 X0.1202
G2 X-1.4673 Y0.0729 I0.0 J1.5875
G1 Y54.3711
G1 Y56.9586 Z-0.7
G1 Y59.5461 Z-2.0
G1 Y107.1613
G1 Y109.7488 Z-0.7
G1 Y112.3363 Z-2.0
G1 Y128.1709
G2 X0.1202 Y129.7584 I1.5875 J0.0
G1 X42.4925
G2 X44.08 Y128.1709 I0.0 J-1.5875
G1 Y93.879
G1 Y91.2915 Z-0.7
G1 Y88.704 Z-2.0
G1 Y22.484
G1 Y19.8965 Z-0.7
G1 Y17.309 Z-2.0
G1 Y0.0729
G2 X42.4925 Y-1.5146 I-1.5875 J0.0
G1 X15.422
G1 F1000.0 Z-2.1
G1 F2000.0 X0.1202
G2 X-1.4673 Y0.0729 I0.0 J1.5875
G1 Y54.3711
G1 Y56.9586 Z-0.7
G1 Y59.5461 Z-2.1
G1 Y107.1613
G1 Y109.7488 Z-0.7
G1 Y112.3363 Z-2.1
G1 Y128.1709
G2 X0.1202 Y129.7584 I1.5875 J0.0
G1 X42.4925
G2 X44.08 Y128.1709 I0.0 J-1.5875
G1 Y93.879
G1 Y91.2915 Z-0.7
G1 Y88.704 Z-2.1
G1 Y22.484
G1 Y19.8965 Z-0.7
G1 Y17.309 Z-2.1
G1 Y0.0729
G2 X42.4925 Y-1.5146 I-1.5875 J0.0
G1 X15.422
G1 F1000.0 Z-2.2
G1 F2000.0 X0.1202
G2 X-1.4673 Y0.0729 I0.0 J1.5875
G1 Y54.3711
G1 Y56.9586 Z-0.7
G1 Y59.5461 Z-2.2
G1 Y107.1613
G1 Y109.7488 Z-0.7
G1 Y112.3363 Z-2.2
G1 Y128.1709
G2 X0.1202 Y129.7584 I1.5875 J0.0
G1 X42.4925
G2 X44.08 Y128.1709 I0.0 J-1.5875
G1 Y93.879
G1 Y91.2915 Z-0.7
G1 Y88.704 Z-2.2
G1 Y22.484
G1 Y19.8965 Z-0.7
G1 Y17.309 Z-2.2
G1 Y0.0729
G2 X42.4925 Y-1.5146 I-1.5875 J0.0
G1 X15.422
G1 F1000.0 Z-2.3
G1 F2000.0 X0.1202
G2 X-1.4673 Y0.0729 I0.0 J1.5875
G1 Y54.3711
G1 Y56.9586 Z-0.7
G1 Y59.5461 Z-2.3
G1 Y107.1613
G1 Y109.7488 Z-0.7
G1 Y112.3363 Z-2.3
G1 Y128.1709
G2 X0.1202 Y129.7584 I1.5875 J0.0
G1 X42.4925
G2 X44.08 Y128.1709 I0.0 J-1.5875
G1 Y93.879
G1 Y91.2915 Z-0.7
G1 Y88.704 Z-2.3
G1 Y22.484
G1 Y19.8965 Z-0.7
G1 Y17.309 Z-2.3
G1 Y0.0729
G2 X42.4925 Y-1.5146 I-1.5875 J0.0
G1 X15.422
G1 F1000.0 Z-2.4
G1 F2000.0 X0.1202
G2 X-1.4673 Y0.0729 I0.0 J1.5875
G1 Y54.3711
G1 Y56.9586 Z-0.7
G1 Y59.5461 Z-2.4
G1 Y107.1613
G1 Y109.7488 Z-0.7
G1 Y112.3363 Z-2.4
G1 Y128.1709
G2 X0.1202 Y129.7584 I1.5875 J0.0
G1 X42.4925
G2 X44.08 Y128.1709 I0.0 J-1.5875
G1 Y93.879
G1 Y91.2915 Z-0.7
G1 Y88.704 Z-2.4
G1 Y22.484
G1 Y19.8965 Z-0.7
G1 Y17.309 Z-2.4
G1 Y0.0729
G2 X42.4925 Y-1.5146 I-1.5875 J0.0
G1 X15.422
G1 F1000.0 Z-2.5
G1 F2000.0 X0.1202
G2 X-1.4673 Y0.0729 I0.0 J1.5875
G1 Y54.3711
G1 Y56.9586 Z-0.7
G1 Y59.5461 Z-2.5
G1 Y107.1613
G1 Y109.7488 Z-0.7
G1 Y112.3363 Z-2.5
G1 Y128.1709
G2 X0.1202 Y129.7584 I1.5875 J0.0
G1 X42.4925
G2 X44.08 Y128.1709 I0.0 J-1.5875
G1 Y93.879
G1 Y91.2915 Z-0.7
G1 Y88.704 Z-2.5
G1 Y22.484
G1 Y19.8965 Z-0.7
G1 Y17.309 Z-2.5
G1 Y0.0729
G2 X42.4925 Y-1.5146 I-1.5875 J0.0
G1 X15.422
G1 F1000.0 Z-2.6
G1 F2000.0 X0.1202
G2 X-1.4673 Y0.0729 I0.0 J1.5875
G1 Y54.3711
G1 Y56.9586 Z-0.7
G1 Y59.5461 Z-2.6
G1 Y107.1613
G1 Y109.7488 Z-0.7
G1 Y112.3363 Z-2.6
G1 Y128.1709
G2 X0.1202 Y129.7584 I1.5875 J0.0
G1 X42.4925
G2 X44.08 Y128.1709 I0.0 J-1.5875
G1 Y93.879
G1 Y91.2915 Z-0.7
G1 Y88.704 Z-2.6
G1 Y22.484
G1 Y19.8965 Z-0.7
G1 Y17.309 Z-2.6
G1 Y0.0729
G2 X42.4925 Y-1.5146 I-1.5875 J0.0
G1 X15.422
G1 F1000.0 Z-2.7
G1 F2000.0 X0.1202
G2 X-1.4673 Y0.0729 I0.0 J1.5875
G1 Y54.3711
G1 Y56.9586 Z-0.7
G1 Y59.5461 Z-2.7
G1 Y107.1613
G1 Y109.7488 Z-0.7
G1 Y112.3363 Z-2.7
G1 Y128.1709
G2 X0.1202 Y129.7584 I1.5875 J0.0
G1 X42.4925
G2 X44.08 Y128.1709 I0.0 J-1.5875
G1 Y93.879
G1 Y91.2915 Z-0.7
G1 Y88.704 Z-2.7
G1 Y22.484
G1 Y19.8965 Z-0.7
G1 Y17.309 Z-2.7
G1 Y0.0729
G2 X42.4925 Y-1.5146 I-1.5875 J0.0
G1 X15.422
G1 F1000.0 Z-2.8
G1 F2000.0 X0.1202
G2 X-1.4673 Y0.0729 I0.0 J1.5875
G1 Y54.3711
G1 Y56.9586 Z-0.7
G1 Y59.5461 Z-2.8
G1 Y107.1613
G1 Y109.7488 Z-0.7
G1 Y112.3363 Z-2.8
G1 Y128.1709
G2 X0.1202 Y129.7584 I1.5875 J0.0
G1 X42.4925
G2 X44.08 Y128.1709 I0.0 J-1.5875
G1 Y93.879
G1 Y91.2915 Z-0.7
G1 Y88.704 Z-2.8
G1 Y22.484
G1 Y19.8965 Z-0.7
G1 Y17.309 Z-2.8
G1 Y0.0729
G2 X42.4925 Y-1.5146 I-1.5875 J0.0
G1 X15.422
G1 F1000.0 Z-2.9
G1 F2000.0 X0.1202
G2 X-1.4673 Y0.0729 I0.0 J1.5875
G1 Y54.3711
G1 Y56.9586 Z-0.7
G1 Y59.5461 Z-2.9
G1 Y107.1613
G1 Y109.7488 Z-0.7
G1 Y112.3363 Z-2.9
G1 Y128.1709
G2 X0.1202 Y129.7584 I1.5875 J0.0
G1 X42.4925
G2 X44.08 Y128.1709 I0.0 J-1.5875
G1 Y93.879
G1 Y91.2915 Z-0.7
G1 Y88.704 Z-2.9
G1 Y22.484
G1 Y19.8965 Z-0.7
G1 Y17.309 Z-2.9
G1 Y0.0729
G2 X42.4925 Y-1.5146 I-1.5875 J0.0
G1 X15.422
G1 F1000.0 Z-3.0
G1 F2000.0 X0.1202
G2 X-1.4673 Y0.0729 I0.0 J1.5875
G1 Y54.3711
G1 Y56.9586 Z-0.7
G1 Y59.5461 Z-3.0
G1 Y107.1613
G1 Y109.7488 Z-0.7
G1 Y112.3363 Z-3.0
G1 Y128.1709
G2 X0.1202 Y129.7584 I1.5875 J0.0
G1 X42.4925
G2 X44.08 Y128.1709 I0.0 J-1.5875
G1 Y93.879
G1 Y91.2915 Z-0.7
G1 Y88.704 Z-3.0
G1 Y22.484
G1 Y19.8965 Z-0.7
G1 Y17.309 Z-3.0
G1 Y0.0729
G2 X42.4925 Y-1.5146 I-1.5875 J0.0
G1 X15.422
G1 F1000.0 Z-3.1
G1 F2000.0 X0.1202
G2 X-1.4673 Y0.0729 I0.0 J1.5875
G1 Y54.3711
G1 Y56.9586 Z-0.7
G1 Y59.5461 Z-3.1
G1 Y107.1613
G1 Y109.7488 Z-0.7
G1 Y112.3363 Z-3.1
G1 Y128.1709
G2 X0.1202 Y129.7584 I1.5875 J0.0
G1 X42.4925
G2 X44.08 Y128.1709 I0.0 J-1.5875
G1 Y93.879
G1 Y91.2915 Z-0.7
G1 Y88.704 Z-3.1
G1 Y22.484
G1 Y19.8965 Z-0.7
G1 Y17.309 Z-3.1
G1 Y0.0729
G2 X42.4925 Y-1.5146 I-1.5875 J0.0
G1 X15.422
G1 F1000.0 Z-3.2
G1 F2000.0 X0.1202
G2 X-1.4673 Y0.0729 I0.0 J1.5875
G1 Y54.3711
G1 Y56.9586 Z-0.7
G1 Y59.5461 Z-3.2
G1 Y107.1613
G1 Y109.7488 Z-0.7
G1 Y112.3363 Z-3.2
G1 Y128.1709
G2 X0.1202 Y129.7584 I1.5875 J0.0
G1 X42.4925
G2 X44.08 Y128.1709 I0.0 J-1.5875
G1 Y93.879
G1 Y91.2915 Z-0.7
G1 Y88.704 Z-3.2
G1 Y22.484
G1 Y19.8965 Z-0.7
G1 Y17.309 Z-3.2
G1 Y0.0729
G2 X42.4925 Y-1.5146 I-1.5875 J0.0
G1 X15.422
G0 Z3.0
M5
M30
