(/Applications/pcbgcode.repo/pcb-gcode.ulp)
(Copyright 2005 - 2012 by John Johnson)
(See readme.txt for licensing terms.)
(This file generated from the board:)
(.../eurorack/EFM_VCF3/eagle/EFM_VCF3.brd)
(Current profile is .../pcbgcode.repo/profiles/mach.pp  )
(This file generated 12/2/15 10:30 PM)
(Settings from pcb-machine.h)
(spindle on time = 0.0000)
(  Tool Size)
(0.0100  )
(spindle speed = 30000.0000)
(tool change at 0.0000  0.0000  3.0000  )
(feed rate xy = F20    )
(feed rate z  = F10    )
(Z Axis Settings)
(  High     Up        Down     Drill)
(1.0000  	0.0500  	-0.0040 	-0.0730 )
(Settings from pcb-defaults.h)
(isolate min = 0.0010)
(isolate max = 0.0150)
(isolate step = 0.0015)
(Generated bottom outlines, bottom drill, )
(Unit of measure: inch)
(Inch Mode)
G20
(Absolute Coordinates)
G90
S30000
G00 Z1.0000  
G00 X0.0000  Y0.0000  
M03
G04 P0.000000
G00 Z0.0500  
G00 X-0.1104 Y0.0619  
G01 Z-0.0040 F10    
G01 X-0.1167 Y0.0557  F20    
G01 X-0.1238 Y0.0505  
G01 X-0.1317 Y0.0465  
G01 X-0.1400 Y0.0438  
G01 X-0.1487 Y0.0424  
G01 X-0.2576 Y0.0424  
G01 X-0.2663 Y0.0438  
G01 X-0.2746 Y0.0465  
G01 X-0.2825 Y0.0505  
G01 X-0.2896 Y0.0557  
G01 X-0.2959 Y0.0619  
G01 X-0.3010 Y0.0691  
G01 X-0.3048 Y0.0764  
G01 X-0.5045 Y0.0764  
G01 X-0.5101 Y0.0779  
G01 X-0.5151 Y0.0808  
G01 X-0.5377 Y0.1035  
G01 X-0.5417 Y0.1022  
G01 X-0.5493 Y0.1010  
G01 X-0.5570 Y0.1010  
G01 X-0.5646 Y0.1022  
G01 X-0.5720 Y0.1046  
G01 X-0.5788 Y0.1081  
G01 X-0.5829 Y0.1110  
G01 X-0.6324 Y0.0615  
G01 X-0.6365 Y0.0574  
G01 X-0.6415 Y0.0545  
G01 X-0.6471 Y0.0530  
G01 X-1.0529 Y0.0530  
G01 X-1.0585 Y0.0545  
G01 X-1.0635 Y0.0574  
G01 X-1.0676 Y0.0615  
G01 X-1.0705 Y0.0665  
G01 X-1.0720 Y0.0721  
G01 X-1.0720 Y0.0764  
G01 X-1.2015 Y0.0764  
G01 X-1.2053 Y0.0691  
G01 X-1.2104 Y0.0619  
G01 X-1.2167 Y0.0557  
G01 X-1.2238 Y0.0505  
G01 X-1.2317 Y0.0465  
G01 X-1.2400 Y0.0438  
G01 X-1.2487 Y0.0424  
G01 X-1.3576 Y0.0424  
G01 X-1.3663 Y0.0438  
G01 X-1.3746 Y0.0465  
G01 X-1.3825 Y0.0505  
G01 X-1.3896 Y0.0557  
G01 X-1.3959 Y0.0619  
G01 X-1.4010 Y0.0691  
G01 X-1.4050 Y0.0769  
G01 X-1.4078 Y0.0853  
G01 X-1.4091 Y0.0940  
G01 X-1.4091 Y0.1028  
G01 X-1.4078 Y0.1115  
G01 X-1.4050 Y0.1199  
G01 X-1.4010 Y0.1278  
G01 X-1.3959 Y0.1349  
G01 X-1.3896 Y0.1411  
G01 X-1.3825 Y0.1463  
G01 X-1.3746 Y0.1503  
G01 X-1.3663 Y0.1530  
G01 X-1.3576 Y0.1544  
G01 X-1.2487 Y0.1544  
G01 X-1.2400 Y0.1530  
G01 X-1.2317 Y0.1503  
G01 X-1.2238 Y0.1463  
G01 X-1.2167 Y0.1411  
G01 X-1.2104 Y0.1349  
G01 X-1.2053 Y0.1278  
G01 X-1.2015 Y0.1204  
G01 X-1.0720 Y0.1204  
G01 X-1.0720 Y0.2747  
G01 X-1.0721 Y0.2772  
G01 X-1.0720 Y0.2775  
G01 X-1.0720 Y0.2779  
G01 X-1.0713 Y0.2804  
G01 X-1.0708 Y0.2828  
G01 X-1.0706 Y0.2832  
G01 X-1.0705 Y0.2835  
G01 X-1.0692 Y0.2857  
G01 X-1.0680 Y0.2880  
G01 X-1.0678 Y0.2882  
G01 X-1.0676 Y0.2885  
G01 X-1.0658 Y0.2903  
G01 X-0.2970 Y1.1087  
G01 X-0.2970 Y1.9280  
G01 X-0.3612 Y1.9280  
G01 X-0.3822 Y1.9070  
G01 X-0.4178 Y1.9070  
G01 X-0.4388 Y1.9280  
G01 X-0.4612 Y1.9280  
G01 X-0.4822 Y1.9070  
G01 X-0.5178 Y1.9070  
G01 X-0.5388 Y1.9280  
G01 X-0.7690 Y1.9280  
G01 X-0.7845 Y1.9125  
G01 X-0.8155 Y1.9125  
G01 X-0.8224 Y1.9193  
G01 X-0.8530 Y1.9091  
G01 X-0.8530 Y0.7721  
G01 X-0.8545 Y0.7665  
G01 X-0.8574 Y0.7615  
G01 X-0.8615 Y0.7574  
G01 X-1.0589 Y0.5599  
G01 X-1.0604 Y0.5583  
G01 X-1.0610 Y0.5579  
G01 X-1.0615 Y0.5574  
G01 X-1.0634 Y0.5563  
G01 X-1.0652 Y0.5551  
G01 X-1.0659 Y0.5549  
G01 X-1.0665 Y0.5545  
G01 X-1.0675 Y0.5542  
G01 X-1.0794 Y0.5423  
G01 X-1.0806 Y0.5393  
G01 X-1.0840 Y0.5346  
G01 X-1.5853 Y0.1336  
G01 X-1.5865 Y0.1324  
G01 X-1.5876 Y0.1318  
G01 X-1.5885 Y0.1310  
G01 X-1.5901 Y0.1303  
G01 X-1.5915 Y0.1295  
G01 X-1.5927 Y0.1292  
G01 X-1.5938 Y0.1287  
G01 X-1.5955 Y0.1284  
G01 X-1.5971 Y0.1280  
G01 X-1.5983 Y0.1280  
G01 X-1.5996 Y0.1278  
G01 X-1.6012 Y0.1280  
G01 X-1.6094 Y0.1280  
G01 X-1.6112 Y0.1243  
G01 X-1.6158 Y0.1181  
G01 X-1.6212 Y0.1126  
G01 X-1.6275 Y0.1081  
G01 X-1.6343 Y0.1046  
G01 X-1.6417 Y0.1022  
G01 X-1.6493 Y0.1010  
G01 X-1.6570 Y0.1010  
G01 X-1.6646 Y0.1022  
G01 X-1.6720 Y0.1046  
G01 X-1.6788 Y0.1081  
G01 X-1.6829 Y0.1110  
G01 X-1.7365 Y0.0574  
G01 X-1.7415 Y0.0545  
G01 X-1.7471 Y0.0530  
G01 X-2.2279 Y0.0530  
G01 X-2.2335 Y0.0545  
G01 X-2.2385 Y0.0574  
G01 X-2.2426 Y0.0615  
G01 X-2.2854 Y0.1043  
G01 X-2.2917 Y0.1022  
G01 X-2.2993 Y0.1010  
G01 X-2.3070 Y0.1010  
G01 X-2.3146 Y0.1022  
G01 X-2.3220 Y0.1046  
G01 X-2.3288 Y0.1081  
G01 X-2.3351 Y0.1126  
G01 X-2.3405 Y0.1181  
G01 X-2.3451 Y0.1243  
G01 X-2.3486 Y0.1312  
G01 X-2.3509 Y0.1385  
G01 X-2.3521 Y0.1461  
G01 X-2.3521 Y0.1539  
G01 X-2.3509 Y0.1615  
G01 X-2.3486 Y0.1688  
G01 X-2.3451 Y0.1757  
G01 X-2.3405 Y0.1819  
G01 X-2.3351 Y0.1874  
G01 X-2.3288 Y0.1919  
G01 X-2.3220 Y0.1954  
G01 X-2.3146 Y0.1978  
G01 X-2.3070 Y0.1990  
G01 X-2.2993 Y0.1990  
G01 X-2.2917 Y0.1978  
G01 X-2.2843 Y0.1954  
G01 X-2.2775 Y0.1919  
G01 X-2.2712 Y0.1874  
G01 X-2.2658 Y0.1819  
G01 X-2.2612 Y0.1757  
G01 X-2.2577 Y0.1688  
G01 X-2.2554 Y0.1615  
G01 X-2.2541 Y0.1539  
G01 X-2.2541 Y0.1461  
G01 X-2.2554 Y0.1385  
G01 X-2.2559 Y0.1370  
G01 X-2.2159 Y0.0970  
G01 X-1.7591 Y0.0970  
G01 X-1.7021 Y0.1540  
G01 X-1.7009 Y0.1615  
G01 X-1.6986 Y0.1688  
G01 X-1.6951 Y0.1757  
G01 X-1.6905 Y0.1819  
G01 X-1.6851 Y0.1874  
G01 X-1.6788 Y0.1919  
G01 X-1.6720 Y0.1954  
G01 X-1.6646 Y0.1978  
G01 X-1.6570 Y0.1990  
G01 X-1.6493 Y0.1990  
G01 X-1.6417 Y0.1978  
G01 X-1.6343 Y0.1954  
G01 X-1.6275 Y0.1919  
G01 X-1.6212 Y0.1874  
G01 X-1.6158 Y0.1819  
G01 X-1.6112 Y0.1757  
G01 X-1.6094 Y0.1720  
G01 X-1.6077 Y0.1720  
G01 X-1.1115 Y0.5690  
G01 X-1.1076 Y0.5707  
G01 X-1.1022 Y0.5761  
G01 X-1.1899 Y0.7076  
G01 X-1.4856 Y0.8441  
G01 X-1.4867 Y0.8430  
G01 X-1.5133 Y0.8430  
G01 X-1.5233 Y0.8530  
G01 X-1.6029 Y0.8530  
G01 X-1.6085 Y0.8545  
G01 X-1.6135 Y0.8574  
G01 X-1.6176 Y0.8615  
G01 X-1.6804 Y0.9243  
G01 X-1.6867 Y0.9180  
G01 X-1.7133 Y0.9180  
G01 X-1.7320 Y0.9367  
G01 X-1.7320 Y0.9633  
G01 X-1.7279 Y0.9674  
G01 X-1.7719 Y1.1217  
G01 X-1.7720 Y1.1268  
G01 X-1.7753 Y1.1300  
G01 X-1.8747 Y1.1300  
G01 X-1.8867 Y1.1180  
G01 X-1.9133 Y1.1180  
G01 X-1.9320 Y1.1367  
G01 X-1.9320 Y1.1633  
G01 X-1.9133 Y1.1820  
G01 X-1.8867 Y1.1820  
G01 X-1.8747 Y1.1700  
G01 X-1.7753 Y1.1700  
G01 X-1.7633 Y1.1820  
G01 X-1.7367 Y1.1820  
G01 X-1.7180 Y1.1633  
G01 X-1.7180 Y1.1367  
G01 X-1.7277 Y1.1270  
G01 X-1.6861 Y0.9813  
G01 X-1.6767 Y0.9720  
G01 X-1.6721 Y0.9720  
G01 X-1.6665 Y0.9705  
G01 X-1.6615 Y0.9676  
G01 X-1.5909 Y0.8970  
G01 X-1.5233 Y0.8970  
G01 X-1.5133 Y0.9070  
G01 X-1.4867 Y0.9070  
G01 X-1.4680 Y0.8883  
G01 X-1.4680 Y0.8845  
G01 X-1.1681 Y0.7461  
G01 X-1.1678 Y0.7460  
G01 X-1.1655 Y0.7449  
G01 X-1.1632 Y0.7438  
G01 X-1.1629 Y0.7436  
G01 X-1.1627 Y0.7434  
G01 X-1.1607 Y0.7417  
G01 X-1.1587 Y0.7401  
G01 X-1.1585 Y0.7398  
G01 X-1.1583 Y0.7396  
G01 X-1.1569 Y0.7374  
G01 X-1.1554 Y0.7353  
G01 X-1.1553 Y0.7350  
G01 X-1.0716 Y0.6095  
G01 X-0.8970 Y0.7841  
G01 X-0.8970 Y1.8609  
G01 X-1.0317 Y1.6877  
G01 X-1.0324 Y1.6865  
G01 X-1.0335 Y1.6854  
G01 X-1.0344 Y1.6842  
G01 X-1.0355 Y1.6834  
G01 X-1.0365 Y1.6824  
G01 X-1.0378 Y1.6816  
G01 X-1.0390 Y1.6807  
G01 X-1.0403 Y1.6802  
G01 X-1.0415 Y1.6795  
G01 X-1.0430 Y1.6791  
G01 X-1.0444 Y1.6785  
G01 X-1.0458 Y1.6784  
G01 X-1.0471 Y1.6780  
G01 X-1.0486 Y1.6780  
G01 X-1.0501 Y1.6778  
G01 X-1.0515 Y1.6780  
G01 X-1.3817 Y1.6780  
G01 X-1.4530 Y1.2980  
G01 X-1.4530 Y1.2971  
G01 X-1.4535 Y1.2951  
G01 X-1.4539 Y1.2931  
G01 X-1.4543 Y1.2923  
G01 X-1.4545 Y1.2915  
G01 X-1.4555 Y1.2897  
G01 X-1.4564 Y1.2879  
G01 X-1.4570 Y1.2872  
G01 X-1.4574 Y1.2865  
G01 X-1.4588 Y1.2850  
G01 X-1.4602 Y1.2835  
G01 X-1.4609 Y1.2830  
G01 X-1.4615 Y1.2824  
G01 X-1.4633 Y1.2814  
G01 X-1.4650 Y1.2802  
G01 X-1.4658 Y1.2799  
G01 X-1.4665 Y1.2795  
G01 X-1.4685 Y1.2790  
G01 X-1.4704 Y1.2783  
G01 X-1.4713 Y1.2782  
G01 X-1.4721 Y1.2780  
G01 X-1.4742 Y1.2780  
G01 X-1.4762 Y1.2778  
G01 X-1.4770 Y1.2780  
G01 X-2.0280 Y1.2780  
G01 X-2.0280 Y1.1761  
G01 X-2.0160 Y1.1641  
G01 X-2.0160 Y1.1359  
G01 X-2.0359 Y1.1160  
G01 X-2.0641 Y1.1160  
G01 X-2.0687 Y1.1206  
G01 X-2.1680 Y1.0875  
G01 X-2.1680 Y1.0867  
G01 X-2.1867 Y1.0680  
G01 X-2.2133 Y1.0680  
G01 X-2.2320 Y1.0867  
G01 X-2.2320 Y1.1133  
G01 X-2.2133 Y1.1320  
G01 X-2.1867 Y1.1320  
G01 X-2.1835 Y1.1287  
G01 X-2.0840 Y1.1619  
G01 X-2.0840 Y1.1641  
G01 X-2.0720 Y1.1761  
G01 X-2.0720 Y1.3029  
G01 X-2.0705 Y1.3085  
G01 X-2.0676 Y1.3135  
G01 X-2.0635 Y1.3176  
G01 X-2.0585 Y1.3205  
G01 X-2.0529 Y1.3220  
G01 X-1.4933 Y1.3220  
G01 X-1.4220 Y1.7020  
G01 X-1.4220 Y1.7029  
G01 X-1.4215 Y1.7049  
G01 X-1.4211 Y1.7069  
G01 X-1.4207 Y1.7077  
G01 X-1.4205 Y1.7085  
G01 X-1.4195 Y1.7103  
G01 X-1.4186 Y1.7121  
G01 X-1.4180 Y1.7128  
G01 X-1.4176 Y1.7135  
G01 X-1.4162 Y1.7150  
G01 X-1.4148 Y1.7165  
G01 X-1.4141 Y1.7170  
G01 X-1.4135 Y1.7176  
G01 X-1.4117 Y1.7186  
G01 X-1.4100 Y1.7198  
G01 X-1.4092 Y1.7201  
G01 X-1.4085 Y1.7205  
G01 X-1.4065 Y1.7210  
G01 X-1.4046 Y1.7217  
G01 X-1.4037 Y1.7218  
G01 X-1.4029 Y1.7220  
G01 X-1.4008 Y1.7220  
G01 X-1.3988 Y1.7222  
G01 X-1.3980 Y1.7220  
G01 X-1.0608 Y1.7220  
G01 X-0.8937 Y1.9368  
G01 X-0.8934 Y1.9374  
G01 X-0.8929 Y1.9379  
G01 X-0.8926 Y1.9385  
G01 X-0.8915 Y1.9396  
G01 X-0.8906 Y1.9408  
G01 X-0.8900 Y1.9412  
G01 X-0.8895 Y1.9418  
G01 X-0.8890 Y1.9421  
G01 X-0.8885 Y1.9426  
G01 X-0.8872 Y1.9434  
G01 X-0.8860 Y1.9443  
G01 X-0.8853 Y1.9446  
G01 X-0.8847 Y1.9450  
G01 X-0.8841 Y1.9452  
G01 X-0.8835 Y1.9455  
G01 X-0.8820 Y1.9459  
G01 X-0.8806 Y1.9465  
G01 X-0.8799 Y1.9466  
G01 X-0.8375 Y1.9607  
G01 X-0.8375 Y1.9655  
G01 X-0.8220 Y1.9810  
G01 X-0.8220 Y2.1196  
G01 X-0.8239 Y2.1209  
G01 X-0.8291 Y2.1261  
G01 X-0.8332 Y2.1322  
G01 X-0.8361 Y2.1391  
G01 X-0.8375 Y2.1463  
G01 X-0.8375 Y2.1537  
G01 X-0.8361 Y2.1609  
G01 X-0.8332 Y2.1678  
G01 X-0.8291 Y2.1739  
G01 X-0.8239 Y2.1791  
G01 X-0.8178 Y2.1832  
G01 X-0.8109 Y2.1861  
G01 X-0.8037 Y2.1875  
G01 X-0.7963 Y2.1875  
G01 X-0.7891 Y2.1861  
G01 X-0.7822 Y2.1832  
G01 X-0.7761 Y2.1791  
G01 X-0.7709 Y2.1739  
G01 X-0.7668 Y2.1678  
G01 X-0.7639 Y2.1609  
G01 X-0.7625 Y2.1537  
G01 X-0.7625 Y2.1463  
G01 X-0.7639 Y2.1391  
G01 X-0.7668 Y2.1322  
G01 X-0.7709 Y2.1261  
G01 X-0.7761 Y2.1209  
G01 X-0.7780 Y2.1196  
G01 X-0.7780 Y1.9810  
G01 X-0.7690 Y1.9720  
G01 X-0.5388 Y1.9720  
G01 X-0.5178 Y1.9930  
G01 X-0.4822 Y1.9930  
G01 X-0.4612 Y1.9720  
G01 X-0.4388 Y1.9720  
G01 X-0.4200 Y1.9908  
G01 X-0.4200 Y2.0092  
G01 X-0.4388 Y2.0280  
G01 X-0.4612 Y2.0280  
G01 X-0.4822 Y2.0070  
G01 X-0.5178 Y2.0070  
G01 X-0.5430 Y2.0322  
G01 X-0.5430 Y2.0678  
G01 X-0.5178 Y2.0930  
G01 X-0.4822 Y2.0930  
G01 X-0.4612 Y2.0720  
G01 X-0.4388 Y2.0720  
G01 X-0.4200 Y2.0908  
G01 X-0.4200 Y2.1092  
G01 X-0.4388 Y2.1280  
G01 X-0.4612 Y2.1280  
G01 X-0.4822 Y2.1070  
G01 X-0.5178 Y2.1070  
G01 X-0.5430 Y2.1322  
G01 X-0.5430 Y2.1678  
G01 X-0.5178 Y2.1930  
G01 X-0.4822 Y2.1930  
G01 X-0.4612 Y2.1720  
G01 X-0.4388 Y2.1720  
G01 X-0.4178 Y2.1930  
G01 X-0.3822 Y2.1930  
G01 X-0.3612 Y2.1720  
G01 X-0.3470 Y2.1720  
G01 X-0.3470 Y2.2659  
G01 X-0.4841 Y2.4030  
G01 X-1.1530 Y2.4030  
G01 X-1.1530 Y1.9272  
G01 X-1.1529 Y1.9266  
G01 X-1.1530 Y1.9243  
G01 X-1.1530 Y1.9221  
G01 X-1.1532 Y1.9215  
G01 X-1.1532 Y1.9208  
G01 X-1.1539 Y1.9187  
G01 X-1.1545 Y1.9165  
G01 X-1.1548 Y1.9159  
G01 X-1.1789 Y1.8437  
G01 X-1.1795 Y1.8415  
G01 X-1.1798 Y1.8409  
G01 X-1.1800 Y1.8403  
G01 X-1.1813 Y1.8384  
G01 X-1.1824 Y1.8365  
G01 X-1.1829 Y1.8360  
G01 X-1.1832 Y1.8355  
G01 X-1.1849 Y1.8340  
G01 X-1.1865 Y1.8324  
G01 X-1.1871 Y1.8321  
G01 X-1.1876 Y1.8316  
G01 X-1.1896 Y1.8306  
G01 X-1.1915 Y1.8295  
G01 X-1.1922 Y1.8293  
G01 X-1.1928 Y1.8290  
G01 X-1.1949 Y1.8286  
G01 X-1.1971 Y1.8280  
G01 X-1.1978 Y1.8280  
G01 X-1.1984 Y1.8279  
G01 X-1.2007 Y1.8280  
G01 X-2.4478 Y1.8280  
G01 X-2.4484 Y1.8279  
G01 X-2.4507 Y1.8280  
G01 X-2.4529 Y1.8280  
G01 X-2.4535 Y1.8282  
G01 X-2.4542 Y1.8282  
G01 X-2.4563 Y1.8289  
G01 X-2.4585 Y1.8295  
G01 X-2.4591 Y1.8298  
G01 X-2.4597 Y1.8300  
G01 X-2.4616 Y1.8313  
G01 X-2.4635 Y1.8324  
G01 X-2.4640 Y1.8329  
G01 X-2.4645 Y1.8332  
G01 X-2.4660 Y1.8349  
G01 X-2.4676 Y1.8365  
G01 X-2.4679 Y1.8371  
G01 X-2.4684 Y1.8376  
G01 X-2.4694 Y1.8396  
G01 X-2.4705 Y1.8415  
G01 X-2.4707 Y1.8422  
G01 X-2.4944 Y1.8896  
G01 X-2.4955 Y1.8915  
G01 X-2.4957 Y1.8922  
G01 X-2.4960 Y1.8928  
G01 X-2.4964 Y1.8949  
G01 X-2.4970 Y1.8971  
G01 X-2.4970 Y1.8978  
G01 X-2.4971 Y1.8984  
G01 X-2.4970 Y1.9007  
G01 X-2.4970 Y2.0779  
G01 X-2.4955 Y2.0835  
G01 X-2.4926 Y2.0885  
G01 X-2.4885 Y2.0926  
G01 X-2.4031 Y2.1780  
G01 X-2.4534 Y2.1780  
G01 X-2.4799 Y2.1515  
G01 X-2.5201 Y2.1515  
G01 X-2.5485 Y2.1799  
G01 X-2.5485 Y2.1930  
G01 X-2.6536 Y2.2280  
G01 X-3.2780 Y2.2280  
G01 X-3.2780 Y1.9993  
G01 X-3.2751 Y1.9964  
G01 X-3.2716 Y1.9912  
G01 X-3.2692 Y1.9853  
G01 X-3.2680 Y1.9792  
G01 X-3.2680 Y1.9208  
G01 X-3.2692 Y1.9147  
G01 X-3.2716 Y1.9088  
G01 X-3.2751 Y1.9036  
G01 X-3.2796 Y1.8991  
G01 X-3.2848 Y1.8956  
G01 X-3.2907 Y1.8932  
G01 X-3.2968 Y1.8920  
G01 X-3.3032 Y1.8920  
G01 X-3.3093 Y1.8932  
G01 X-3.3152 Y1.8956  
G01 X-3.3204 Y1.8991  
G01 X-3.3249 Y1.9036  
G01 X-3.3284 Y1.9088  
G01 X-3.3308 Y1.9147  
G01 X-3.3320 Y1.9208  
G01 X-3.3320 Y1.9792  
G01 X-3.3308 Y1.9853  
G01 X-3.3284 Y1.9912  
G01 X-3.3249 Y1.9964  
G01 X-3.3220 Y1.9993  
G01 X-3.3220 Y2.2529  
G01 X-3.3205 Y2.2585  
G01 X-3.3176 Y2.2635  
G01 X-3.3135 Y2.2676  
G01 X-3.3085 Y2.2705  
G01 X-3.3029 Y2.2720  
G01 X-2.6522 Y2.2720  
G01 X-2.6516 Y2.2721  
G01 X-2.6493 Y2.2720  
G01 X-2.6471 Y2.2720  
G01 X-2.6465 Y2.2718  
G01 X-2.6458 Y2.2718  
G01 X-2.6437 Y2.2711  
G01 X-2.6415 Y2.2705  
G01 X-2.6409 Y2.2702  
G01 X-2.5340 Y2.2345  
G01 X-2.5201 Y2.2485  
G01 X-2.4799 Y2.2485  
G01 X-2.4534 Y2.2220  
G01 X-2.3966 Y2.2220  
G01 X-2.3701 Y2.2485  
G01 X-2.3299 Y2.2485  
G01 X-2.3015 Y2.2201  
G01 X-2.3015 Y2.1799  
G01 X-2.3299 Y2.1515  
G01 X-2.3674 Y2.1515  
G01 X-2.4530 Y2.0659  
G01 X-2.4530 Y1.9052  
G01 X-2.4364 Y1.8720  
G01 X-1.2159 Y1.8720  
G01 X-1.1970 Y1.9286  
G01 X-1.1970 Y2.4159  
G01 X-1.2591 Y2.4780  
G01 X-1.7267 Y2.4780  
G01 X-1.7367 Y2.4680  
G01 X-1.7633 Y2.4680  
G01 X-1.7733 Y2.4780  
G01 X-1.8267 Y2.4780  
G01 X-1.8367 Y2.4680  
G01 X-1.8633 Y2.4680  
G01 X-1.8820 Y2.4867  
G01 X-1.8820 Y2.4875  
G01 X-1.9813 Y2.5206  
G01 X-1.9859 Y2.5160  
G01 X-2.0141 Y2.5160  
G01 X-2.0340 Y2.5359  
G01 X-2.0340 Y2.5424  
G01 X-2.1552 Y2.6030  
G01 X-2.4279 Y2.6030  
G01 X-2.4335 Y2.6045  
G01 X-2.4385 Y2.6074  
G01 X-2.4426 Y2.6115  
G01 X-2.5091 Y2.6780  
G01 X-2.9718 Y2.6780  
G01 X-3.6280 Y2.4836  
G01 X-3.6280 Y1.1775  
G01 X-3.5539 Y0.8564  
G01 X-3.5534 Y0.8551  
G01 X-3.5532 Y0.8536  
G01 X-3.5529 Y0.8521  
G01 X-3.5530 Y0.8507  
G01 X-3.5284 Y0.6047  
G01 X-3.5282 Y0.6043  
G01 X-3.5281 Y0.6018  
G01 X-3.5278 Y0.5993  
G01 X-3.5279 Y0.5989  
G01 X-3.5279 Y0.5985  
G01 X-3.5284 Y0.5961  
G01 X-3.5288 Y0.5936  
G01 X-3.5289 Y0.5932  
G01 X-3.6031 Y0.2223  
G01 X-3.6032 Y0.2211  
G01 X-3.6037 Y0.2195  
G01 X-3.6040 Y0.2178  
G01 X-3.6045 Y0.2167  
G01 X-3.6049 Y0.2156  
G01 X-3.6058 Y0.2142  
G01 X-3.6066 Y0.2127  
G01 X-3.6074 Y0.2117  
G01 X-3.6446 Y0.1538  
G01 X-3.6400 Y0.1530  
G01 X-3.6317 Y0.1503  
G01 X-3.6238 Y0.1463  
G01 X-3.6167 Y0.1411  
G01 X-3.6104 Y0.1349  
G01 X-3.6053 Y0.1278  
G01 X-3.6013 Y0.1199  
G01 X-3.5985 Y0.1115  
G01 X-3.5971 Y0.1028  
G01 X-3.5971 Y0.0940  
G01 X-3.5985 Y0.0853  
G01 X-3.6013 Y0.0769  
G01 X-3.6053 Y0.0691  
G01 X-3.6104 Y0.0619  
G01 X-3.6167 Y0.0557  
G01 X-3.6238 Y0.0505  
G01 X-3.6317 Y0.0465  
G01 X-3.6400 Y0.0438  
G01 X-3.6487 Y0.0424  
G01 X-3.7576 Y0.0424  
G01 X-3.7663 Y0.0438  
G01 X-3.7746 Y0.0465  
G01 X-3.7825 Y0.0505  
G01 X-3.7896 Y0.0557  
G01 X-3.7959 Y0.0619  
G01 X-3.8010 Y0.0691  
G01 X-3.8050 Y0.0769  
G01 X-3.8078 Y0.0853  
G01 X-3.8091 Y0.0940  
G01 X-3.8091 Y0.1028  
G01 X-3.8078 Y0.1115  
G01 X-3.8050 Y0.1199  
G01 X-3.8010 Y0.1278  
G01 X-3.7959 Y0.1349  
G01 X-3.7896 Y0.1411  
G01 X-3.7825 Y0.1463  
G01 X-3.7746 Y0.1503  
G01 X-3.7663 Y0.1530  
G01 X-3.7576 Y0.1544  
G01 X-3.6964 Y0.1544  
G01 X-3.6458 Y0.2334  
G01 X-3.5722 Y0.6011  
G01 X-3.5968 Y0.8464  
G01 X-3.6713 Y1.1697  
G01 X-3.6720 Y1.1721  
G01 X-3.6720 Y1.1725  
G01 X-3.6721 Y1.1729  
G01 X-3.6720 Y1.1754  
G01 X-3.6720 Y2.4997  
G01 X-3.6721 Y2.5023  
G01 X-3.6720 Y2.5026  
G01 X-3.6720 Y2.5029  
G01 X-3.6713 Y2.5054  
G01 X-3.6707 Y2.5080  
G01 X-3.6706 Y2.5082  
G01 X-3.6705 Y2.5085  
G01 X-3.6692 Y2.5107  
G01 X-3.6680 Y2.5130  
G01 X-3.6678 Y2.5133  
G01 X-3.6676 Y2.5135  
G01 X-3.6658 Y2.5154  
G01 X-3.6640 Y2.5172  
G01 X-3.6637 Y2.5174  
G01 X-3.6635 Y2.5176  
G01 X-3.6613 Y2.5189  
G01 X-3.6590 Y2.5203  
G01 X-3.6587 Y2.5204  
G01 X-3.6585 Y2.5205  
G01 X-3.6560 Y2.5212  
G01 X-2.9837 Y2.7204  
G01 X-2.9835 Y2.7205  
G01 X-2.9810 Y2.7212  
G01 X-2.9785 Y2.7219  
G01 X-2.9782 Y2.7219  
G01 X-2.9779 Y2.7220  
G01 X-2.9753 Y2.7220  
G01 X-2.9727 Y2.7221  
G01 X-2.9724 Y2.7220  
G01 X-2.4971 Y2.7220  
G01 X-2.4915 Y2.7205  
G01 X-2.4865 Y2.7176  
G01 X-2.4159 Y2.6470  
G01 X-2.1507 Y2.6470  
G01 X-2.1484 Y2.6471  
G01 X-2.1478 Y2.6470  
G01 X-2.1471 Y2.6470  
G01 X-2.1449 Y2.6464  
G01 X-2.1428 Y2.6460  
G01 X-2.1422 Y2.6457  
G01 X-2.1415 Y2.6455  
G01 X-2.1396 Y2.6444  
G01 X-2.0157 Y2.5824  
G01 X-2.0141 Y2.5840  
G01 X-1.9859 Y2.5840  
G01 X-1.9660 Y2.5641  
G01 X-1.9660 Y2.5619  
G01 X-1.8665 Y2.5287  
G01 X-1.8633 Y2.5320  
G01 X-1.8367 Y2.5320  
G01 X-1.8267 Y2.5220  
G01 X-1.7733 Y2.5220  
G01 X-1.7633 Y2.5320  
G01 X-1.7367 Y2.5320  
G01 X-1.7267 Y2.5220  
G01 X-1.2471 Y2.5220  
G01 X-1.2415 Y2.5205  
G01 X-1.2365 Y2.5176  
G01 X-1.1659 Y2.4470  
G01 X-0.4721 Y2.4470  
G01 X-0.4665 Y2.4455  
G01 X-0.4615 Y2.4426  
G01 X-0.3115 Y2.2926  
G01 X-0.3074 Y2.2885  
G01 X-0.3045 Y2.2835  
G01 X-0.3030 Y2.2779  
G01 X-0.3030 Y2.1471  
G01 X-0.3045 Y2.1415  
G01 X-0.3074 Y2.1365  
G01 X-0.3115 Y2.1324  
G01 X-0.3165 Y2.1295  
G01 X-0.3221 Y2.1280  
G01 X-0.3612 Y2.1280  
G01 X-0.3800 Y2.1092  
G01 X-0.3800 Y2.0908  
G01 X-0.3570 Y2.0678  
G01 X-0.3570 Y2.0322  
G01 X-0.3800 Y2.0092  
G01 X-0.3800 Y1.9908  
G01 X-0.3612 Y1.9720  
G01 X-0.2721 Y1.9720  
G01 X-0.2665 Y1.9705  
G01 X-0.2615 Y1.9676  
G01 X-0.2574 Y1.9635  
G01 X-0.2545 Y1.9585  
G01 X-0.2530 Y1.9529  
G01 X-0.2530 Y1.1003  
G01 X-0.2529 Y1.0978  
G01 X-0.2530 Y1.0975  
G01 X-0.2530 Y1.0971  
G01 X-0.2537 Y1.0946  
G01 X-0.2542 Y1.0922  
G01 X-0.2544 Y1.0918  
G01 X-0.2545 Y1.0915  
G01 X-0.2558 Y1.0893  
G01 X-0.2570 Y1.0870  
G01 X-0.2572 Y1.0868  
G01 X-0.2574 Y1.0865  
G01 X-0.2592 Y1.0847  
G01 X-1.0280 Y0.2663  
G01 X-1.0280 Y0.0970  
G01 X-0.6591 Y0.0970  
G01 X-0.6021 Y0.1540  
G01 X-0.6009 Y0.1615  
G01 X-0.5986 Y0.1688  
G01 X-0.5951 Y0.1757  
G01 X-0.5905 Y0.1819  
G01 X-0.5851 Y0.1874  
G01 X-0.5788 Y0.1919  
G01 X-0.5720 Y0.1954  
G01 X-0.5646 Y0.1978  
G01 X-0.5570 Y0.1990  
G01 X-0.5493 Y0.1990  
G01 X-0.5417 Y0.1978  
G01 X-0.5343 Y0.1954  
G01 X-0.5275 Y0.1919  
G01 X-0.5212 Y0.1874  
G01 X-0.5158 Y0.1819  
G01 X-0.5112 Y0.1757  
G01 X-0.5077 Y0.1688  
G01 X-0.5054 Y0.1615  
G01 X-0.5041 Y0.1539  
G01 X-0.5041 Y0.1461  
G01 X-0.5054 Y0.1385  
G01 X-0.5066 Y0.1346  
G01 X-0.4925 Y0.1204  
G01 X-0.3048 Y0.1204  
G01 X-0.3010 Y0.1278  
G01 X-0.2959 Y0.1349  
G01 X-0.2896 Y0.1411  
G01 X-0.2825 Y0.1463  
G01 X-0.2746 Y0.1503  
G01 X-0.2663 Y0.1530  
G01 X-0.2576 Y0.1544  
G01 X-0.1487 Y0.1544  
G01 X-0.1400 Y0.1530  
G01 X-0.1317 Y0.1503  
G01 X-0.1238 Y0.1463  
G01 X-0.1167 Y0.1411  
G01 X-0.1104 Y0.1349  
G01 X-0.1053 Y0.1278  
G01 X-0.1013 Y0.1199  
G01 X-0.0985 Y0.1115  
G01 X-0.0971 Y0.1028  
G01 X-0.0971 Y0.0940  
G01 X-0.0985 Y0.0853  
G01 X-0.1013 Y0.0769  
G01 X-0.1053 Y0.0691  
G01 X-0.1104 Y0.0619  
G00 Z0.0500  
G00 X-0.0471 Y0.2530  
G01 Z-0.0040 F10    
G01 X-0.6625 Y0.2530  F20    
G01 X-0.7086 Y0.1763  
G01 X-0.7081 Y0.1757  
G01 X-0.7046 Y0.1688  
G01 X-0.7022 Y0.1615  
G01 X-0.7010 Y0.1539  
G01 X-0.7010 Y0.1461  
G01 X-0.7022 Y0.1385  
G01 X-0.7046 Y0.1312  
G01 X-0.7081 Y0.1243  
G01 X-0.7126 Y0.1181  
G01 X-0.7181 Y0.1126  
G01 X-0.7243 Y0.1081  
G01 X-0.7312 Y0.1046  
G01 X-0.7385 Y0.1022  
G01 X-0.7461 Y0.1010  
G01 X-0.7539 Y0.1010  
G01 X-0.7615 Y0.1022  
G01 X-0.7688 Y0.1046  
G01 X-0.7757 Y0.1081  
G01 X-0.7819 Y0.1126  
G01 X-0.7874 Y0.1181  
G01 X-0.7919 Y0.1243  
G01 X-0.7954 Y0.1312  
G01 X-0.7978 Y0.1385  
G01 X-0.7990 Y0.1461  
G01 X-0.7990 Y0.1539  
G01 X-0.7978 Y0.1615  
G01 X-0.7954 Y0.1688  
G01 X-0.7919 Y0.1757  
G01 X-0.7874 Y0.1819  
G01 X-0.7819 Y0.1874  
G01 X-0.7757 Y0.1919  
G01 X-0.7688 Y0.1954  
G01 X-0.7615 Y0.1978  
G01 X-0.7539 Y0.1990  
G01 X-0.7463 Y0.1990  
G01 X-0.6940 Y0.2862  
G01 X-0.6926 Y0.2885  
G01 X-0.6925 Y0.2886  
G01 X-0.6924 Y0.2888  
G01 X-0.6904 Y0.2907  
G01 X-0.6885 Y0.2926  
G01 X-0.6883 Y0.2927  
G01 X-0.6882 Y0.2928  
G01 X-0.6858 Y0.2941  
G01 X-0.6835 Y0.2955  
G01 X-0.6833 Y0.2955  
G01 X-0.6831 Y0.2956  
G01 X-0.6805 Y0.2963  
G01 X-0.6779 Y0.2970  
G01 X-0.6777 Y0.2970  
G01 X-0.6775 Y0.2970  
G01 X-0.6748 Y0.2970  
G01 X-0.0720 Y0.2970  
G01 X-0.0720 Y2.0909  
G01 X-0.6342 Y2.6531  
G01 X-2.3021 Y2.6777  
G01 X-2.3117 Y2.6680  
G01 X-2.3383 Y2.6680  
G01 X-2.3570 Y2.6867  
G01 X-2.3570 Y2.7133  
G01 X-2.3383 Y2.7320  
G01 X-2.3117 Y2.7320  
G01 X-2.3014 Y2.7217  
G01 X-0.6248 Y2.6970  
G01 X-0.6221 Y2.6970  
G01 X-0.6219 Y2.6970  
G01 X-0.6218 Y2.6970  
G01 X-0.6191 Y2.6962  
G01 X-0.6165 Y2.6955  
G01 X-0.6164 Y2.6954  
G01 X-0.6162 Y2.6954  
G01 X-0.6139 Y2.6940  
G01 X-0.6115 Y2.6926  
G01 X-0.6114 Y2.6925  
G01 X-0.6112 Y2.6924  
G01 X-0.6093 Y2.6904  
G01 X-0.0365 Y2.1176  
G01 X-0.0324 Y2.1135  
G01 X-0.0295 Y2.1085  
G01 X-0.0280 Y2.1029  
G01 X-0.0280 Y0.2721  
G01 X-0.0295 Y0.2665  
G01 X-0.0324 Y0.2615  
G01 X-0.0365 Y0.2574  
G01 X-0.0415 Y0.2545  
G01 X-0.0471 Y0.2530  
G00 Z0.0500  
G00 X-0.1104 Y0.5816  
G01 Z-0.0040 F10    
G01 X-0.1167 Y0.5754  F20    
G01 X-0.1238 Y0.5702  
G01 X-0.1317 Y0.5662  
G01 X-0.1400 Y0.5635  
G01 X-0.1487 Y0.5621  
G01 X-0.2576 Y0.5621  
G01 X-0.2663 Y0.5635  
G01 X-0.2746 Y0.5662  
G01 X-0.2825 Y0.5702  
G01 X-0.2896 Y0.5754  
G01 X-0.2959 Y0.5816  
G01 X-0.3010 Y0.5888  
G01 X-0.3050 Y0.5966  
G01 X-0.3078 Y0.6050  
G01 X-0.3091 Y0.6137  
G01 X-0.3091 Y0.6225  
G01 X-0.3078 Y0.6312  
G01 X-0.3050 Y0.6396  
G01 X-0.3010 Y0.6475  
G01 X-0.2959 Y0.6546  
G01 X-0.2896 Y0.6608  
G01 X-0.2825 Y0.6660  
G01 X-0.2823 Y0.6661  
G01 X-0.3442 Y0.7280  
G01 X-0.4409 Y0.7280  
G01 X-0.9249 Y0.2440  
G01 X-0.9249 Y0.1938  
G01 X-0.9212 Y0.1919  
G01 X-0.9149 Y0.1874  
G01 X-0.9095 Y0.1819  
G01 X-0.9049 Y0.1757  
G01 X-0.9014 Y0.1688  
G01 X-0.8991 Y0.1615  
G01 X-0.8979 Y0.1539  
G01 X-0.8979 Y0.1461  
G01 X-0.8991 Y0.1385  
G01 X-0.9014 Y0.1312  
G01 X-0.9049 Y0.1243  
G01 X-0.9095 Y0.1181  
G01 X-0.9149 Y0.1126  
G01 X-0.9212 Y0.1081  
G01 X-0.9280 Y0.1046  
G01 X-0.9354 Y0.1022  
G01 X-0.9430 Y0.1010  
G01 X-0.9507 Y0.1010  
G01 X-0.9583 Y0.1022  
G01 X-0.9657 Y0.1046  
G01 X-0.9725 Y0.1081  
G01 X-0.9788 Y0.1126  
G01 X-0.9842 Y0.1181  
G01 X-0.9888 Y0.1243  
G01 X-0.9923 Y0.1312  
G01 X-0.9946 Y0.1385  
G01 X-0.9959 Y0.1461  
G01 X-0.9959 Y0.1539  
G01 X-0.9946 Y0.1615  
G01 X-0.9923 Y0.1688  
G01 X-0.9888 Y0.1757  
G01 X-0.9842 Y0.1819  
G01 X-0.9788 Y0.1874  
G01 X-0.9725 Y0.1919  
G01 X-0.9689 Y0.1938  
G01 X-0.9689 Y0.2560  
G01 X-0.9674 Y0.2616  
G01 X-0.9645 Y0.2667  
G01 X-0.4676 Y0.7635  
G01 X-0.4635 Y0.7676  
G01 X-0.4585 Y0.7705  
G01 X-0.4529 Y0.7720  
G01 X-0.3321 Y0.7720  
G01 X-0.3265 Y0.7705  
G01 X-0.3215 Y0.7676  
G01 X-0.2280 Y0.6741  
G01 X-0.1487 Y0.6741  
G01 X-0.1400 Y0.6727  
G01 X-0.1317 Y0.6700  
G01 X-0.1238 Y0.6660  
G01 X-0.1167 Y0.6608  
G01 X-0.1104 Y0.6546  
G01 X-0.1053 Y0.6475  
G01 X-0.1013 Y0.6396  
G01 X-0.0985 Y0.6312  
G01 X-0.0971 Y0.6225  
G01 X-0.0971 Y0.6137  
G01 X-0.0985 Y0.6050  
G01 X-0.1013 Y0.5966  
G01 X-0.1053 Y0.5888  
G01 X-0.1104 Y0.5816  
G00 Z0.0500  
G00 X-0.3519 Y0.5859  
G01 Z-0.0040 F10    
G01 X-0.3519 Y0.4771  F20    
G01 X-0.3533 Y0.4684  
G01 X-0.3560 Y0.4600  
G01 X-0.3600 Y0.4521  
G01 X-0.3652 Y0.4450  
G01 X-0.3714 Y0.4388  
G01 X-0.3785 Y0.4336  
G01 X-0.3864 Y0.4296  
G01 X-0.3948 Y0.4269  
G01 X-0.4035 Y0.4255  
G01 X-0.4123 Y0.4255  
G01 X-0.4210 Y0.4269  
G01 X-0.4294 Y0.4296  
G01 X-0.4372 Y0.4336  
G01 X-0.4444 Y0.4388  
G01 X-0.4506 Y0.4450  
G01 X-0.4558 Y0.4521  
G01 X-0.4598 Y0.4600  
G01 X-0.4625 Y0.4684  
G01 X-0.4639 Y0.4771  
G01 X-0.4639 Y0.5859  
G01 X-0.4625 Y0.5946  
G01 X-0.4598 Y0.6030  
G01 X-0.4558 Y0.6108  
G01 X-0.4506 Y0.6180  
G01 X-0.4444 Y0.6242  
G01 X-0.4372 Y0.6294  
G01 X-0.4294 Y0.6334  
G01 X-0.4210 Y0.6361  
G01 X-0.4123 Y0.6375  
G01 X-0.4035 Y0.6375  
G01 X-0.3948 Y0.6361  
G01 X-0.3864 Y0.6334  
G01 X-0.3785 Y0.6294  
G01 X-0.3714 Y0.6242  
G01 X-0.3652 Y0.6180  
G01 X-0.3600 Y0.6108  
G01 X-0.3560 Y0.6030  
G01 X-0.3533 Y0.5946  
G01 X-0.3519 Y0.5859  
G00 Z0.0500  
G00 X-0.7833 Y0.6854  
G01 Z-0.0040 F10    
G01 X-0.7850 Y0.6839  F20    
G01 X-0.7865 Y0.6824  
G01 X-0.7871 Y0.6820  
G01 X-1.1840 Y0.3348  
G01 X-1.1845 Y0.3341  
G01 X-1.1861 Y0.3329  
G01 X-1.1877 Y0.3315  
G01 X-1.1884 Y0.3312  
G01 X-1.3850 Y0.1838  
G01 X-1.3854 Y0.1833  
G01 X-1.3873 Y0.1820  
G01 X-1.3891 Y0.1807  
G01 X-1.3897 Y0.1804  
G01 X-1.4625 Y0.1319  
G01 X-1.6396 Y0.0054  
G01 X-1.6450 Y0.0034  
G01 X-1.6508 Y0.0028  
G01 X-1.6565 Y0.0038  
G01 X-1.6592 Y0.0050  
G01 X-3.1906 Y0.0050  
G01 X-3.1915 Y0.0045  
G01 X-3.1971 Y0.0030  
G01 X-3.2029 Y0.0030  
G01 X-3.2085 Y0.0045  
G01 X-3.2135 Y0.0074  
G01 X-3.3171 Y0.1110  
G01 X-3.3212 Y0.1081  
G01 X-3.3280 Y0.1046  
G01 X-3.3354 Y0.1022  
G01 X-3.3430 Y0.1010  
G01 X-3.3507 Y0.1010  
G01 X-3.3583 Y0.1022  
G01 X-3.3657 Y0.1046  
G01 X-3.3725 Y0.1081  
G01 X-3.3788 Y0.1126  
G01 X-3.3842 Y0.1181  
G01 X-3.3888 Y0.1243  
G01 X-3.3923 Y0.1312  
G01 X-3.3946 Y0.1385  
G01 X-3.3959 Y0.1461  
G01 X-3.3959 Y0.1539  
G01 X-3.3946 Y0.1615  
G01 X-3.3923 Y0.1688  
G01 X-3.3888 Y0.1757  
G01 X-3.3842 Y0.1819  
G01 X-3.3788 Y0.1874  
G01 X-3.3725 Y0.1919  
G01 X-3.3657 Y0.1954  
G01 X-3.3583 Y0.1978  
G01 X-3.3507 Y0.1990  
G01 X-3.3430 Y0.1990  
G01 X-3.3394 Y0.1984  
G01 X-3.2715 Y0.2834  
G01 X-3.2470 Y0.6507  
G01 X-3.2470 Y0.8743  
G01 X-3.2471 Y0.8766  
G01 X-3.2470 Y0.8772  
G01 X-3.2470 Y0.8779  
G01 X-3.2464 Y0.8801  
G01 X-3.2460 Y0.8822  
G01 X-3.2457 Y0.8828  
G01 X-3.2455 Y0.8835  
G01 X-3.2444 Y0.8854  
G01 X-3.2434 Y0.8874  
G01 X-3.2429 Y0.8879  
G01 X-3.2426 Y0.8885  
G01 X-3.2410 Y0.8901  
G01 X-3.2395 Y0.8918  
G01 X-3.2390 Y0.8921  
G01 X-3.2385 Y0.8926  
G01 X-3.2366 Y0.8937  
G01 X-3.2347 Y0.8950  
G01 X-3.2341 Y0.8952  
G01 X-3.2335 Y0.8955  
G01 X-3.2313 Y0.8961  
G01 X-3.1734 Y0.9154  
G01 X-3.1717 Y0.9178  
G01 X-3.1678 Y0.9217  
G01 X-3.1633 Y0.9248  
G01 X-3.1582 Y0.9269  
G01 X-3.1528 Y0.9280  
G01 X-3.1472 Y0.9280  
G01 X-3.1418 Y0.9269  
G01 X-3.1367 Y0.9248  
G01 X-3.1322 Y0.9217  
G01 X-3.1283 Y0.9178  
G01 X-3.1260 Y0.9145  
G01 X-2.7658 Y0.7794  
G01 X-2.7633 Y0.7820  
G01 X-2.7367 Y0.7820  
G01 X-2.7180 Y0.7633  
G01 X-2.7180 Y0.7367  
G01 X-2.7367 Y0.7180  
G01 X-2.7633 Y0.7180  
G01 X-2.7820 Y0.7367  
G01 X-2.7820 Y0.7385  
G01 X-3.1414 Y0.8733  
G01 X-3.1418 Y0.8731  
G01 X-3.1472 Y0.8720  
G01 X-3.1528 Y0.8720  
G01 X-3.1582 Y0.8731  
G01 X-3.1595 Y0.8736  
G01 X-3.2030 Y0.8591  
G01 X-3.2030 Y0.6522  
G01 X-3.2029 Y0.6514  
G01 X-3.2030 Y0.6493  
G01 X-3.2030 Y0.6471  
G01 X-3.2032 Y0.6464  
G01 X-3.2279 Y0.2755  
G01 X-3.2278 Y0.2746  
G01 X-3.2281 Y0.2726  
G01 X-3.2282 Y0.2706  
G01 X-3.2285 Y0.2698  
G01 X-3.2287 Y0.2688  
G01 X-3.2295 Y0.2670  
G01 X-3.2301 Y0.2652  
G01 X-3.2306 Y0.2644  
G01 X-3.2310 Y0.2635  
G01 X-3.2322 Y0.2620  
G01 X-3.2333 Y0.2604  
G01 X-3.2340 Y0.2597  
G01 X-3.3035 Y0.1729  
G01 X-3.3014 Y0.1688  
G01 X-3.2991 Y0.1615  
G01 X-3.2979 Y0.1540  
G01 X-3.1889 Y0.0450  
G01 X-1.6599 Y0.0450  
G01 X-1.4899 Y0.1664  
G01 X-1.4896 Y0.1667  
G01 X-1.4875 Y0.1681  
G01 X-1.4854 Y0.1696  
G01 X-1.4851 Y0.1697  
G01 X-1.4127 Y0.2180  
G01 X-1.2139 Y0.3671  
G01 X-0.8220 Y0.7100  
G01 X-0.8220 Y1.8196  
G01 X-0.8239 Y1.8209  
G01 X-0.8291 Y1.8261  
G01 X-0.8332 Y1.8322  
G01 X-0.8361 Y1.8391  
G01 X-0.8375 Y1.8463  
G01 X-0.8375 Y1.8537  
G01 X-0.8361 Y1.8609  
G01 X-0.8332 Y1.8678  
G01 X-0.8291 Y1.8739  
G01 X-0.8239 Y1.8791  
G01 X-0.8178 Y1.8832  
G01 X-0.8109 Y1.8861  
G01 X-0.8037 Y1.8875  
G01 X-0.7963 Y1.8875  
G01 X-0.7891 Y1.8861  
G01 X-0.7822 Y1.8832  
G01 X-0.7761 Y1.8791  
G01 X-0.7709 Y1.8739  
G01 X-0.7696 Y1.8720  
G01 X-0.5388 Y1.8720  
G01 X-0.5178 Y1.8930  
G01 X-0.4822 Y1.8930  
G01 X-0.4612 Y1.8720  
G01 X-0.4388 Y1.8720  
G01 X-0.4178 Y1.8930  
G01 X-0.3822 Y1.8930  
G01 X-0.3570 Y1.8678  
G01 X-0.3570 Y1.8322  
G01 X-0.3822 Y1.8070  
G01 X-0.4178 Y1.8070  
G01 X-0.4388 Y1.8280  
G01 X-0.4612 Y1.8280  
G01 X-0.4822 Y1.8070  
G01 X-0.5178 Y1.8070  
G01 X-0.5388 Y1.8280  
G01 X-0.7696 Y1.8280  
G01 X-0.7709 Y1.8261  
G01 X-0.7761 Y1.8209  
G01 X-0.7780 Y1.8196  
G01 X-0.7780 Y0.7022  
G01 X-0.7779 Y0.7014  
G01 X-0.7780 Y0.6993  
G01 X-0.7780 Y0.6971  
G01 X-0.7782 Y0.6964  
G01 X-0.7782 Y0.6956  
G01 X-0.7789 Y0.6936  
G01 X-0.7795 Y0.6915  
G01 X-0.7799 Y0.6909  
G01 X-0.7801 Y0.6902  
G01 X-0.7813 Y0.6884  
G01 X-0.7824 Y0.6865  
G01 X-0.7829 Y0.6860  
G01 X-0.7833 Y0.6854  
G00 Z0.0500  
G00 X-0.6771 Y0.8712  
G01 Z-0.0040 F10    
G01 X-0.6788 Y0.8729  F20    
G01 X-0.6797 Y0.8751  
G01 X-0.6797 Y0.9249  
G01 X-0.6788 Y0.9271  
G01 X-0.6771 Y0.9288  
G01 X-0.6749 Y0.9297  
G01 X-0.6720 Y0.9297  
G01 X-0.6720 Y1.6029  
G01 X-0.6705 Y1.6085  
G01 X-0.6676 Y1.6135  
G01 X-0.6635 Y1.6176  
G01 X-0.6135 Y1.6676  
G01 X-0.6085 Y1.6705  
G01 X-0.6029 Y1.6720  
G01 X-0.5388 Y1.6720  
G01 X-0.5178 Y1.6930  
G01 X-0.4822 Y1.6930  
G01 X-0.4612 Y1.6720  
G01 X-0.4388 Y1.6720  
G01 X-0.4178 Y1.6930  
G01 X-0.3822 Y1.6930  
G01 X-0.3570 Y1.6678  
G01 X-0.3570 Y1.6322  
G01 X-0.3822 Y1.6070  
G01 X-0.4178 Y1.6070  
G01 X-0.4388 Y1.6280  
G01 X-0.4612 Y1.6280  
G01 X-0.4822 Y1.6070  
G01 X-0.5178 Y1.6070  
G01 X-0.5388 Y1.6280  
G01 X-0.5909 Y1.6280  
G01 X-0.6280 Y1.5909  
G01 X-0.6280 Y0.9297  
G01 X-0.6251 Y0.9297  
G01 X-0.6229 Y0.9288  
G01 X-0.6212 Y0.9271  
G01 X-0.6203 Y0.9249  
G01 X-0.6203 Y0.8751  
G01 X-0.6212 Y0.8729  
G01 X-0.6229 Y0.8712  
G01 X-0.6251 Y0.8703  
G01 X-0.6749 Y0.8703  
G01 X-0.6771 Y0.8712  
G00 Z0.0500  
G00 X-1.2283 Y0.9822  
G01 Z-0.0040 F10    
G01 X-1.2322 Y0.9783  F20    
G01 X-1.2367 Y0.9752  
G01 X-1.2418 Y0.9731  
G01 X-1.2472 Y0.9720  
G01 X-1.2497 Y0.9720  
G01 X-1.2544 Y0.9674  
G01 X-1.2557 Y0.9641  
G01 X-1.2591 Y0.9595  
G01 X-1.2637 Y0.9559  
G01 X-1.2690 Y0.9536  
G01 X-1.4231 Y0.9316  
G01 X-1.4367 Y0.9180  
G01 X-1.4633 Y0.9180  
G01 X-1.4820 Y0.9367  
G01 X-1.4820 Y0.9633  
G01 X-1.4633 Y0.9820  
G01 X-1.4367 Y0.9820  
G01 X-1.4298 Y0.9751  
G01 X-1.2821 Y0.9962  
G01 X-1.2780 Y1.0003  
G01 X-1.2780 Y1.0028  
G01 X-1.2769 Y1.0082  
G01 X-1.2748 Y1.0133  
G01 X-1.2720 Y1.0175  
G01 X-1.2720 Y1.0825  
G01 X-1.2748 Y1.0867  
G01 X-1.2769 Y1.0918  
G01 X-1.2780 Y1.0972  
G01 X-1.2780 Y1.1028  
G01 X-1.2769 Y1.1082  
G01 X-1.2748 Y1.1133  
G01 X-1.2717 Y1.1178  
G01 X-1.2678 Y1.1217  
G01 X-1.2633 Y1.1248  
G01 X-1.2582 Y1.1269  
G01 X-1.2528 Y1.1280  
G01 X-1.2472 Y1.1280  
G01 X-1.2418 Y1.1269  
G01 X-1.2367 Y1.1248  
G01 X-1.2322 Y1.1217  
G01 X-1.2283 Y1.1178  
G01 X-1.2252 Y1.1133  
G01 X-1.2231 Y1.1082  
G01 X-1.2220 Y1.1028  
G01 X-1.2220 Y1.0972  
G01 X-1.2231 Y1.0918  
G01 X-1.2252 Y1.0867  
G01 X-1.2280 Y1.0825  
G01 X-1.2280 Y1.0175  
G01 X-1.2252 Y1.0133  
G01 X-1.2231 Y1.0082  
G01 X-1.2220 Y1.0028  
G01 X-1.2220 Y0.9972  
G01 X-1.2231 Y0.9918  
G01 X-1.2252 Y0.9867  
G01 X-1.2283 Y0.9822  
G00 Z0.0500  
G00 X-1.2283 Y1.1822  
G01 Z-0.0040 F10    
G01 X-1.2322 Y1.1783  F20    
G01 X-1.2367 Y1.1752  
G01 X-1.2418 Y1.1731  
G01 X-1.2472 Y1.1720  
G01 X-1.2528 Y1.1720  
G01 X-1.2582 Y1.1731  
G01 X-1.2633 Y1.1752  
G01 X-1.2678 Y1.1783  
G01 X-1.2717 Y1.1822  
G01 X-1.2748 Y1.1867  
G01 X-1.2769 Y1.1918  
G01 X-1.2780 Y1.1972  
G01 X-1.2780 Y1.2028  
G01 X-1.2769 Y1.2082  
G01 X-1.2748 Y1.2133  
G01 X-1.2720 Y1.2175  
G01 X-1.2720 Y1.4267  
G01 X-1.2820 Y1.4367  
G01 X-1.2820 Y1.4633  
G01 X-1.2779 Y1.4674  
G01 X-1.3139 Y1.5937  
G01 X-1.3320 Y1.6117  
G01 X-1.3320 Y1.6383  
G01 X-1.3133 Y1.6570  
G01 X-1.2867 Y1.6570  
G01 X-1.2680 Y1.6383  
G01 X-1.2680 Y1.6117  
G01 X-1.2721 Y1.6076  
G01 X-1.2361 Y1.4813  
G01 X-1.2180 Y1.4633  
G01 X-1.2180 Y1.4367  
G01 X-1.2280 Y1.4267  
G01 X-1.2280 Y1.2175  
G01 X-1.2252 Y1.2133  
G01 X-1.2231 Y1.2082  
G01 X-1.2220 Y1.2028  
G01 X-1.2220 Y1.1972  
G01 X-1.2231 Y1.1918  
G01 X-1.2252 Y1.1867  
G01 X-1.2283 Y1.1822  
G00 Z0.0500  
G00 X-1.6794 Y1.2332  
G01 Z-0.0040 F10    
G01 X-1.5424 Y0.9820  F20    
G01 X-1.5367 Y0.9820  
G01 X-1.5180 Y0.9633  
G01 X-1.5180 Y0.9367  
G01 X-1.5367 Y0.9180  
G01 X-1.5633 Y0.9180  
G01 X-1.5820 Y0.9367  
G01 X-1.5820 Y0.9627  
G01 X-1.7131 Y1.2030  
G01 X-1.9159 Y1.2030  
G01 X-1.9530 Y1.1659  
G01 X-1.9530 Y0.8841  
G01 X-1.9472 Y0.8783  
G01 X-1.8320 Y0.9551  
G01 X-1.8320 Y0.9633  
G01 X-1.8133 Y0.9820  
G01 X-1.7867 Y0.9820  
G01 X-1.7680 Y0.9633  
G01 X-1.7680 Y0.9367  
G01 X-1.7867 Y0.9180  
G01 X-1.8083 Y0.9180  
G01 X-1.9360 Y0.8329  
G01 X-1.9365 Y0.8324  
G01 X-1.9379 Y0.8316  
G01 X-2.1355 Y0.6833  
G01 X-2.1365 Y0.6824  
G01 X-2.1379 Y0.6816  
G01 X-2.1391 Y0.6807  
G01 X-2.1404 Y0.6802  
G01 X-2.1415 Y0.6795  
G01 X-2.1430 Y0.6791  
G01 X-2.1445 Y0.6785  
G01 X-2.1458 Y0.6783  
G01 X-2.1471 Y0.6780  
G01 X-2.1487 Y0.6780  
G01 X-2.1502 Y0.6778  
G01 X-2.1516 Y0.6780  
G01 X-2.2978 Y0.6780  
G01 X-2.2984 Y0.6779  
G01 X-2.3007 Y0.6780  
G01 X-2.3029 Y0.6780  
G01 X-2.3035 Y0.6782  
G01 X-2.3042 Y0.6782  
G01 X-2.3063 Y0.6789  
G01 X-2.3085 Y0.6795  
G01 X-2.3091 Y0.6798  
G01 X-2.4335 Y0.7213  
G01 X-2.4367 Y0.7180  
G01 X-2.4633 Y0.7180  
G01 X-2.4820 Y0.7367  
G01 X-2.4820 Y0.7633  
G01 X-2.4633 Y0.7820  
G01 X-2.4367 Y0.7820  
G01 X-2.4180 Y0.7633  
G01 X-2.4180 Y0.7625  
G01 X-2.2964 Y0.7220  
G01 X-2.1573 Y0.7220  
G01 X-1.9835 Y0.8524  
G01 X-1.9926 Y0.8615  
G01 X-1.9955 Y0.8665  
G01 X-1.9970 Y0.8721  
G01 X-1.9970 Y1.1779  
G01 X-1.9955 Y1.1835  
G01 X-1.9926 Y1.1885  
G01 X-1.9885 Y1.1926  
G01 X-1.9385 Y1.2426  
G01 X-1.9335 Y1.2455  
G01 X-1.9279 Y1.2470  
G01 X-1.7026 Y1.2470  
G01 X-1.7024 Y1.2471  
G01 X-1.6997 Y1.2470  
G01 X-1.6971 Y1.2470  
G01 X-1.6968 Y1.2469  
G01 X-1.6966 Y1.2469  
G01 X-1.6940 Y1.2462  
G01 X-1.6915 Y1.2455  
G01 X-1.6913 Y1.2454  
G01 X-1.6910 Y1.2453  
G01 X-1.6888 Y1.2439  
G01 X-1.6865 Y1.2426  
G01 X-1.6863 Y1.2424  
G01 X-1.6861 Y1.2423  
G01 X-1.6843 Y1.2404  
G01 X-1.6824 Y1.2385  
G01 X-1.6823 Y1.2383  
G01 X-1.6821 Y1.2381  
G01 X-1.6808 Y1.2358  
G01 X-1.6795 Y1.2335  
G01 X-1.6794 Y1.2332  
G00 Z0.0500  
G00 X-1.7180 Y1.4367  
G01 Z-0.0040 F10    
G01 X-1.7367 Y1.4180  F20    
G01 X-1.7509 Y1.4180  
G01 X-1.8115 Y1.3574  
G01 X-1.8165 Y1.3545  
G01 X-1.8221 Y1.3530  
G01 X-2.1132 Y1.3530  
G01 X-2.2546 Y1.1410  
G01 X-2.2780 Y1.0473  
G01 X-2.2780 Y1.0471  
G01 X-2.2787 Y1.0445  
G01 X-2.2794 Y1.0419  
G01 X-2.2795 Y1.0417  
G01 X-2.2795 Y1.0415  
G01 X-2.2809 Y1.0392  
G01 X-2.2822 Y1.0368  
G01 X-2.2823 Y1.0367  
G01 X-2.2824 Y1.0365  
G01 X-2.2843 Y1.0346  
G01 X-2.2862 Y1.0326  
G01 X-2.2864 Y1.0325  
G01 X-2.3180 Y1.0009  
G01 X-2.3180 Y0.9867  
G01 X-2.3367 Y0.9680  
G01 X-2.3633 Y0.9680  
G01 X-2.3820 Y0.9867  
G01 X-2.3820 Y1.0133  
G01 X-2.3633 Y1.0320  
G01 X-2.3491 Y1.0320  
G01 X-2.3199 Y1.0612  
G01 X-2.2968 Y1.1534  
G01 X-2.2968 Y1.1543  
G01 X-2.2961 Y1.1562  
G01 X-2.2956 Y1.1581  
G01 X-2.2952 Y1.1589  
G01 X-2.2949 Y1.1598  
G01 X-2.2938 Y1.1615  
G01 X-2.2928 Y1.1632  
G01 X-2.2922 Y1.1639  
G01 X-2.1437 Y1.3866  
G01 X-2.1426 Y1.3885  
G01 X-2.1421 Y1.3890  
G01 X-2.1417 Y1.3896  
G01 X-2.1401 Y1.3911  
G01 X-2.1385 Y1.3926  
G01 X-2.1379 Y1.3930  
G01 X-2.1373 Y1.3934  
G01 X-2.1354 Y1.3944  
G01 X-2.1335 Y1.3955  
G01 X-2.1328 Y1.3957  
G01 X-2.1322 Y1.3960  
G01 X-2.1300 Y1.3964  
G01 X-2.1279 Y1.3970  
G01 X-2.1272 Y1.3970  
G01 X-2.1265 Y1.3971  
G01 X-2.1243 Y1.3970  
G01 X-1.8341 Y1.3970  
G01 X-1.7820 Y1.4491  
G01 X-1.7820 Y1.4633  
G01 X-1.7720 Y1.4733  
G01 X-1.7720 Y1.6007  
G01 X-1.7749 Y1.6036  
G01 X-1.7784 Y1.6088  
G01 X-1.7808 Y1.6147  
G01 X-1.7820 Y1.6208  
G01 X-1.7820 Y1.6792  
G01 X-1.7808 Y1.6853  
G01 X-1.7784 Y1.6912  
G01 X-1.7749 Y1.6964  
G01 X-1.7704 Y1.7009  
G01 X-1.7652 Y1.7044  
G01 X-1.7593 Y1.7068  
G01 X-1.7532 Y1.7080  
G01 X-1.7468 Y1.7080  
G01 X-1.7407 Y1.7068  
G01 X-1.7348 Y1.7044  
G01 X-1.7296 Y1.7009  
G01 X-1.7251 Y1.6964  
G01 X-1.7216 Y1.6912  
G01 X-1.7192 Y1.6853  
G01 X-1.7180 Y1.6792  
G01 X-1.7180 Y1.6208  
G01 X-1.7192 Y1.6147  
G01 X-1.7216 Y1.6088  
G01 X-1.7251 Y1.6036  
G01 X-1.7280 Y1.6007  
G01 X-1.7280 Y1.4733  
G01 X-1.7180 Y1.4633  
G01 X-1.7180 Y1.4367  
G00 Z0.0500  
G00 X-1.5820 Y1.4367  
G01 Z-0.0040 F10    
G01 X-1.5820 Y1.4633  F20    
G01 X-1.5720 Y1.4733  
G01 X-1.5720 Y1.6007  
G01 X-1.5749 Y1.6036  
G01 X-1.5784 Y1.6088  
G01 X-1.5808 Y1.6147  
G01 X-1.5820 Y1.6208  
G01 X-1.5820 Y1.6792  
G01 X-1.5808 Y1.6853  
G01 X-1.5784 Y1.6912  
G01 X-1.5749 Y1.6964  
G01 X-1.5704 Y1.7009  
G01 X-1.5652 Y1.7044  
G01 X-1.5593 Y1.7068  
G01 X-1.5532 Y1.7080  
G01 X-1.5468 Y1.7080  
G01 X-1.5407 Y1.7068  
G01 X-1.5348 Y1.7044  
G01 X-1.5296 Y1.7009  
G01 X-1.5251 Y1.6964  
G01 X-1.5216 Y1.6912  
G01 X-1.5192 Y1.6853  
G01 X-1.5180 Y1.6792  
G01 X-1.5180 Y1.6208  
G01 X-1.5192 Y1.6147  
G01 X-1.5216 Y1.6088  
G01 X-1.5251 Y1.6036  
G01 X-1.5280 Y1.6007  
G01 X-1.5280 Y1.4733  
G01 X-1.5180 Y1.4633  
G01 X-1.5180 Y1.4367  
G01 X-1.5367 Y1.4180  
G01 X-1.5633 Y1.4180  
G01 X-1.5820 Y1.4367  
G00 Z0.0500  
G00 X-1.6251 Y1.6036  
G01 Z-0.0040 F10    
G01 X-1.6296 Y1.5991  F20    
G01 X-1.6348 Y1.5956  
G01 X-1.6407 Y1.5932  
G01 X-1.6468 Y1.5920  
G01 X-1.6532 Y1.5920  
G01 X-1.6593 Y1.5932  
G01 X-1.6652 Y1.5956  
G01 X-1.6704 Y1.5991  
G01 X-1.6749 Y1.6036  
G01 X-1.6784 Y1.6088  
G01 X-1.6808 Y1.6147  
G01 X-1.6820 Y1.6208  
G01 X-1.6820 Y1.6792  
G01 X-1.6808 Y1.6853  
G01 X-1.6784 Y1.6912  
G01 X-1.6749 Y1.6964  
G01 X-1.6704 Y1.7009  
G01 X-1.6652 Y1.7044  
G01 X-1.6593 Y1.7068  
G01 X-1.6532 Y1.7080  
G01 X-1.6468 Y1.7080  
G01 X-1.6407 Y1.7068  
G01 X-1.6348 Y1.7044  
G01 X-1.6296 Y1.7009  
G01 X-1.6251 Y1.6964  
G01 X-1.6216 Y1.6912  
G01 X-1.6192 Y1.6853  
G01 X-1.6180 Y1.6792  
G01 X-1.6180 Y1.6208  
G01 X-1.6192 Y1.6147  
G01 X-1.6216 Y1.6088  
G01 X-1.6251 Y1.6036  
G00 Z0.0500  
G00 X-1.8251 Y1.6036  
G01 Z-0.0040 F10    
G01 X-1.8280 Y1.6007  F20    
G01 X-1.8280 Y1.5766  
G01 X-1.8278 Y1.5753  
G01 X-1.8280 Y1.5737  
G01 X-1.8280 Y1.5721  
G01 X-1.8283 Y1.5708  
G01 X-1.8285 Y1.5695  
G01 X-1.8291 Y1.5680  
G01 X-1.8295 Y1.5665  
G01 X-1.8302 Y1.5654  
G01 X-1.8701 Y1.4654  
G01 X-1.8680 Y1.4633  
G01 X-1.8680 Y1.4367  
G01 X-1.8867 Y1.4180  
G01 X-1.9133 Y1.4180  
G01 X-1.9320 Y1.4367  
G01 X-1.9320 Y1.4633  
G01 X-1.9133 Y1.4820  
G01 X-1.9109 Y1.4820  
G01 X-1.8720 Y1.5792  
G01 X-1.8720 Y1.6007  
G01 X-1.8749 Y1.6036  
G01 X-1.8784 Y1.6088  
G01 X-1.8808 Y1.6147  
G01 X-1.8820 Y1.6208  
G01 X-1.8820 Y1.6792  
G01 X-1.8808 Y1.6853  
G01 X-1.8784 Y1.6912  
G01 X-1.8749 Y1.6964  
G01 X-1.8704 Y1.7009  
G01 X-1.8652 Y1.7044  
G01 X-1.8593 Y1.7068  
G01 X-1.8532 Y1.7080  
G01 X-1.8468 Y1.7080  
G01 X-1.8407 Y1.7068  
G01 X-1.8348 Y1.7044  
G01 X-1.8296 Y1.7009  
G01 X-1.8251 Y1.6964  
G01 X-1.8216 Y1.6912  
G01 X-1.8192 Y1.6853  
G01 X-1.8180 Y1.6792  
G01 X-1.8180 Y1.6208  
G01 X-1.8192 Y1.6147  
G01 X-1.8216 Y1.6088  
G01 X-1.8251 Y1.6036  
G00 Z0.0500  
G00 X-1.9251 Y1.6036  
G01 Z-0.0040 F10    
G01 X-1.9296 Y1.5991  F20    
G01 X-1.9348 Y1.5956  
G01 X-1.9407 Y1.5932  
G01 X-1.9468 Y1.5920  
G01 X-1.9532 Y1.5920  
G01 X-1.9543 Y1.5922  
G01 X-2.0176 Y1.4657  
G01 X-2.0160 Y1.4641  
G01 X-2.0160 Y1.4359  
G01 X-2.0359 Y1.4160  
G01 X-2.0641 Y1.4160  
G01 X-2.0840 Y1.4359  
G01 X-2.0840 Y1.4529  
G01 X-2.1676 Y1.5365  
G01 X-2.1705 Y1.5415  
G01 X-2.1720 Y1.5471  
G01 X-2.1720 Y1.6007  
G01 X-2.1749 Y1.6036  
G01 X-2.1784 Y1.6088  
G01 X-2.1808 Y1.6147  
G01 X-2.1820 Y1.6208  
G01 X-2.1820 Y1.6792  
G01 X-2.1808 Y1.6853  
G01 X-2.1784 Y1.6912  
G01 X-2.1749 Y1.6964  
G01 X-2.1704 Y1.7009  
G01 X-2.1652 Y1.7044  
G01 X-2.1593 Y1.7068  
G01 X-2.1532 Y1.7080  
G01 X-2.1468 Y1.7080  
G01 X-2.1407 Y1.7068  
G01 X-2.1348 Y1.7044  
G01 X-2.1296 Y1.7009  
G01 X-2.1251 Y1.6964  
G01 X-2.1216 Y1.6912  
G01 X-2.1192 Y1.6853  
G01 X-2.1180 Y1.6792  
G01 X-2.1180 Y1.6208  
G01 X-2.1192 Y1.6147  
G01 X-2.1216 Y1.6088  
G01 X-2.1251 Y1.6036  
G01 X-2.1280 Y1.6007  
G01 X-2.1280 Y1.5591  
G01 X-2.0560 Y1.4871  
G01 X-1.9820 Y1.6352  
G01 X-1.9820 Y1.6792  
G01 X-1.9808 Y1.6853  
G01 X-1.9784 Y1.6912  
G01 X-1.9749 Y1.6964  
G01 X-1.9704 Y1.7009  
G01 X-1.9652 Y1.7044  
G01 X-1.9593 Y1.7068  
G01 X-1.9532 Y1.7080  
G01 X-1.9468 Y1.7080  
G01 X-1.9407 Y1.7068  
G01 X-1.9348 Y1.7044  
G01 X-1.9296 Y1.7009  
G01 X-1.9251 Y1.6964  
G01 X-1.9216 Y1.6912  
G01 X-1.9192 Y1.6853  
G01 X-1.9180 Y1.6792  
G01 X-1.9180 Y1.6208  
G01 X-1.9192 Y1.6147  
G01 X-1.9216 Y1.6088  
G01 X-1.9251 Y1.6036  
G00 Z0.0500  
G00 X-2.0251 Y1.6036  
G01 Z-0.0040 F10    
G01 X-2.0296 Y1.5991  F20    
G01 X-2.0348 Y1.5956  
G01 X-2.0407 Y1.5932  
G01 X-2.0468 Y1.5920  
G01 X-2.0532 Y1.5920  
G01 X-2.0593 Y1.5932  
G01 X-2.0652 Y1.5956  
G01 X-2.0704 Y1.5991  
G01 X-2.0749 Y1.6036  
G01 X-2.0784 Y1.6088  
G01 X-2.0808 Y1.6147  
G01 X-2.0820 Y1.6208  
G01 X-2.0820 Y1.6792  
G01 X-2.0808 Y1.6853  
G01 X-2.0784 Y1.6912  
G01 X-2.0749 Y1.6964  
G01 X-2.0720 Y1.6993  
G01 X-2.0720 Y1.7280  
G01 X-2.2909 Y1.7280  
G01 X-2.3680 Y1.6509  
G01 X-2.3680 Y1.6367  
G01 X-2.3780 Y1.6267  
G01 X-2.3780 Y1.5017  
G01 X-2.3778 Y1.5004  
G01 X-2.3780 Y1.4988  
G01 X-2.3780 Y1.4971  
G01 X-2.3783 Y1.4959  
G01 X-2.4030 Y1.2738  
G01 X-2.4030 Y1.2721  
G01 X-2.4033 Y1.2709  
G01 X-2.4035 Y1.2697  
G01 X-2.4041 Y1.2681  
G01 X-2.4045 Y1.2665  
G01 X-2.4051 Y1.2654  
G01 X-2.4056 Y1.2643  
G01 X-2.4066 Y1.2629  
G01 X-2.4074 Y1.2615  
G01 X-2.4083 Y1.2606  
G01 X-2.4090 Y1.2596  
G01 X-2.4103 Y1.2586  
G01 X-2.4115 Y1.2574  
G01 X-2.4126 Y1.2568  
G01 X-2.4135 Y1.2560  
G01 X-2.4151 Y1.2553  
G01 X-2.4165 Y1.2545  
G01 X-2.4177 Y1.2542  
G01 X-2.4188 Y1.2537  
G01 X-2.4205 Y1.2534  
G01 X-2.4221 Y1.2530  
G01 X-2.4233 Y1.2530  
G01 X-2.4246 Y1.2528  
G01 X-2.4262 Y1.2530  
G01 X-2.8203 Y1.2530  
G01 X-2.8203 Y1.2501  
G01 X-2.8212 Y1.2479  
G01 X-2.8229 Y1.2462  
G01 X-2.8251 Y1.2453  
G01 X-2.8749 Y1.2453  
G01 X-2.8771 Y1.2462  
G01 X-2.8788 Y1.2479  
G01 X-2.8797 Y1.2501  
G01 X-2.8797 Y1.2999  
G01 X-2.8788 Y1.3021  
G01 X-2.8771 Y1.3038  
G01 X-2.8749 Y1.3047  
G01 X-2.8251 Y1.3047  
G01 X-2.8229 Y1.3038  
G01 X-2.8212 Y1.3021  
G01 X-2.8203 Y1.2999  
G01 X-2.8203 Y1.2970  
G01 X-2.6470 Y1.2970  
G01 X-2.6470 Y1.6689  
G01 X-2.7105 Y1.7747  
G01 X-2.8945 Y1.7287  
G01 X-2.8971 Y1.7280  
G01 X-2.8973 Y1.7280  
G01 X-2.8975 Y1.7280  
G01 X-2.9002 Y1.7280  
G01 X-3.1591 Y1.7280  
G01 X-3.1715 Y1.6909  
G01 X-3.1692 Y1.6853  
G01 X-3.1680 Y1.6792  
G01 X-3.1680 Y1.6208  
G01 X-3.1692 Y1.6147  
G01 X-3.1716 Y1.6088  
G01 X-3.1751 Y1.6036  
G01 X-3.1796 Y1.5991  
G01 X-3.1848 Y1.5956  
G01 X-3.1907 Y1.5932  
G01 X-3.1968 Y1.5920  
G01 X-3.2032 Y1.5920  
G01 X-3.2093 Y1.5932  
G01 X-3.2152 Y1.5956  
G01 X-3.2204 Y1.5991  
G01 X-3.2249 Y1.6036  
G01 X-3.2284 Y1.6088  
G01 X-3.2308 Y1.6147  
G01 X-3.2320 Y1.6208  
G01 X-3.2320 Y1.6792  
G01 X-3.2308 Y1.6853  
G01 X-3.2284 Y1.6912  
G01 X-3.2249 Y1.6964  
G01 X-3.2204 Y1.7009  
G01 X-3.2152 Y1.7044  
G01 X-3.2131 Y1.7052  
G01 X-3.1961 Y1.7563  
G01 X-3.1955 Y1.7585  
G01 X-3.1952 Y1.7591  
G01 X-3.1950 Y1.7597  
G01 X-3.1937 Y1.7616  
G01 X-3.1926 Y1.7635  
G01 X-3.1921 Y1.7640  
G01 X-3.1918 Y1.7645  
G01 X-3.1901 Y1.7660  
G01 X-3.1885 Y1.7676  
G01 X-3.1879 Y1.7679  
G01 X-3.1874 Y1.7684  
G01 X-3.1854 Y1.7694  
G01 X-3.1835 Y1.7705  
G01 X-3.1828 Y1.7707  
G01 X-3.1822 Y1.7710  
G01 X-3.1801 Y1.7714  
G01 X-3.1779 Y1.7720  
G01 X-3.1772 Y1.7720  
G01 X-3.1766 Y1.7721  
G01 X-3.1743 Y1.7720  
G01 X-2.9027 Y1.7720  
G01 X-2.7220 Y1.8172  
G01 X-2.7220 Y1.8767  
G01 X-2.7320 Y1.8867  
G01 X-2.7320 Y1.9133  
G01 X-2.7133 Y1.9320  
G01 X-2.6867 Y1.9320  
G01 X-2.6680 Y1.9133  
G01 X-2.6680 Y1.8867  
G01 X-2.6780 Y1.8767  
G01 X-2.6780 Y1.8061  
G01 X-2.6075 Y1.6886  
G01 X-2.6074 Y1.6885  
G01 X-2.6060 Y1.6862  
G01 X-2.6046 Y1.6838  
G01 X-2.6046 Y1.6837  
G01 X-2.6045 Y1.6835  
G01 X-2.6038 Y1.6809  
G01 X-2.6031 Y1.6783  
G01 X-2.6030 Y1.6781  
G01 X-2.6030 Y1.6779  
G01 X-2.6030 Y1.6752  
G01 X-2.6030 Y1.6725  
G01 X-2.6030 Y1.6723  
G01 X-2.6030 Y1.2970  
G01 X-2.4447 Y1.2970  
G01 X-2.4220 Y1.5012  
G01 X-2.4220 Y1.6267  
G01 X-2.4320 Y1.6367  
G01 X-2.4320 Y1.6633  
G01 X-2.4133 Y1.6820  
G01 X-2.3991 Y1.6820  
G01 X-2.3135 Y1.7676  
G01 X-2.3085 Y1.7705  
G01 X-2.3029 Y1.7720  
G01 X-2.0536 Y1.7720  
G01 X-1.9841 Y1.7952  
G01 X-1.9835 Y1.7955  
G01 X-1.9813 Y1.7961  
G01 X-1.9792 Y1.7968  
G01 X-1.9785 Y1.7968  
G01 X-1.9779 Y1.7970  
G01 X-1.9757 Y1.7970  
G01 X-1.9734 Y1.7971  
G01 X-1.9728 Y1.7970  
G01 X-1.1159 Y1.7970  
G01 X-1.0460 Y2.0065  
G01 X-1.0454 Y2.0088  
G01 X-1.0451 Y2.0092  
G01 X-1.0450 Y2.0097  
G01 X-1.0436 Y2.0117  
G01 X-0.8940 Y2.2612  
G01 X-0.8926 Y2.2635  
G01 X-0.8925 Y2.2636  
G01 X-0.8924 Y2.2638  
G01 X-0.8904 Y2.2657  
G01 X-0.8885 Y2.2676  
G01 X-0.8883 Y2.2677  
G01 X-0.8882 Y2.2678  
G01 X-0.8858 Y2.2691  
G01 X-0.8835 Y2.2705  
G01 X-0.8833 Y2.2705  
G01 X-0.8831 Y2.2706  
G01 X-0.8805 Y2.2713  
G01 X-0.8779 Y2.2720  
G01 X-0.8777 Y2.2720  
G01 X-0.8775 Y2.2720  
G01 X-0.8748 Y2.2720  
G01 X-0.8310 Y2.2720  
G01 X-0.8155 Y2.2875  
G01 X-0.7845 Y2.2875  
G01 X-0.7690 Y2.2720  
G01 X-0.5388 Y2.2720  
G01 X-0.5178 Y2.2930  
G01 X-0.4822 Y2.2930  
G01 X-0.4612 Y2.2720  
G01 X-0.4388 Y2.2720  
G01 X-0.4178 Y2.2930  
G01 X-0.3822 Y2.2930  
G01 X-0.3570 Y2.2678  
G01 X-0.3570 Y2.2322  
G01 X-0.3822 Y2.2070  
G01 X-0.4178 Y2.2070  
G01 X-0.4388 Y2.2280  
G01 X-0.4612 Y2.2280  
G01 X-0.4822 Y2.2070  
G01 X-0.5178 Y2.2070  
G01 X-0.5388 Y2.2280  
G01 X-0.7690 Y2.2280  
G01 X-0.7845 Y2.2125  
G01 X-0.8155 Y2.2125  
G01 X-0.8310 Y2.2280  
G01 X-0.8625 Y2.2280  
G01 X-1.0049 Y1.9908  
G01 X-1.0789 Y1.7687  
G01 X-1.0795 Y1.7665  
G01 X-1.0798 Y1.7659  
G01 X-1.0800 Y1.7653  
G01 X-1.0813 Y1.7634  
G01 X-1.0824 Y1.7615  
G01 X-1.0829 Y1.7610  
G01 X-1.0832 Y1.7605  
G01 X-1.0849 Y1.7590  
G01 X-1.0865 Y1.7574  
G01 X-1.0871 Y1.7571  
G01 X-1.0876 Y1.7566  
G01 X-1.0896 Y1.7556  
G01 X-1.0915 Y1.7545  
G01 X-1.0922 Y1.7543  
G01 X-1.0928 Y1.7540  
G01 X-1.0949 Y1.7536  
G01 X-1.0971 Y1.7530  
G01 X-1.0978 Y1.7530  
G01 X-1.0984 Y1.7529  
G01 X-1.1007 Y1.7530  
G01 X-1.9714 Y1.7530  
G01 X-2.0280 Y1.7341  
G01 X-2.0280 Y1.6993  
G01 X-2.0251 Y1.6964  
G01 X-2.0216 Y1.6912  
G01 X-2.0192 Y1.6853  
G01 X-2.0180 Y1.6792  
G01 X-2.0180 Y1.6208  
G01 X-2.0192 Y1.6147  
G01 X-2.0216 Y1.6088  
G01 X-2.0251 Y1.6036  
G00 Z0.0500  
G00 X-2.2251 Y1.6036  
G01 Z-0.0040 F10    
G01 X-2.2280 Y1.6007  F20    
G01 X-2.2280 Y1.5511  
G01 X-2.2278 Y1.5492  
G01 X-2.2280 Y1.5482  
G01 X-2.2280 Y1.5471  
G01 X-2.2285 Y1.5453  
G01 X-2.2533 Y1.3965  
G01 X-2.2537 Y1.3937  
G01 X-2.2538 Y1.3935  
G01 X-2.2549 Y1.3910  
G01 X-2.3542 Y1.1676  
G01 X-2.3545 Y1.1665  
G01 X-2.3554 Y1.1650  
G01 X-2.3561 Y1.1634  
G01 X-2.3568 Y1.1625  
G01 X-2.3574 Y1.1615  
G01 X-2.3586 Y1.1603  
G01 X-2.3597 Y1.1589  
G01 X-2.3607 Y1.1582  
G01 X-2.3615 Y1.1574  
G01 X-2.3630 Y1.1565  
G01 X-2.3644 Y1.1555  
G01 X-2.3655 Y1.1551  
G01 X-2.3665 Y1.1545  
G01 X-2.3682 Y1.1540  
G01 X-2.3698 Y1.1534  
G01 X-2.3710 Y1.1533  
G01 X-2.3721 Y1.1530  
G01 X-2.3738 Y1.1530  
G01 X-2.3756 Y1.1528  
G01 X-2.3767 Y1.1530  
G01 X-2.9279 Y1.1530  
G01 X-2.9335 Y1.1545  
G01 X-2.9385 Y1.1574  
G01 X-2.9635 Y1.1824  
G01 X-2.9676 Y1.1865  
G01 X-2.9705 Y1.1915  
G01 X-2.9720 Y1.1971  
G01 X-2.9720 Y1.3267  
G01 X-2.9820 Y1.3367  
G01 X-2.9820 Y1.3633  
G01 X-2.9633 Y1.3820  
G01 X-2.9491 Y1.3820  
G01 X-2.8320 Y1.4991  
G01 X-2.8320 Y1.5133  
G01 X-2.8133 Y1.5320  
G01 X-2.7991 Y1.5320  
G01 X-2.7320 Y1.5991  
G01 X-2.7320 Y1.6133  
G01 X-2.7133 Y1.6320  
G01 X-2.6867 Y1.6320  
G01 X-2.6680 Y1.6133  
G01 X-2.6680 Y1.5867  
G01 X-2.6867 Y1.5680  
G01 X-2.7009 Y1.5680  
G01 X-2.7680 Y1.5009  
G01 X-2.7680 Y1.4867  
G01 X-2.7867 Y1.4680  
G01 X-2.8009 Y1.4680  
G01 X-2.9180 Y1.3509  
G01 X-2.9180 Y1.3367  
G01 X-2.9280 Y1.3267  
G01 X-2.9280 Y1.2091  
G01 X-2.9159 Y1.1970  
G01 X-2.3893 Y1.1970  
G01 X-2.2962 Y1.4064  
G01 X-2.2720 Y1.5518  
G01 X-2.2720 Y1.6007  
G01 X-2.2749 Y1.6036  
G01 X-2.2784 Y1.6088  
G01 X-2.2808 Y1.6147  
G01 X-2.2820 Y1.6208  
G01 X-2.2820 Y1.6792  
G01 X-2.2808 Y1.6853  
G01 X-2.2784 Y1.6912  
G01 X-2.2749 Y1.6964  
G01 X-2.2704 Y1.7009  
G01 X-2.2652 Y1.7044  
G01 X-2.2593 Y1.7068  
G01 X-2.2532 Y1.7080  
G01 X-2.2468 Y1.7080  
G01 X-2.2407 Y1.7068  
G01 X-2.2348 Y1.7044  
G01 X-2.2296 Y1.7009  
G01 X-2.2251 Y1.6964  
G01 X-2.2216 Y1.6912  
G01 X-2.2192 Y1.6853  
G01 X-2.2180 Y1.6792  
G01 X-2.2180 Y1.6208  
G01 X-2.2192 Y1.6147  
G01 X-2.2216 Y1.6088  
G01 X-2.2251 Y1.6036  
G00 Z0.0500  
G00 X-2.4782 Y1.6035  
G01 Z-0.0040 F10    
G01 X-2.4780 Y1.6029  F20    
G01 X-2.4780 Y1.6007  
G01 X-2.4779 Y1.5984  
G01 X-2.4780 Y1.5978  
G01 X-2.4780 Y1.5233  
G01 X-2.4680 Y1.5133  
G01 X-2.4680 Y1.4867  
G01 X-2.4780 Y1.4767  
G01 X-2.4780 Y1.4233  
G01 X-2.4680 Y1.4133  
G01 X-2.4680 Y1.3867  
G01 X-2.4867 Y1.3680  
G01 X-2.5133 Y1.3680  
G01 X-2.5320 Y1.3867  
G01 X-2.5320 Y1.4133  
G01 X-2.5220 Y1.4233  
G01 X-2.5220 Y1.4767  
G01 X-2.5320 Y1.4867  
G01 X-2.5320 Y1.5133  
G01 X-2.5220 Y1.5233  
G01 X-2.5220 Y1.5964  
G01 X-2.6199 Y1.8902  
G01 X-2.6618 Y1.9530  
G01 X-2.7198 Y1.9530  
G01 X-2.7586 Y1.9336  
G01 X-2.8043 Y1.8422  
G01 X-2.8045 Y1.8415  
G01 X-2.8056 Y1.8396  
G01 X-2.8066 Y1.8376  
G01 X-2.8071 Y1.8371  
G01 X-2.8074 Y1.8365  
G01 X-2.8090 Y1.8349  
G01 X-2.8105 Y1.8332  
G01 X-2.8110 Y1.8329  
G01 X-2.8115 Y1.8324  
G01 X-2.8134 Y1.8313  
G01 X-2.8153 Y1.8300  
G01 X-2.8159 Y1.8298  
G01 X-2.8165 Y1.8295  
G01 X-2.8187 Y1.8289  
G01 X-2.8208 Y1.8282  
G01 X-2.8215 Y1.8282  
G01 X-2.8221 Y1.8280  
G01 X-2.8243 Y1.8280  
G01 X-2.8266 Y1.8279  
G01 X-2.8272 Y1.8280  
G01 X-3.3743 Y1.8280  
G01 X-3.3766 Y1.8279  
G01 X-3.3772 Y1.8280  
G01 X-3.3779 Y1.8280  
G01 X-3.3801 Y1.8286  
G01 X-3.3822 Y1.8290  
G01 X-3.3828 Y1.8293  
G01 X-3.3835 Y1.8295  
G01 X-3.3854 Y1.8306  
G01 X-3.3874 Y1.8316  
G01 X-3.3879 Y1.8321  
G01 X-3.3885 Y1.8324  
G01 X-3.3901 Y1.8340  
G01 X-3.3918 Y1.8355  
G01 X-3.3921 Y1.8360  
G01 X-3.3926 Y1.8365  
G01 X-3.3937 Y1.8384  
G01 X-3.3950 Y1.8403  
G01 X-3.3952 Y1.8409  
G01 X-3.3955 Y1.8415  
G01 X-3.3961 Y1.8437  
G01 X-3.4131 Y1.8948  
G01 X-3.4152 Y1.8956  
G01 X-3.4204 Y1.8991  
G01 X-3.4249 Y1.9036  
G01 X-3.4284 Y1.9088  
G01 X-3.4308 Y1.9147  
G01 X-3.4320 Y1.9208  
G01 X-3.4320 Y1.9792  
G01 X-3.4308 Y1.9853  
G01 X-3.4284 Y1.9912  
G01 X-3.4249 Y1.9964  
G01 X-3.4220 Y1.9993  
G01 X-3.4220 Y2.3279  
G01 X-3.4205 Y2.3335  
G01 X-3.4176 Y2.3385  
G01 X-3.4135 Y2.3426  
G01 X-3.4085 Y2.3455  
G01 X-3.4029 Y2.3470  
G01 X-2.6311 Y2.3470  
G01 X-2.5320 Y2.4065  
G01 X-2.5320 Y2.4133  
G01 X-2.5133 Y2.4320  
G01 X-2.4867 Y2.4320  
G01 X-2.4767 Y2.4220  
G01 X-2.3483 Y2.4220  
G01 X-2.3383 Y2.4320  
G01 X-2.3117 Y2.4320  
G01 X-2.2930 Y2.4133  
G01 X-2.2930 Y2.3867  
G01 X-2.3117 Y2.3680  
G01 X-2.3383 Y2.3680  
G01 X-2.3483 Y2.3780  
G01 X-2.4767 Y2.3780  
G01 X-2.4867 Y2.3680  
G01 X-2.5106 Y2.3680  
G01 X-2.6114 Y2.3075  
G01 X-2.6115 Y2.3074  
G01 X-2.6138 Y2.3060  
G01 X-2.6162 Y2.3046  
G01 X-2.6163 Y2.3046  
G01 X-2.6165 Y2.3045  
G01 X-2.6191 Y2.3038  
G01 X-2.6217 Y2.3031  
G01 X-2.6219 Y2.3030  
G01 X-2.6221 Y2.3030  
G01 X-2.6248 Y2.3030  
G01 X-2.6275 Y2.3030  
G01 X-2.6277 Y2.3030  
G01 X-3.3780 Y2.3030  
G01 X-3.3780 Y1.9993  
G01 X-3.3751 Y1.9964  
G01 X-3.3716 Y1.9912  
G01 X-3.3692 Y1.9853  
G01 X-3.3680 Y1.9792  
G01 X-3.3680 Y1.9208  
G01 X-3.3692 Y1.9147  
G01 X-3.3715 Y1.9091  
G01 X-3.3591 Y1.8720  
G01 X-2.8386 Y1.8720  
G01 X-2.7954 Y1.9584  
G01 X-2.7950 Y1.9597  
G01 X-2.7941 Y1.9610  
G01 X-2.7934 Y1.9624  
G01 X-2.7925 Y1.9634  
G01 X-2.7918 Y1.9645  
G01 X-2.7906 Y1.9656  
G01 X-2.7895 Y1.9668  
G01 X-2.7884 Y1.9675  
G01 X-2.7874 Y1.9684  
G01 X-2.7860 Y1.9691  
G01 X-2.7847 Y1.9700  
G01 X-2.7834 Y1.9704  
G01 X-2.7354 Y1.9944  
G01 X-2.7335 Y1.9955  
G01 X-2.7328 Y1.9957  
G01 X-2.7322 Y1.9960  
G01 X-2.7301 Y1.9964  
G01 X-2.7279 Y1.9970  
G01 X-2.7272 Y1.9970  
G01 X-2.7266 Y1.9971  
G01 X-2.7243 Y1.9970  
G01 X-2.6507 Y1.9970  
G01 X-2.6485 Y1.9971  
G01 X-2.6478 Y1.9970  
G01 X-2.6471 Y1.9970  
G01 X-2.6450 Y1.9964  
G01 X-2.6428 Y1.9960  
G01 X-2.6422 Y1.9957  
G01 X-2.6415 Y1.9955  
G01 X-2.6396 Y1.9944  
G01 X-2.6377 Y1.9934  
G01 X-2.6371 Y1.9930  
G01 X-2.6365 Y1.9926  
G01 X-2.6349 Y1.9911  
G01 X-2.6333 Y1.9896  
G01 X-2.6329 Y1.9890  
G01 X-2.6324 Y1.9885  
G01 X-2.6313 Y1.9866  
G01 X-2.5833 Y1.9146  
G01 X-2.5817 Y1.9122  
G01 X-2.5801 Y1.9098  
G01 X-2.5791 Y1.9070  
G01 X-2.5782 Y1.9043  
G01 X-2.4798 Y1.6091  
G01 X-2.4795 Y1.6085  
G01 X-2.4789 Y1.6063  
G01 X-2.4782 Y1.6042  
G01 X-2.4782 Y1.6035  
G00 Z0.0500  
G00 X-2.4133 Y1.9180  
G01 Z-0.0040 F10    
G01 X-2.4320 Y1.9367  F20    
G01 X-2.4320 Y1.9633  
G01 X-2.4133 Y1.9820  
G01 X-2.3867 Y1.9820  
G01 X-2.3767 Y1.9720  
G01 X-2.2820 Y1.9720  
G01 X-2.2820 Y1.9792  
G01 X-2.2808 Y1.9853  
G01 X-2.2784 Y1.9912  
G01 X-2.2749 Y1.9964  
G01 X-2.2720 Y1.9993  
G01 X-2.2720 Y2.0235  
G01 X-2.2722 Y2.0249  
G01 X-2.2720 Y2.0264  
G01 X-2.2720 Y2.0279  
G01 X-2.2716 Y2.0292  
G01 X-2.2471 Y2.2253  
G01 X-2.2472 Y2.2258  
G01 X-2.2468 Y2.2282  
G01 X-2.2465 Y2.2306  
G01 X-2.2463 Y2.2310  
G01 X-2.2229 Y2.3716  
G01 X-2.2636 Y2.4530  
G01 X-2.6243 Y2.4530  
G01 X-2.6265 Y2.4529  
G01 X-2.6272 Y2.4530  
G01 X-2.6279 Y2.4530  
G01 X-2.6300 Y2.4536  
G01 X-2.6322 Y2.4540  
G01 X-2.6328 Y2.4543  
G01 X-2.6335 Y2.4545  
G01 X-2.6354 Y2.4556  
G01 X-2.6373 Y2.4566  
G01 X-2.6379 Y2.4570  
G01 X-2.6385 Y2.4574  
G01 X-2.6401 Y2.4589  
G01 X-2.6417 Y2.4604  
G01 X-2.6421 Y2.4610  
G01 X-2.6426 Y2.4615  
G01 X-2.6437 Y2.4634  
G01 X-2.7368 Y2.6030  
G01 X-2.8972 Y2.6030  
G01 X-3.5530 Y2.4330  
G01 X-3.5530 Y1.2672  
G01 X-3.3731 Y1.2222  
G01 X-3.3633 Y1.2320  
G01 X-3.3367 Y1.2320  
G01 X-3.3180 Y1.2133  
G01 X-3.3180 Y1.1867  
G01 X-3.3367 Y1.1680  
G01 X-3.3530 Y1.1680  
G01 X-3.3530 Y1.1341  
G01 X-3.3159 Y1.0970  
G01 X-2.8263 Y1.0970  
G01 X-2.8247 Y1.0972  
G01 X-2.8234 Y1.0970  
G01 X-2.8221 Y1.0970  
G01 X-2.8206 Y1.0966  
G01 X-2.8190 Y1.0964  
G01 X-2.8178 Y1.0958  
G01 X-2.8165 Y1.0955  
G01 X-2.8151 Y1.0947  
G01 X-2.6649 Y1.0303  
G01 X-2.6633 Y1.0320  
G01 X-2.6367 Y1.0320  
G01 X-2.6180 Y1.0133  
G01 X-2.6180 Y0.9867  
G01 X-2.6367 Y0.9680  
G01 X-2.6509 Y0.9680  
G01 X-2.6530 Y0.9659  
G01 X-2.6530 Y0.1719  
G01 X-2.6514 Y0.1688  
G01 X-2.6491 Y0.1615  
G01 X-2.6479 Y0.1539  
G01 X-2.6479 Y0.1461  
G01 X-2.6491 Y0.1385  
G01 X-2.6514 Y0.1312  
G01 X-2.6549 Y0.1243  
G01 X-2.6595 Y0.1181  
G01 X-2.6649 Y0.1126  
G01 X-2.6712 Y0.1081  
G01 X-2.6780 Y0.1046  
G01 X-2.6854 Y0.1022  
G01 X-2.6930 Y0.1010  
G01 X-2.7007 Y0.1010  
G01 X-2.7083 Y0.1022  
G01 X-2.7157 Y0.1046  
G01 X-2.7225 Y0.1081  
G01 X-2.7288 Y0.1126  
G01 X-2.7342 Y0.1181  
G01 X-2.7388 Y0.1243  
G01 X-2.7423 Y0.1312  
G01 X-2.7446 Y0.1385  
G01 X-2.7459 Y0.1461  
G01 X-2.7459 Y0.1539  
G01 X-2.7446 Y0.1615  
G01 X-2.7423 Y0.1688  
G01 X-2.7388 Y0.1757  
G01 X-2.7342 Y0.1819  
G01 X-2.7288 Y0.1874  
G01 X-2.7225 Y0.1919  
G01 X-2.7157 Y0.1954  
G01 X-2.7083 Y0.1978  
G01 X-2.7007 Y0.1990  
G01 X-2.6970 Y0.1990  
G01 X-2.6970 Y0.9779  
G01 X-2.6955 Y0.9835  
G01 X-2.6926 Y0.9885  
G01 X-2.6885 Y0.9926  
G01 X-2.8295 Y1.0530  
G01 X-3.3279 Y1.0530  
G01 X-3.3335 Y1.0545  
G01 X-3.3385 Y1.0574  
G01 X-3.3885 Y1.1074  
G01 X-3.3926 Y1.1115  
G01 X-3.3955 Y1.1165  
G01 X-3.3970 Y1.1221  
G01 X-3.3970 Y1.1828  
G01 X-3.5777 Y1.2280  
G01 X-3.5779 Y1.2280  
G01 X-3.5805 Y1.2287  
G01 X-3.5831 Y1.2294  
G01 X-3.5833 Y1.2295  
G01 X-3.5835 Y1.2295  
G01 X-3.5858 Y1.2309  
G01 X-3.5882 Y1.2322  
G01 X-3.5883 Y1.2323  
G01 X-3.5885 Y1.2324  
G01 X-3.5904 Y1.2343  
G01 X-3.5924 Y1.2362  
G01 X-3.5925 Y1.2364  
G01 X-3.5926 Y1.2365  
G01 X-3.5940 Y1.2388  
G01 X-3.5954 Y1.2412  
G01 X-3.5954 Y1.2413  
G01 X-3.5955 Y1.2415  
G01 X-3.5962 Y1.2441  
G01 X-3.5969 Y1.2467  
G01 X-3.5970 Y1.2469  
G01 X-3.5970 Y1.2471  
G01 X-3.5970 Y1.2498  
G01 X-3.5970 Y1.2525  
G01 X-3.5970 Y1.2527  
G01 X-3.5970 Y2.4472  
G01 X-3.5970 Y2.4501  
G01 X-3.5970 Y2.4529  
G01 X-3.5970 Y2.4531  
G01 X-3.5962 Y2.4558  
G01 X-3.5955 Y2.4585  
G01 X-3.5954 Y2.4587  
G01 X-3.5940 Y2.4611  
G01 X-3.5926 Y2.4635  
G01 X-3.5925 Y2.4637  
G01 X-3.5905 Y2.4656  
G01 X-3.5885 Y2.4676  
G01 X-3.5884 Y2.4677  
G01 X-3.5859 Y2.4691  
G01 X-3.5835 Y2.4705  
G01 X-3.5833 Y2.4706  
G01 X-3.5806 Y2.4713  
G01 X-3.5779 Y2.4720  
G01 X-2.9056 Y2.6463  
G01 X-2.9029 Y2.6470  
G01 X-2.9027 Y2.6470  
G01 X-2.8999 Y2.6470  
G01 X-2.7257 Y2.6470  
G01 X-2.7235 Y2.6471  
G01 X-2.7228 Y2.6470  
G01 X-2.7221 Y2.6470  
G01 X-2.7200 Y2.6464  
G01 X-2.7178 Y2.6460  
G01 X-2.7172 Y2.6457  
G01 X-2.7165 Y2.6455  
G01 X-2.7146 Y2.6444  
G01 X-2.7127 Y2.6434  
G01 X-2.7121 Y2.6430  
G01 X-2.7115 Y2.6426  
G01 X-2.7099 Y2.6411  
G01 X-2.7083 Y2.6396  
G01 X-2.7079 Y2.6390  
G01 X-2.7074 Y2.6385  
G01 X-2.7063 Y2.6366  
G01 X-2.6132 Y2.4970  
G01 X-2.2522 Y2.4970  
G01 X-2.2516 Y2.4971  
G01 X-2.2493 Y2.4970  
G01 X-2.2471 Y2.4970  
G01 X-2.2465 Y2.4968  
G01 X-2.2458 Y2.4968  
G01 X-2.2437 Y2.4961  
G01 X-2.2415 Y2.4955  
G01 X-2.2409 Y2.4952  
G01 X-2.2403 Y2.4950  
G01 X-2.2384 Y2.4937  
G01 X-2.2365 Y2.4926  
G01 X-2.2360 Y2.4921  
G01 X-2.2355 Y2.4918  
G01 X-2.2340 Y2.4901  
G01 X-2.2324 Y2.4885  
G01 X-2.2321 Y2.4879  
G01 X-2.2316 Y2.4874  
G01 X-2.2306 Y2.4854  
G01 X-2.2295 Y2.4835  
G01 X-2.2293 Y2.4828  
G01 X-2.1811 Y2.3864  
G01 X-2.1804 Y2.3854  
G01 X-2.1798 Y2.3838  
G01 X-2.1790 Y2.3822  
G01 X-2.1788 Y2.3811  
G01 X-2.1784 Y2.3800  
G01 X-2.1782 Y2.3783  
G01 X-2.1779 Y2.3766  
G01 X-2.1779 Y2.3754  
G01 X-2.1778 Y2.3742  
G01 X-2.1781 Y2.3725  
G01 X-2.1782 Y2.3708  
G01 X-2.1786 Y2.3697  
G01 X-2.2032 Y2.2218  
G01 X-2.2280 Y2.0236  
G01 X-2.2280 Y1.9993  
G01 X-2.2251 Y1.9964  
G01 X-2.2216 Y1.9912  
G01 X-2.2192 Y1.9853  
G01 X-2.2180 Y1.9792  
G01 X-2.2180 Y1.9208  
G01 X-2.2192 Y1.9147  
G01 X-2.2216 Y1.9088  
G01 X-2.2251 Y1.9036  
G01 X-2.2296 Y1.8991  
G01 X-2.2348 Y1.8956  
G01 X-2.2407 Y1.8932  
G01 X-2.2468 Y1.8920  
G01 X-2.2532 Y1.8920  
G01 X-2.2593 Y1.8932  
G01 X-2.2652 Y1.8956  
G01 X-2.2704 Y1.8991  
G01 X-2.2749 Y1.9036  
G01 X-2.2784 Y1.9088  
G01 X-2.2808 Y1.9147  
G01 X-2.2820 Y1.9208  
G01 X-2.2820 Y1.9280  
G01 X-2.3767 Y1.9280  
G01 X-2.3867 Y1.9180  
G01 X-2.4133 Y1.9180  
G00 Z0.0500  
G00 X-2.1820 Y1.9208  
G01 Z-0.0040 F10    
G01 X-2.1820 Y1.9792  F20    
G01 X-2.1808 Y1.9853  
G01 X-2.1784 Y1.9912  
G01 X-2.1749 Y1.9964  
G01 X-2.1704 Y2.0009  
G01 X-2.1662 Y2.0037  
G01 X-2.1470 Y2.1760  
G01 X-2.1470 Y2.1775  
G01 X-2.1467 Y2.1789  
G01 X-2.1465 Y2.1803  
G01 X-2.1460 Y2.1817  
G01 X-2.1456 Y2.1831  
G01 X-2.1450 Y2.1844  
G01 X-2.1444 Y2.1857  
G01 X-2.1436 Y2.1869  
G01 X-2.1428 Y2.1882  
G01 X-2.1418 Y2.1892  
G01 X-2.1410 Y2.1904  
G01 X-2.1398 Y2.1913  
G01 X-2.1388 Y2.1924  
G01 X-2.1376 Y2.1931  
G01 X-2.1365 Y2.1940  
G01 X-2.1351 Y2.1946  
G01 X-2.0340 Y2.2553  
G01 X-2.0340 Y2.2641  
G01 X-2.0141 Y2.2840  
G01 X-1.9859 Y2.2840  
G01 X-1.9660 Y2.2641  
G01 X-1.9660 Y2.2471  
G01 X-1.9365 Y2.2176  
G01 X-1.9324 Y2.2135  
G01 X-1.9295 Y2.2085  
G01 X-1.9280 Y2.2029  
G01 X-1.9280 Y1.9993  
G01 X-1.9251 Y1.9964  
G01 X-1.9216 Y1.9912  
G01 X-1.9192 Y1.9853  
G01 X-1.9180 Y1.9792  
G01 X-1.9180 Y1.9208  
G01 X-1.9192 Y1.9147  
G01 X-1.9216 Y1.9088  
G01 X-1.9251 Y1.9036  
G01 X-1.9296 Y1.8991  
G01 X-1.9348 Y1.8956  
G01 X-1.9407 Y1.8932  
G01 X-1.9468 Y1.8920  
G01 X-1.9532 Y1.8920  
G01 X-1.9593 Y1.8932  
G01 X-1.9652 Y1.8956  
G01 X-1.9704 Y1.8991  
G01 X-1.9749 Y1.9036  
G01 X-1.9784 Y1.9088  
G01 X-1.9808 Y1.9147  
G01 X-1.9820 Y1.9208  
G01 X-1.9820 Y1.9792  
G01 X-1.9808 Y1.9853  
G01 X-1.9784 Y1.9912  
G01 X-1.9749 Y1.9964  
G01 X-1.9720 Y1.9993  
G01 X-1.9720 Y2.1909  
G01 X-1.9971 Y2.2160  
G01 X-2.0139 Y2.2160  
G01 X-2.1043 Y2.1617  
G01 X-2.1231 Y1.9933  
G01 X-2.1216 Y1.9912  
G01 X-2.1192 Y1.9853  
G01 X-2.1180 Y1.9792  
G01 X-2.1180 Y1.9208  
G01 X-2.1192 Y1.9147  
G01 X-2.1216 Y1.9088  
G01 X-2.1251 Y1.9036  
G01 X-2.1296 Y1.8991  
G01 X-2.1348 Y1.8956  
G01 X-2.1407 Y1.8932  
G01 X-2.1468 Y1.8920  
G01 X-2.1532 Y1.8920  
G01 X-2.1593 Y1.8932  
G01 X-2.1652 Y1.8956  
G01 X-2.1704 Y1.8991  
G01 X-2.1749 Y1.9036  
G01 X-2.1784 Y1.9088  
G01 X-2.1808 Y1.9147  
G01 X-2.1820 Y1.9208  
G00 Z0.0500  
G00 X-2.0820 Y1.9208  
G01 Z-0.0040 F10    
G01 X-2.0820 Y1.9792  F20    
G01 X-2.0808 Y1.9853  
G01 X-2.0784 Y1.9912  
G01 X-2.0749 Y1.9964  
G01 X-2.0720 Y1.9993  
G01 X-2.0720 Y2.0453  
G01 X-2.0749 Y2.0453  
G01 X-2.0771 Y2.0462  
G01 X-2.0788 Y2.0479  
G01 X-2.0797 Y2.0501  
G01 X-2.0797 Y2.0999  
G01 X-2.0788 Y2.1021  
G01 X-2.0771 Y2.1038  
G01 X-2.0749 Y2.1047  
G01 X-2.0251 Y2.1047  
G01 X-2.0229 Y2.1038  
G01 X-2.0212 Y2.1021  
G01 X-2.0203 Y2.0999  
G01 X-2.0203 Y2.0501  
G01 X-2.0212 Y2.0479  
G01 X-2.0229 Y2.0462  
G01 X-2.0251 Y2.0453  
G01 X-2.0280 Y2.0453  
G01 X-2.0280 Y1.9993  
G01 X-2.0251 Y1.9964  
G01 X-2.0216 Y1.9912  
G01 X-2.0192 Y1.9853  
G01 X-2.0180 Y1.9792  
G01 X-2.0180 Y1.9208  
G01 X-2.0192 Y1.9147  
G01 X-2.0216 Y1.9088  
G01 X-2.0251 Y1.9036  
G01 X-2.0296 Y1.8991  
G01 X-2.0348 Y1.8956  
G01 X-2.0407 Y1.8932  
G01 X-2.0468 Y1.8920  
G01 X-2.0532 Y1.8920  
G01 X-2.0593 Y1.8932  
G01 X-2.0652 Y1.8956  
G01 X-2.0704 Y1.8991  
G01 X-2.0749 Y1.9036  
G01 X-2.0784 Y1.9088  
G01 X-2.0808 Y1.9147  
G01 X-2.0820 Y1.9208  
G00 Z0.0500  
G00 X-1.8820 Y1.9208  
G01 Z-0.0040 F10    
G01 X-1.8820 Y1.9792  F20    
G01 X-1.8808 Y1.9853  
G01 X-1.8784 Y1.9912  
G01 X-1.8749 Y1.9964  
G01 X-1.8720 Y1.9993  
G01 X-1.8720 Y2.1767  
G01 X-1.8820 Y2.1867  
G01 X-1.8820 Y2.2133  
G01 X-1.8633 Y2.2320  
G01 X-1.8367 Y2.2320  
G01 X-1.8180 Y2.2133  
G01 X-1.8180 Y2.1867  
G01 X-1.8280 Y2.1767  
G01 X-1.8280 Y1.9993  
G01 X-1.8251 Y1.9964  
G01 X-1.8216 Y1.9912  
G01 X-1.8192 Y1.9853  
G01 X-1.8180 Y1.9792  
G01 X-1.8180 Y1.9208  
G01 X-1.8192 Y1.9147  
G01 X-1.8216 Y1.9088  
G01 X-1.8251 Y1.9036  
G01 X-1.8296 Y1.8991  
G01 X-1.8348 Y1.8956  
G01 X-1.8407 Y1.8932  
G01 X-1.8468 Y1.8920  
G01 X-1.8532 Y1.8920  
G01 X-1.8593 Y1.8932  
G01 X-1.8652 Y1.8956  
G01 X-1.8704 Y1.8991  
G01 X-1.8749 Y1.9036  
G01 X-1.8784 Y1.9088  
G01 X-1.8808 Y1.9147  
G01 X-1.8820 Y1.9208  
G00 Z0.0500  
G00 X-1.7820 Y1.9208  
G01 Z-0.0040 F10    
G01 X-1.7820 Y1.9792  F20    
G01 X-1.7808 Y1.9853  
G01 X-1.7784 Y1.9912  
G01 X-1.7749 Y1.9964  
G01 X-1.7720 Y1.9993  
G01 X-1.7720 Y2.1767  
G01 X-1.7820 Y2.1867  
G01 X-1.7820 Y2.2133  
G01 X-1.7720 Y2.2233  
G01 X-1.7720 Y2.2909  
G01 X-1.8124 Y2.3313  
G01 X-2.0570 Y2.4291  
G01 X-2.0585 Y2.4295  
G01 X-2.0596 Y2.4302  
G01 X-2.0609 Y2.4306  
G01 X-2.0621 Y2.4316  
G01 X-2.0635 Y2.4324  
G01 X-2.0644 Y2.4333  
G01 X-2.0655 Y2.4341  
G01 X-2.0665 Y2.4354  
G01 X-2.0895 Y2.4583  
G01 X-2.1823 Y2.5280  
G01 X-2.4767 Y2.5280  
G01 X-2.4867 Y2.5180  
G01 X-2.5133 Y2.5180  
G01 X-2.5320 Y2.5367  
G01 X-2.5320 Y2.5633  
G01 X-2.5133 Y2.5820  
G01 X-2.4867 Y2.5820  
G01 X-2.4767 Y2.5720  
G01 X-2.1766 Y2.5720  
G01 X-2.1752 Y2.5722  
G01 X-2.1737 Y2.5720  
G01 X-2.1721 Y2.5720  
G01 X-2.1708 Y2.5717  
G01 X-2.1695 Y2.5715  
G01 X-2.1680 Y2.5709  
G01 X-2.1665 Y2.5705  
G01 X-2.1654 Y2.5698  
G01 X-2.1641 Y2.5693  
G01 X-2.1629 Y2.5684  
G01 X-2.1615 Y2.5676  
G01 X-2.1605 Y2.5667  
G01 X-2.0629 Y2.4934  
G01 X-2.0615 Y2.4926  
G01 X-2.0605 Y2.4917  
G01 X-2.0595 Y2.4909  
G01 X-2.0585 Y2.4896  
G01 X-2.0376 Y2.4687  
G01 X-1.7930 Y2.3709  
G01 X-1.7915 Y2.3705  
G01 X-1.7904 Y2.3698  
G01 X-1.7891 Y2.3694  
G01 X-1.7879 Y2.3684  
G01 X-1.7865 Y2.3676  
G01 X-1.7856 Y2.3667  
G01 X-1.7845 Y2.3659  
G01 X-1.7835 Y2.3646  
G01 X-1.7324 Y2.3135  
G01 X-1.7295 Y2.3085  
G01 X-1.7280 Y2.3029  
G01 X-1.7280 Y2.2233  
G01 X-1.7180 Y2.2133  
G01 X-1.7180 Y2.1867  
G01 X-1.7280 Y2.1767  
G01 X-1.7280 Y1.9993  
G01 X-1.7251 Y1.9964  
G01 X-1.7216 Y1.9912  
G01 X-1.7192 Y1.9853  
G01 X-1.7180 Y1.9792  
G01 X-1.7180 Y1.9208  
G01 X-1.7192 Y1.9147  
G01 X-1.7216 Y1.9088  
G01 X-1.7251 Y1.9036  
G01 X-1.7296 Y1.8991  
G01 X-1.7348 Y1.8956  
G01 X-1.7407 Y1.8932  
G01 X-1.7468 Y1.8920  
G01 X-1.7532 Y1.8920  
G01 X-1.7593 Y1.8932  
G01 X-1.7652 Y1.8956  
G01 X-1.7704 Y1.8991  
G01 X-1.7749 Y1.9036  
G01 X-1.7784 Y1.9088  
G01 X-1.7808 Y1.9147  
G01 X-1.7820 Y1.9208  
G00 Z0.0500  
G00 X-1.6820 Y1.9208  
G01 Z-0.0040 F10    
G01 X-1.6820 Y1.9792  F20    
G01 X-1.6808 Y1.9853  
G01 X-1.6784 Y1.9912  
G01 X-1.6749 Y1.9964  
G01 X-1.6704 Y2.0009  
G01 X-1.6652 Y2.0044  
G01 X-1.6593 Y2.0068  
G01 X-1.6532 Y2.0080  
G01 X-1.6468 Y2.0080  
G01 X-1.6407 Y2.0068  
G01 X-1.6348 Y2.0044  
G01 X-1.6296 Y2.0009  
G01 X-1.6251 Y1.9964  
G01 X-1.6216 Y1.9912  
G01 X-1.6192 Y1.9853  
G01 X-1.6180 Y1.9792  
G01 X-1.6180 Y1.9208  
G01 X-1.6192 Y1.9147  
G01 X-1.6216 Y1.9088  
G01 X-1.6251 Y1.9036  
G01 X-1.6296 Y1.8991  
G01 X-1.6348 Y1.8956  
G01 X-1.6407 Y1.8932  
G01 X-1.6468 Y1.8920  
G01 X-1.6532 Y1.8920  
G01 X-1.6593 Y1.8932  
G01 X-1.6652 Y1.8956  
G01 X-1.6704 Y1.8991  
G01 X-1.6749 Y1.9036  
G01 X-1.6784 Y1.9088  
G01 X-1.6808 Y1.9147  
G01 X-1.6820 Y1.9208  
G00 Z0.0500  
G00 X-1.5820 Y1.9208  
G01 Z-0.0040 F10    
G01 X-1.5820 Y1.9792  F20    
G01 X-1.5808 Y1.9853  
G01 X-1.5784 Y1.9912  
G01 X-1.5749 Y1.9964  
G01 X-1.5704 Y2.0009  
G01 X-1.5652 Y2.0044  
G01 X-1.5593 Y2.0068  
G01 X-1.5532 Y2.0080  
G01 X-1.5468 Y2.0080  
G01 X-1.5407 Y2.0068  
G01 X-1.5348 Y2.0044  
G01 X-1.5296 Y2.0009  
G01 X-1.5251 Y1.9964  
G01 X-1.5216 Y1.9912  
G01 X-1.5192 Y1.9853  
G01 X-1.5180 Y1.9792  
G01 X-1.5180 Y1.9689  
G01 X-1.3210 Y1.9492  
G01 X-1.3133 Y1.9570  
G01 X-1.2867 Y1.9570  
G01 X-1.2680 Y1.9383  
G01 X-1.2680 Y1.9117  
G01 X-1.2867 Y1.8930  
G01 X-1.3133 Y1.8930  
G01 X-1.3257 Y1.9055  
G01 X-1.5180 Y1.9247  
G01 X-1.5180 Y1.9208  
G01 X-1.5192 Y1.9147  
G01 X-1.5216 Y1.9088  
G01 X-1.5251 Y1.9036  
G01 X-1.5296 Y1.8991  
G01 X-1.5348 Y1.8956  
G01 X-1.5407 Y1.8932  
G01 X-1.5468 Y1.8920  
G01 X-1.5532 Y1.8920  
G01 X-1.5593 Y1.8932  
G01 X-1.5652 Y1.8956  
G01 X-1.5704 Y1.8991  
G01 X-1.5749 Y1.9036  
G01 X-1.5784 Y1.9088  
G01 X-1.5808 Y1.9147  
G01 X-1.5820 Y1.9208  
G00 Z0.0500  
G00 X-1.5364 Y0.8220  
G01 Z-0.0040 F10    
G01 X-1.5348 Y0.8222  F20    
G01 X-1.5335 Y0.8220  
G01 X-1.5321 Y0.8220  
G01 X-1.5306 Y0.8216  
G01 X-1.5291 Y0.8214  
G01 X-1.5278 Y0.8208  
G01 X-1.5265 Y0.8205  
G01 X-1.5252 Y0.8197  
G01 X-1.5237 Y0.8191  
G01 X-1.5227 Y0.8183  
G01 X-1.5215 Y0.8176  
G01 X-1.5204 Y0.8165  
G01 X-1.3389 Y0.6741  
G01 X-1.2487 Y0.6741  
G01 X-1.2400 Y0.6727  
G01 X-1.2317 Y0.6700  
G01 X-1.2238 Y0.6660  
G01 X-1.2167 Y0.6608  
G01 X-1.2104 Y0.6546  
G01 X-1.2053 Y0.6475  
G01 X-1.2013 Y0.6396  
G01 X-1.1985 Y0.6312  
G01 X-1.1971 Y0.6225  
G01 X-1.1971 Y0.6137  
G01 X-1.1985 Y0.6050  
G01 X-1.2013 Y0.5966  
G01 X-1.2053 Y0.5888  
G01 X-1.2104 Y0.5816  
G01 X-1.2167 Y0.5754  
G01 X-1.2238 Y0.5702  
G01 X-1.2317 Y0.5662  
G01 X-1.2400 Y0.5635  
G01 X-1.2487 Y0.5621  
G01 X-1.3576 Y0.5621  
G01 X-1.3663 Y0.5635  
G01 X-1.3746 Y0.5662  
G01 X-1.3825 Y0.5702  
G01 X-1.3896 Y0.5754  
G01 X-1.3959 Y0.5816  
G01 X-1.4010 Y0.5888  
G01 X-1.4050 Y0.5966  
G01 X-1.4078 Y0.6050  
G01 X-1.4091 Y0.6137  
G01 X-1.4091 Y0.6225  
G01 X-1.4078 Y0.6312  
G01 X-1.4050 Y0.6396  
G01 X-1.4010 Y0.6475  
G01 X-1.3959 Y0.6546  
G01 X-1.3912 Y0.6592  
G01 X-1.5426 Y0.7780  
G01 X-1.6420 Y0.7780  
G01 X-1.9351 Y0.5337  
G01 X-2.0249 Y0.4440  
G01 X-2.0249 Y0.1938  
G01 X-2.0212 Y0.1919  
G01 X-2.0149 Y0.1874  
G01 X-2.0095 Y0.1819  
G01 X-2.0049 Y0.1757  
G01 X-2.0014 Y0.1688  
G01 X-1.9991 Y0.1615  
G01 X-1.9979 Y0.1539  
G01 X-1.9979 Y0.1461  
G01 X-1.9991 Y0.1385  
G01 X-2.0014 Y0.1312  
G01 X-2.0049 Y0.1243  
G01 X-2.0095 Y0.1181  
G01 X-2.0149 Y0.1126  
G01 X-2.0212 Y0.1081  
G01 X-2.0280 Y0.1046  
G01 X-2.0354 Y0.1022  
G01 X-2.0430 Y0.1010  
G01 X-2.0507 Y0.1010  
G01 X-2.0583 Y0.1022  
G01 X-2.0657 Y0.1046  
G01 X-2.0725 Y0.1081  
G01 X-2.0788 Y0.1126  
G01 X-2.0842 Y0.1181  
G01 X-2.0888 Y0.1243  
G01 X-2.0923 Y0.1312  
G01 X-2.0946 Y0.1385  
G01 X-2.0959 Y0.1461  
G01 X-2.0959 Y0.1539  
G01 X-2.0946 Y0.1615  
G01 X-2.0923 Y0.1688  
G01 X-2.0888 Y0.1757  
G01 X-2.0842 Y0.1819  
G01 X-2.0788 Y0.1874  
G01 X-2.0725 Y0.1919  
G01 X-2.0689 Y0.1938  
G01 X-2.0689 Y0.4560  
G01 X-2.0674 Y0.4616  
G01 X-2.0645 Y0.4667  
G01 X-1.9669 Y0.5642  
G01 X-1.9663 Y0.5650  
G01 X-1.9649 Y0.5663  
G01 X-1.9635 Y0.5676  
G01 X-1.9626 Y0.5681  
G01 X-1.6649 Y0.8163  
G01 X-1.6635 Y0.8176  
G01 X-1.6626 Y0.8181  
G01 X-1.6619 Y0.8188  
G01 X-1.6601 Y0.8196  
G01 X-1.6585 Y0.8205  
G01 X-1.6575 Y0.8208  
G01 X-1.6566 Y0.8212  
G01 X-1.6547 Y0.8215  
G01 X-1.6529 Y0.8220  
G01 X-1.6519 Y0.8220  
G01 X-1.6509 Y0.8222  
G01 X-1.6490 Y0.8220  
G01 X-1.5364 Y0.8220  
G00 Z0.0500  
G00 X-1.5729 Y0.7288  
G01 Z-0.0040 F10    
G01 X-1.5712 Y0.7271  F20    
G01 X-1.5703 Y0.7249  
G01 X-1.5703 Y0.6751  
G01 X-1.5712 Y0.6729  
G01 X-1.5729 Y0.6712  
G01 X-1.5751 Y0.6703  
G01 X-1.5780 Y0.6703  
G01 X-1.5780 Y0.6327  
G01 X-1.5559 Y0.6106  
G01 X-1.5558 Y0.6108  
G01 X-1.5506 Y0.6180  
G01 X-1.5444 Y0.6242  
G01 X-1.5372 Y0.6294  
G01 X-1.5294 Y0.6334  
G01 X-1.5210 Y0.6361  
G01 X-1.5123 Y0.6375  
G01 X-1.5035 Y0.6375  
G01 X-1.4948 Y0.6361  
G01 X-1.4864 Y0.6334  
G01 X-1.4785 Y0.6294  
G01 X-1.4714 Y0.6242  
G01 X-1.4652 Y0.6180  
G01 X-1.4600 Y0.6108  
G01 X-1.4560 Y0.6030  
G01 X-1.4533 Y0.5946  
G01 X-1.4519 Y0.5859  
G01 X-1.4519 Y0.4771  
G01 X-1.4533 Y0.4684  
G01 X-1.4560 Y0.4600  
G01 X-1.4600 Y0.4521  
G01 X-1.4652 Y0.4450  
G01 X-1.4714 Y0.4388  
G01 X-1.4785 Y0.4336  
G01 X-1.4864 Y0.4296  
G01 X-1.4948 Y0.4269  
G01 X-1.5035 Y0.4255  
G01 X-1.5123 Y0.4255  
G01 X-1.5210 Y0.4269  
G01 X-1.5294 Y0.4296  
G01 X-1.5372 Y0.4336  
G01 X-1.5444 Y0.4388  
G01 X-1.5506 Y0.4450  
G01 X-1.5558 Y0.4521  
G01 X-1.5598 Y0.4600  
G01 X-1.5625 Y0.4684  
G01 X-1.5639 Y0.4771  
G01 X-1.5639 Y0.5564  
G01 X-1.6176 Y0.6101  
G01 X-1.6205 Y0.6151  
G01 X-1.6220 Y0.6207  
G01 X-1.6220 Y0.6703  
G01 X-1.6249 Y0.6703  
G01 X-1.6271 Y0.6712  
G01 X-1.6288 Y0.6729  
G01 X-1.6297 Y0.6751  
G01 X-1.6297 Y0.7249  
G01 X-1.6288 Y0.7271  
G01 X-1.6271 Y0.7288  
G01 X-1.6249 Y0.7297  
G01 X-1.5751 Y0.7297  
G01 X-1.5729 Y0.7288  
G00 Z0.0500  
G00 X-1.7340 Y0.8346  
G01 Z-0.0040 F10    
G01 X-1.7353 Y0.8336  F20    
G01 X-1.7365 Y0.8324  
G01 X-1.7376 Y0.8318  
G01 X-1.9853 Y0.6336  
G01 X-2.1680 Y0.4509  
G01 X-2.1680 Y0.4367  
G01 X-2.1867 Y0.4180  
G01 X-2.2133 Y0.4180  
G01 X-2.2233 Y0.4280  
G01 X-2.4267 Y0.4280  
G01 X-2.4367 Y0.4180  
G01 X-2.4633 Y0.4180  
G01 X-2.4820 Y0.4367  
G01 X-2.4820 Y0.4633  
G01 X-2.4720 Y0.4733  
G01 X-2.4720 Y0.5767  
G01 X-2.4820 Y0.5867  
G01 X-2.4820 Y0.6060  
G01 X-2.5417 Y0.6855  
G01 X-2.5426 Y0.6865  
G01 X-2.5434 Y0.6879  
G01 X-2.5443 Y0.6891  
G01 X-2.5448 Y0.6904  
G01 X-2.5455 Y0.6915  
G01 X-2.5459 Y0.6930  
G01 X-2.5465 Y0.6945  
G01 X-2.5467 Y0.6958  
G01 X-2.5470 Y0.6971  
G01 X-2.5470 Y0.6987  
G01 X-2.5472 Y0.7002  
G01 X-2.5470 Y0.7016  
G01 X-2.5470 Y0.8029  
G01 X-2.5455 Y0.8085  
G01 X-2.5426 Y0.8135  
G01 X-2.5385 Y0.8176  
G01 X-2.5135 Y0.8426  
G01 X-2.5085 Y0.8455  
G01 X-2.5029 Y0.8470  
G01 X-2.4007 Y0.8470  
G01 X-2.3984 Y0.8471  
G01 X-2.3978 Y0.8470  
G01 X-2.3971 Y0.8470  
G01 X-2.3949 Y0.8464  
G01 X-2.3928 Y0.8460  
G01 X-2.3922 Y0.8457  
G01 X-2.3915 Y0.8455  
G01 X-2.3896 Y0.8444  
G01 X-2.3448 Y0.8220  
G01 X-2.2233 Y0.8220  
G01 X-2.2133 Y0.8320  
G01 X-2.1867 Y0.8320  
G01 X-2.1680 Y0.8133  
G01 X-2.1680 Y0.7867  
G01 X-2.1867 Y0.7680  
G01 X-2.2133 Y0.7680  
G01 X-2.2233 Y0.7780  
G01 X-2.3493 Y0.7780  
G01 X-2.3516 Y0.7779  
G01 X-2.3522 Y0.7780  
G01 X-2.3529 Y0.7780  
G01 X-2.3551 Y0.7786  
G01 X-2.3572 Y0.7790  
G01 X-2.3578 Y0.7793  
G01 X-2.3585 Y0.7795  
G01 X-2.3604 Y0.7806  
G01 X-2.4052 Y0.8030  
G01 X-2.4909 Y0.8030  
G01 X-2.5030 Y0.7909  
G01 X-2.5030 Y0.7073  
G01 X-2.4465 Y0.6320  
G01 X-2.4367 Y0.6320  
G01 X-2.4180 Y0.6133  
G01 X-2.4180 Y0.5867  
G01 X-2.4280 Y0.5767  
G01 X-2.4280 Y0.4733  
G01 X-2.4267 Y0.4720  
G01 X-2.2233 Y0.4720  
G01 X-2.2133 Y0.4820  
G01 X-2.1991 Y0.4820  
G01 X-2.0167 Y0.6644  
G01 X-2.0160 Y0.6654  
G01 X-2.0147 Y0.6664  
G01 X-2.0135 Y0.6676  
G01 X-2.0124 Y0.6682  
G01 X-1.7769 Y0.8566  
G01 X-1.7820 Y0.8617  
G01 X-1.7820 Y0.8883  
G01 X-1.7633 Y0.9070  
G01 X-1.7367 Y0.9070  
G01 X-1.7180 Y0.8883  
G01 X-1.7180 Y0.8617  
G01 X-1.7280 Y0.8517  
G01 X-1.7278 Y0.8504  
G01 X-1.7280 Y0.8488  
G01 X-1.7280 Y0.8471  
G01 X-1.7283 Y0.8459  
G01 X-1.7285 Y0.8447  
G01 X-1.7291 Y0.8431  
G01 X-1.7295 Y0.8415  
G01 X-1.7301 Y0.8404  
G01 X-1.7306 Y0.8393  
G01 X-1.7316 Y0.8379  
G01 X-1.7324 Y0.8365  
G01 X-1.7333 Y0.8356  
G01 X-1.7340 Y0.8346  
G00 Z0.0500  
G00 X-1.8867 Y0.4820  
G01 Z-0.0040 F10    
G01 X-1.8680 Y0.4633  F20    
G01 X-1.8680 Y0.4367  
G01 X-1.8738 Y0.4310  
G01 X-1.8286 Y0.2050  
G01 X-1.8280 Y0.2029  
G01 X-1.8280 Y0.2022  
G01 X-1.8279 Y0.2015  
G01 X-1.8280 Y0.1993  
G01 X-1.8280 Y0.1938  
G01 X-1.8243 Y0.1919  
G01 X-1.8181 Y0.1874  
G01 X-1.8126 Y0.1819  
G01 X-1.8081 Y0.1757  
G01 X-1.8046 Y0.1688  
G01 X-1.8022 Y0.1615  
G01 X-1.8010 Y0.1539  
G01 X-1.8010 Y0.1461  
G01 X-1.8022 Y0.1385  
G01 X-1.8046 Y0.1312  
G01 X-1.8081 Y0.1243  
G01 X-1.8126 Y0.1181  
G01 X-1.8181 Y0.1126  
G01 X-1.8243 Y0.1081  
G01 X-1.8312 Y0.1046  
G01 X-1.8385 Y0.1022  
G01 X-1.8461 Y0.1010  
G01 X-1.8539 Y0.1010  
G01 X-1.8615 Y0.1022  
G01 X-1.8688 Y0.1046  
G01 X-1.8757 Y0.1081  
G01 X-1.8819 Y0.1126  
G01 X-1.8874 Y0.1181  
G01 X-1.8919 Y0.1243  
G01 X-1.8954 Y0.1312  
G01 X-1.8978 Y0.1385  
G01 X-1.8990 Y0.1461  
G01 X-1.8990 Y0.1539  
G01 X-1.8978 Y0.1615  
G01 X-1.8954 Y0.1688  
G01 X-1.8919 Y0.1757  
G01 X-1.8874 Y0.1819  
G01 X-1.8819 Y0.1874  
G01 X-1.8757 Y0.1919  
G01 X-1.8720 Y0.1938  
G01 X-1.8720 Y0.1978  
G01 X-1.9167 Y0.4215  
G01 X-1.9320 Y0.4367  
G01 X-1.9320 Y0.4633  
G01 X-1.9133 Y0.4820  
G01 X-1.8867 Y0.4820  
G00 Z0.0500  
G00 X-2.5780 Y0.4091  
G01 Z-0.0040 F10    
G01 X-2.4824 Y0.3135  F20    
G01 X-2.4795 Y0.3085  
G01 X-2.4780 Y0.3029  
G01 X-2.4780 Y0.1938  
G01 X-2.4743 Y0.1919  
G01 X-2.4681 Y0.1874  
G01 X-2.4626 Y0.1819  
G01 X-2.4581 Y0.1757  
G01 X-2.4546 Y0.1688  
G01 X-2.4522 Y0.1615  
G01 X-2.4510 Y0.1539  
G01 X-2.4510 Y0.1461  
G01 X-2.4522 Y0.1385  
G01 X-2.4546 Y0.1312  
G01 X-2.4581 Y0.1243  
G01 X-2.4626 Y0.1181  
G01 X-2.4681 Y0.1126  
G01 X-2.4743 Y0.1081  
G01 X-2.4812 Y0.1046  
G01 X-2.4885 Y0.1022  
G01 X-2.4961 Y0.1010  
G01 X-2.5039 Y0.1010  
G01 X-2.5115 Y0.1022  
G01 X-2.5188 Y0.1046  
G01 X-2.5257 Y0.1081  
G01 X-2.5319 Y0.1126  
G01 X-2.5374 Y0.1181  
G01 X-2.5419 Y0.1243  
G01 X-2.5454 Y0.1312  
G01 X-2.5478 Y0.1385  
G01 X-2.5490 Y0.1461  
G01 X-2.5490 Y0.1539  
G01 X-2.5478 Y0.1615  
G01 X-2.5454 Y0.1688  
G01 X-2.5419 Y0.1757  
G01 X-2.5374 Y0.1819  
G01 X-2.5319 Y0.1874  
G01 X-2.5257 Y0.1919  
G01 X-2.5220 Y0.1938  
G01 X-2.5220 Y0.2909  
G01 X-2.6135 Y0.3824  
G01 X-2.6176 Y0.3865  
G01 X-2.6205 Y0.3915  
G01 X-2.6220 Y0.3971  
G01 X-2.6220 Y0.8529  
G01 X-2.6205 Y0.8585  
G01 X-2.6176 Y0.8635  
G01 X-2.5220 Y0.9591  
G01 X-2.5220 Y1.0767  
G01 X-2.5320 Y1.0867  
G01 X-2.5320 Y1.1133  
G01 X-2.5133 Y1.1320  
G01 X-2.4867 Y1.1320  
G01 X-2.4680 Y1.1133  
G01 X-2.4680 Y1.0867  
G01 X-2.4780 Y1.0767  
G01 X-2.4780 Y0.9471  
G01 X-2.4795 Y0.9415  
G01 X-2.4824 Y0.9365  
G01 X-2.4865 Y0.9324  
G01 X-2.5780 Y0.8409  
G01 X-2.5780 Y0.4091  
G00 Z0.0500  
G00 X-2.7180 Y0.4367  
G01 Z-0.0040 F10    
G01 X-2.7333 Y0.4215  F20    
G01 X-2.8030 Y0.0728  
G01 X-2.8030 Y0.0721  
G01 X-2.8036 Y0.0700  
G01 X-2.8040 Y0.0678  
G01 X-2.8043 Y0.0672  
G01 X-2.8045 Y0.0665  
G01 X-2.8056 Y0.0646  
G01 X-2.8066 Y0.0627  
G01 X-2.8070 Y0.0621  
G01 X-2.8074 Y0.0615  
G01 X-2.8089 Y0.0599  
G01 X-2.8104 Y0.0583  
G01 X-2.8110 Y0.0579  
G01 X-2.8115 Y0.0574  
G01 X-2.8134 Y0.0563  
G01 X-2.8152 Y0.0551  
G01 X-2.8159 Y0.0549  
G01 X-2.8165 Y0.0545  
G01 X-2.8186 Y0.0539  
G01 X-2.8207 Y0.0532  
G01 X-2.8214 Y0.0532  
G01 X-2.8221 Y0.0530  
G01 X-2.8243 Y0.0530  
G01 X-2.8265 Y0.0529  
G01 X-2.8272 Y0.0530  
G01 X-3.0779 Y0.0530  
G01 X-3.0835 Y0.0545  
G01 X-3.0885 Y0.0574  
G01 X-3.1346 Y0.1035  
G01 X-3.1385 Y0.1022  
G01 X-3.1461 Y0.1010  
G01 X-3.1539 Y0.1010  
G01 X-3.1615 Y0.1022  
G01 X-3.1688 Y0.1046  
G01 X-3.1757 Y0.1081  
G01 X-3.1819 Y0.1126  
G01 X-3.1874 Y0.1181  
G01 X-3.1919 Y0.1243  
G01 X-3.1954 Y0.1312  
G01 X-3.1978 Y0.1385  
G01 X-3.1990 Y0.1461  
G01 X-3.1990 Y0.1539  
G01 X-3.1978 Y0.1615  
G01 X-3.1954 Y0.1688  
G01 X-3.1919 Y0.1757  
G01 X-3.1874 Y0.1819  
G01 X-3.1819 Y0.1874  
G01 X-3.1757 Y0.1919  
G01 X-3.1688 Y0.1954  
G01 X-3.1615 Y0.1978  
G01 X-3.1539 Y0.1990  
G01 X-3.1461 Y0.1990  
G01 X-3.1385 Y0.1978  
G01 X-3.1312 Y0.1954  
G01 X-3.1243 Y0.1919  
G01 X-3.1181 Y0.1874  
G01 X-3.1126 Y0.1819  
G01 X-3.1081 Y0.1757  
G01 X-3.1046 Y0.1688  
G01 X-3.1022 Y0.1615  
G01 X-3.1010 Y0.1539  
G01 X-3.1010 Y0.1461  
G01 X-3.1022 Y0.1385  
G01 X-3.1035 Y0.1346  
G01 X-3.0659 Y0.0970  
G01 X-2.8430 Y0.0970  
G01 X-2.7762 Y0.4310  
G01 X-2.7820 Y0.4367  
G01 X-2.7820 Y0.4633  
G01 X-2.7633 Y0.4820  
G01 X-2.7367 Y0.4820  
G01 X-2.7180 Y0.4633  
G01 X-2.7180 Y0.4367  
G00 Z0.0500  
G00 X-2.8212 Y0.4729  
G01 Z-0.0040 F10    
G01 X-2.8229 Y0.4712  F20    
G01 X-2.8251 Y0.4703  
G01 X-2.8749 Y0.4703  
G01 X-2.8771 Y0.4712  
G01 X-2.8788 Y0.4729  
G01 X-2.8797 Y0.4751  
G01 X-2.8797 Y0.4780  
G01 X-2.9971 Y0.4780  
G01 X-2.9594 Y0.1986  
G01 X-2.9570 Y0.1990  
G01 X-2.9493 Y0.1990  
G01 X-2.9417 Y0.1978  
G01 X-2.9343 Y0.1954  
G01 X-2.9275 Y0.1919  
G01 X-2.9212 Y0.1874  
G01 X-2.9158 Y0.1819  
G01 X-2.9112 Y0.1757  
G01 X-2.9077 Y0.1688  
G01 X-2.9054 Y0.1615  
G01 X-2.9041 Y0.1539  
G01 X-2.9041 Y0.1461  
G01 X-2.9054 Y0.1385  
G01 X-2.9077 Y0.1312  
G01 X-2.9112 Y0.1243  
G01 X-2.9158 Y0.1181  
G01 X-2.9212 Y0.1126  
G01 X-2.9275 Y0.1081  
G01 X-2.9343 Y0.1046  
G01 X-2.9417 Y0.1022  
G01 X-2.9493 Y0.1010  
G01 X-2.9570 Y0.1010  
G01 X-2.9646 Y0.1022  
G01 X-2.9720 Y0.1046  
G01 X-2.9788 Y0.1081  
G01 X-2.9851 Y0.1126  
G01 X-2.9905 Y0.1181  
G01 X-2.9951 Y0.1243  
G01 X-2.9986 Y0.1312  
G01 X-3.0009 Y0.1385  
G01 X-3.0021 Y0.1461  
G01 X-3.0021 Y0.1539  
G01 X-3.0009 Y0.1615  
G01 X-2.9994 Y0.1662  
G01 X-3.0419 Y0.4808  
G01 X-3.1179 Y0.6121  
G01 X-3.1184 Y0.6126  
G01 X-3.1194 Y0.6146  
G01 X-3.1205 Y0.6165  
G01 X-3.1207 Y0.6171  
G01 X-3.1431 Y0.6620  
G01 X-3.1532 Y0.6721  
G01 X-3.1582 Y0.6731  
G01 X-3.1633 Y0.6752  
G01 X-3.1678 Y0.6783  
G01 X-3.1717 Y0.6822  
G01 X-3.1748 Y0.6867  
G01 X-3.1769 Y0.6918  
G01 X-3.1780 Y0.6972  
G01 X-3.1780 Y0.7028  
G01 X-3.1769 Y0.7082  
G01 X-3.1748 Y0.7133  
G01 X-3.1717 Y0.7178  
G01 X-3.1678 Y0.7217  
G01 X-3.1633 Y0.7248  
G01 X-3.1582 Y0.7269  
G01 X-3.1528 Y0.7280  
G01 X-3.1472 Y0.7280  
G01 X-3.1418 Y0.7269  
G01 X-3.1367 Y0.7248  
G01 X-3.1322 Y0.7217  
G01 X-3.1283 Y0.7178  
G01 X-3.1252 Y0.7133  
G01 X-3.1231 Y0.7082  
G01 X-3.1221 Y0.7032  
G01 X-3.1110 Y0.6921  
G01 X-3.1105 Y0.6918  
G01 X-3.1090 Y0.6901  
G01 X-3.1074 Y0.6885  
G01 X-3.1071 Y0.6879  
G01 X-3.1066 Y0.6874  
G01 X-3.1056 Y0.6854  
G01 X-3.1045 Y0.6835  
G01 X-3.1043 Y0.6828  
G01 X-3.0806 Y0.6354  
G01 X-3.0145 Y0.5212  
G01 X-3.0116 Y0.5220  
G01 X-2.8797 Y0.5220  
G01 X-2.8797 Y0.5249  
G01 X-2.8788 Y0.5271  
G01 X-2.8771 Y0.5288  
G01 X-2.8749 Y0.5297  
G01 X-2.8251 Y0.5297  
G01 X-2.8229 Y0.5288  
G01 X-2.8212 Y0.5271  
G01 X-2.8203 Y0.5249  
G01 X-2.8203 Y0.4751  
G01 X-2.8212 Y0.4729  
G00 Z0.0500  
G00 X-2.7820 Y0.5867  
G01 Z-0.0040 F10    
G01 X-2.7820 Y0.5875  F20    
G01 X-2.9043 Y0.6282  
G01 X-2.9070 Y0.6291  
G01 X-2.9097 Y0.6300  
G01 X-2.9122 Y0.6317  
G01 X-2.9145 Y0.6332  
G01 X-3.0611 Y0.7309  
G01 X-3.1443 Y0.7726  
G01 X-3.1472 Y0.7720  
G01 X-3.1528 Y0.7720  
G01 X-3.1582 Y0.7731  
G01 X-3.1633 Y0.7752  
G01 X-3.1678 Y0.7783  
G01 X-3.1717 Y0.7822  
G01 X-3.1748 Y0.7867  
G01 X-3.1769 Y0.7918  
G01 X-3.1780 Y0.7972  
G01 X-3.1780 Y0.8028  
G01 X-3.1769 Y0.8082  
G01 X-3.1748 Y0.8133  
G01 X-3.1717 Y0.8178  
G01 X-3.1678 Y0.8217  
G01 X-3.1633 Y0.8248  
G01 X-3.1582 Y0.8269  
G01 X-3.1528 Y0.8280  
G01 X-3.1472 Y0.8280  
G01 X-3.1418 Y0.8269  
G01 X-3.1367 Y0.8248  
G01 X-3.1322 Y0.8217  
G01 X-3.1283 Y0.8178  
G01 X-3.1252 Y0.8133  
G01 X-3.1246 Y0.8119  
G01 X-3.0415 Y0.7704  
G01 X-3.0402 Y0.7699  
G01 X-3.0389 Y0.7691  
G01 X-3.0376 Y0.7684  
G01 X-3.0365 Y0.7675  
G01 X-2.8902 Y0.6699  
G01 X-2.7665 Y0.6287  
G01 X-2.7633 Y0.6320  
G01 X-2.7367 Y0.6320  
G01 X-2.7180 Y0.6133  
G01 X-2.7180 Y0.5867  
G01 X-2.7367 Y0.5680  
G01 X-2.7633 Y0.5680  
G01 X-2.7820 Y0.5867  
G00 Z0.0500  
G00 X-3.6053 Y0.5888  
G01 Z-0.0040 F10    
G01 X-3.6104 Y0.5816  F20    
G01 X-3.6167 Y0.5754  
G01 X-3.6238 Y0.5702  
G01 X-3.6317 Y0.5662  
G01 X-3.6400 Y0.5635  
G01 X-3.6487 Y0.5621  
G01 X-3.7576 Y0.5621  
G01 X-3.7663 Y0.5635  
G01 X-3.7746 Y0.5662  
G01 X-3.7825 Y0.5702  
G01 X-3.7896 Y0.5754  
G01 X-3.7959 Y0.5816  
G01 X-3.8010 Y0.5888  
G01 X-3.8050 Y0.5966  
G01 X-3.8078 Y0.6050  
G01 X-3.8091 Y0.6137  
G01 X-3.8091 Y0.6225  
G01 X-3.8078 Y0.6312  
G01 X-3.8050 Y0.6396  
G01 X-3.8010 Y0.6475  
G01 X-3.7959 Y0.6546  
G01 X-3.7896 Y0.6608  
G01 X-3.7825 Y0.6660  
G01 X-3.7746 Y0.6700  
G01 X-3.7663 Y0.6727  
G01 X-3.7576 Y0.6741  
G01 X-3.7168 Y0.6741  
G01 X-3.7214 Y0.6948  
G01 X-3.7220 Y0.6971  
G01 X-3.7220 Y0.6976  
G01 X-3.7221 Y0.6981  
G01 X-3.7220 Y0.7005  
G01 X-3.7220 Y0.7703  
G01 X-3.7249 Y0.7703  
G01 X-3.7271 Y0.7712  
G01 X-3.7288 Y0.7729  
G01 X-3.7297 Y0.7751  
G01 X-3.7297 Y0.8249  
G01 X-3.7288 Y0.8271  
G01 X-3.7271 Y0.8288  
G01 X-3.7249 Y0.8297  
G01 X-3.6751 Y0.8297  
G01 X-3.6729 Y0.8288  
G01 X-3.6712 Y0.8271  
G01 X-3.6703 Y0.8249  
G01 X-3.6703 Y0.7751  
G01 X-3.6712 Y0.7729  
G01 X-3.6729 Y0.7712  
G01 X-3.6751 Y0.7703  
G01 X-3.6780 Y0.7703  
G01 X-3.6780 Y0.7024  
G01 X-3.6717 Y0.6741  
G01 X-3.6487 Y0.6741  
G01 X-3.6400 Y0.6727  
G01 X-3.6317 Y0.6700  
G01 X-3.6238 Y0.6660  
G01 X-3.6167 Y0.6608  
G01 X-3.6104 Y0.6546  
G01 X-3.6053 Y0.6475  
G01 X-3.6013 Y0.6396  
G01 X-3.5985 Y0.6312  
G01 X-3.5971 Y0.6225  
G01 X-3.5971 Y0.6137  
G01 X-3.5985 Y0.6050  
G01 X-3.6013 Y0.5966  
G01 X-3.6053 Y0.5888  
G00 Z0.0500  
G00 X-3.8519 Y0.5859  
G01 Z-0.0040 F10    
G01 X-3.8519 Y0.4771  F20    
G01 X-3.8533 Y0.4684  
G01 X-3.8560 Y0.4600  
G01 X-3.8600 Y0.4521  
G01 X-3.8652 Y0.4450  
G01 X-3.8714 Y0.4388  
G01 X-3.8785 Y0.4336  
G01 X-3.8864 Y0.4296  
G01 X-3.8948 Y0.4269  
G01 X-3.9035 Y0.4255  
G01 X-3.9123 Y0.4255  
G01 X-3.9210 Y0.4269  
G01 X-3.9294 Y0.4296  
G01 X-3.9372 Y0.4336  
G01 X-3.9444 Y0.4388  
G01 X-3.9506 Y0.4450  
G01 X-3.9558 Y0.4521  
G01 X-3.9598 Y0.4600  
G01 X-3.9625 Y0.4684  
G01 X-3.9639 Y0.4771  
G01 X-3.9639 Y0.5859  
G01 X-3.9625 Y0.5946  
G01 X-3.9598 Y0.6030  
G01 X-3.9558 Y0.6108  
G01 X-3.9506 Y0.6180  
G01 X-3.9444 Y0.6242  
G01 X-3.9372 Y0.6294  
G01 X-3.9294 Y0.6334  
G01 X-3.9210 Y0.6361  
G01 X-3.9123 Y0.6375  
G01 X-3.9035 Y0.6375  
G01 X-3.8948 Y0.6361  
G01 X-3.8864 Y0.6334  
G01 X-3.8785 Y0.6294  
G01 X-3.8714 Y0.6242  
G01 X-3.8652 Y0.6180  
G01 X-3.8600 Y0.6108  
G01 X-3.8560 Y0.6030  
G01 X-3.8533 Y0.5946  
G01 X-3.8519 Y0.5859  
G00 Z0.0500  
G00 X-3.4771 Y1.3212  
G01 Z-0.0040 F10    
G01 X-3.4788 Y1.3229  F20    
G01 X-3.4797 Y1.3251  
G01 X-3.4797 Y1.3749  
G01 X-3.4788 Y1.3771  
G01 X-3.4771 Y1.3788  
G01 X-3.5131 Y1.5948  
G01 X-3.5152 Y1.5956  
G01 X-3.5204 Y1.5991  
G01 X-3.5249 Y1.6036  
G01 X-3.5284 Y1.6088  
G01 X-3.5308 Y1.6147  
G01 X-3.5320 Y1.6208  
G01 X-3.5320 Y1.6792  
G01 X-3.5308 Y1.6853  
G01 X-3.5284 Y1.6912  
G01 X-3.5249 Y1.6964  
G01 X-3.5204 Y1.7009  
G01 X-3.5152 Y1.7044  
G01 X-3.5093 Y1.7068  
G01 X-3.5032 Y1.7080  
G01 X-3.4968 Y1.7080  
G01 X-3.4907 Y1.7068  
G01 X-3.4848 Y1.7044  
G01 X-3.4796 Y1.7009  
G01 X-3.4751 Y1.6964  
G01 X-3.4716 Y1.6912  
G01 X-3.4692 Y1.6853  
G01 X-3.4680 Y1.6792  
G01 X-3.4680 Y1.6720  
G01 X-3.4320 Y1.6720  
G01 X-3.4320 Y1.6792  
G01 X-3.4308 Y1.6853  
G01 X-3.4284 Y1.6912  
G01 X-3.4249 Y1.6964  
G01 X-3.4204 Y1.7009  
G01 X-3.4152 Y1.7044  
G01 X-3.4093 Y1.7068  
G01 X-3.4032 Y1.7080  
G01 X-3.3968 Y1.7080  
G01 X-3.3907 Y1.7068  
G01 X-3.3848 Y1.7044  
G01 X-3.3796 Y1.7009  
G01 X-3.3751 Y1.6964  
G01 X-3.3716 Y1.6912  
G01 X-3.3692 Y1.6853  
G01 X-3.3680 Y1.6792  
G01 X-3.3680 Y1.6208  
G01 X-3.3692 Y1.6147  
G01 X-3.3716 Y1.6088  
G01 X-3.3751 Y1.6036  
G01 X-3.3796 Y1.5991  
G01 X-3.3848 Y1.5956  
G01 X-3.3907 Y1.5932  
G01 X-3.3968 Y1.5920  
G01 X-3.4032 Y1.5920  
G01 X-3.4093 Y1.5932  
G01 X-3.4152 Y1.5956  
G01 X-3.4204 Y1.5991  
G01 X-3.4249 Y1.6036  
G01 X-3.4284 Y1.6088  
G01 X-3.4308 Y1.6147  
G01 X-3.4320 Y1.6208  
G01 X-3.4320 Y1.6280  
G01 X-3.4680 Y1.6280  
G01 X-3.4680 Y1.6208  
G01 X-3.4692 Y1.6147  
G01 X-3.4711 Y1.6102  
G01 X-3.4327 Y1.3797  
G01 X-3.4251 Y1.3797  
G01 X-3.4229 Y1.3788  
G01 X-3.4212 Y1.3771  
G01 X-3.4203 Y1.3749  
G01 X-3.4203 Y1.3251  
G01 X-3.4212 Y1.3229  
G01 X-3.4229 Y1.3212  
G01 X-3.4251 Y1.3203  
G01 X-3.4749 Y1.3203  
G01 X-3.4771 Y1.3212  
G00 Z0.0500  
G00 X-3.2820 Y1.3367  
G01 Z-0.0040 F10    
G01 X-3.2820 Y1.3633  F20    
G01 X-3.2756 Y1.3697  
G01 X-3.3131 Y1.5948  
G01 X-3.3152 Y1.5956  
G01 X-3.3204 Y1.5991  
G01 X-3.3249 Y1.6036  
G01 X-3.3284 Y1.6088  
G01 X-3.3308 Y1.6147  
G01 X-3.3320 Y1.6208  
G01 X-3.3320 Y1.6792  
G01 X-3.3308 Y1.6853  
G01 X-3.3284 Y1.6912  
G01 X-3.3249 Y1.6964  
G01 X-3.3204 Y1.7009  
G01 X-3.3152 Y1.7044  
G01 X-3.3093 Y1.7068  
G01 X-3.3032 Y1.7080  
G01 X-3.2968 Y1.7080  
G01 X-3.2907 Y1.7068  
G01 X-3.2848 Y1.7044  
G01 X-3.2796 Y1.7009  
G01 X-3.2751 Y1.6964  
G01 X-3.2716 Y1.6912  
G01 X-3.2692 Y1.6853  
G01 X-3.2680 Y1.6792  
G01 X-3.2680 Y1.6208  
G01 X-3.2692 Y1.6147  
G01 X-3.2711 Y1.6102  
G01 X-3.2323 Y1.3775  
G01 X-3.2180 Y1.3633  
G01 X-3.2180 Y1.3367  
G01 X-3.2367 Y1.3180  
G01 X-3.2633 Y1.3180  
G01 X-3.2820 Y1.3367  
G00 Z0.0500  
G00 X-3.0820 Y1.2133  
G01 Z-0.0040 F10    
G01 X-3.0744 Y1.2208  F20    
G01 X-3.1162 Y1.5963  
G01 X-3.1204 Y1.5991  
G01 X-3.1249 Y1.6036  
G01 X-3.1284 Y1.6088  
G01 X-3.1308 Y1.6147  
G01 X-3.1320 Y1.6208  
G01 X-3.1320 Y1.6792  
G01 X-3.1308 Y1.6853  
G01 X-3.1284 Y1.6912  
G01 X-3.1249 Y1.6964  
G01 X-3.1204 Y1.7009  
G01 X-3.1152 Y1.7044  
G01 X-3.1093 Y1.7068  
G01 X-3.1032 Y1.7080  
G01 X-3.0968 Y1.7080  
G01 X-3.0907 Y1.7068  
G01 X-3.0848 Y1.7044  
G01 X-3.0796 Y1.7009  
G01 X-3.0751 Y1.6964  
G01 X-3.0716 Y1.6912  
G01 X-3.0692 Y1.6853  
G01 X-3.0680 Y1.6792  
G01 X-3.0680 Y1.6208  
G01 X-3.0692 Y1.6147  
G01 X-3.0716 Y1.6088  
G01 X-3.0731 Y1.6067  
G01 X-3.0308 Y1.2260  
G01 X-3.0180 Y1.2133  
G01 X-3.0180 Y1.1867  
G01 X-3.0367 Y1.1680  
G01 X-3.0633 Y1.1680  
G01 X-3.0820 Y1.1867  
G01 X-3.0820 Y1.2133  
G00 Z0.0500  
G00 X-2.9701 Y1.4515  
G01 Z-0.0040 F10    
G01 X-2.9985 Y1.4799  F20    
G01 X-2.9985 Y1.5201  
G01 X-2.9701 Y1.5485  
G01 X-2.9570 Y1.5485  
G01 X-2.9320 Y1.6236  
G01 X-2.9320 Y1.6280  
G01 X-2.9680 Y1.6280  
G01 X-2.9680 Y1.6208  
G01 X-2.9692 Y1.6147  
G01 X-2.9716 Y1.6088  
G01 X-2.9751 Y1.6036  
G01 X-2.9796 Y1.5991  
G01 X-2.9848 Y1.5956  
G01 X-2.9907 Y1.5932  
G01 X-2.9968 Y1.5920  
G01 X-3.0032 Y1.5920  
G01 X-3.0093 Y1.5932  
G01 X-3.0152 Y1.5956  
G01 X-3.0204 Y1.5991  
G01 X-3.0249 Y1.6036  
G01 X-3.0284 Y1.6088  
G01 X-3.0308 Y1.6147  
G01 X-3.0320 Y1.6208  
G01 X-3.0320 Y1.6792  
G01 X-3.0308 Y1.6853  
G01 X-3.0284 Y1.6912  
G01 X-3.0249 Y1.6964  
G01 X-3.0204 Y1.7009  
G01 X-3.0152 Y1.7044  
G01 X-3.0093 Y1.7068  
G01 X-3.0032 Y1.7080  
G01 X-2.9968 Y1.7080  
G01 X-2.9907 Y1.7068  
G01 X-2.9848 Y1.7044  
G01 X-2.9796 Y1.7009  
G01 X-2.9751 Y1.6964  
G01 X-2.9716 Y1.6912  
G01 X-2.9692 Y1.6853  
G01 X-2.9680 Y1.6792  
G01 X-2.9680 Y1.6720  
G01 X-2.9320 Y1.6720  
G01 X-2.9320 Y1.6792  
G01 X-2.9308 Y1.6853  
G01 X-2.9284 Y1.6912  
G01 X-2.9249 Y1.6964  
G01 X-2.9204 Y1.7009  
G01 X-2.9152 Y1.7044  
G01 X-2.9093 Y1.7068  
G01 X-2.9032 Y1.7080  
G01 X-2.8968 Y1.7080  
G01 X-2.8907 Y1.7068  
G01 X-2.8848 Y1.7044  
G01 X-2.8796 Y1.7009  
G01 X-2.8751 Y1.6964  
G01 X-2.8716 Y1.6912  
G01 X-2.8692 Y1.6853  
G01 X-2.8680 Y1.6792  
G01 X-2.8680 Y1.6208  
G01 X-2.8692 Y1.6147  
G01 X-2.8716 Y1.6088  
G01 X-2.8751 Y1.6036  
G01 X-2.8796 Y1.5991  
G01 X-2.8848 Y1.5956  
G01 X-2.8907 Y1.5932  
G01 X-2.8961 Y1.5922  
G01 X-2.9155 Y1.5340  
G01 X-2.9015 Y1.5201  
G01 X-2.9015 Y1.4799  
G01 X-2.9299 Y1.4515  
G01 X-2.9701 Y1.4515  
G00 Z0.0500  
G00 X-2.9751 Y1.9036  
G01 Z-0.0040 F10    
G01 X-2.9796 Y1.8991  F20    
G01 X-2.9848 Y1.8956  
G01 X-2.9907 Y1.8932  
G01 X-2.9968 Y1.8920  
G01 X-3.0032 Y1.8920  
G01 X-3.0093 Y1.8932  
G01 X-3.0152 Y1.8956  
G01 X-3.0204 Y1.8991  
G01 X-3.0249 Y1.9036  
G01 X-3.0284 Y1.9088  
G01 X-3.0308 Y1.9147  
G01 X-3.0320 Y1.9208  
G01 X-3.0320 Y1.9792  
G01 X-3.0308 Y1.9853  
G01 X-3.0284 Y1.9912  
G01 X-3.0249 Y1.9964  
G01 X-3.0204 Y2.0009  
G01 X-3.0152 Y2.0044  
G01 X-3.0093 Y2.0068  
G01 X-3.0032 Y2.0080  
G01 X-2.9968 Y2.0080  
G01 X-2.9907 Y2.0068  
G01 X-2.9848 Y2.0044  
G01 X-2.9796 Y2.0009  
G01 X-2.9751 Y1.9964  
G01 X-2.9720 Y1.9917  
G01 X-2.9720 Y2.1034  
G01 X-2.9985 Y2.1299  
G01 X-2.9985 Y2.1701  
G01 X-2.9701 Y2.1985  
G01 X-2.9299 Y2.1985  
G01 X-2.9015 Y2.1701  
G01 X-2.9015 Y2.1299  
G01 X-2.9280 Y2.1034  
G01 X-2.9280 Y1.9917  
G01 X-2.9249 Y1.9964  
G01 X-2.9204 Y2.0009  
G01 X-2.9152 Y2.0044  
G01 X-2.9093 Y2.0068  
G01 X-2.9032 Y2.0080  
G01 X-2.8968 Y2.0080  
G01 X-2.8907 Y2.0068  
G01 X-2.8848 Y2.0044  
G01 X-2.8796 Y2.0009  
G01 X-2.8751 Y1.9964  
G01 X-2.8716 Y1.9912  
G01 X-2.8692 Y1.9853  
G01 X-2.8680 Y1.9792  
G01 X-2.8680 Y1.9208  
G01 X-2.8692 Y1.9147  
G01 X-2.8716 Y1.9088  
G01 X-2.8751 Y1.9036  
G01 X-2.8796 Y1.8991  
G01 X-2.8848 Y1.8956  
G01 X-2.8907 Y1.8932  
G01 X-2.8968 Y1.8920  
G01 X-2.9032 Y1.8920  
G01 X-2.9093 Y1.8932  
G01 X-2.9152 Y1.8956  
G01 X-2.9204 Y1.8991  
G01 X-2.9249 Y1.9036  
G01 X-2.9284 Y1.9088  
G01 X-2.9308 Y1.9147  
G01 X-2.9320 Y1.9208  
G01 X-2.9320 Y1.9280  
G01 X-2.9680 Y1.9280  
G01 X-2.9680 Y1.9208  
G01 X-2.9692 Y1.9147  
G01 X-2.9716 Y1.9088  
G01 X-2.9751 Y1.9036  
G00 Z0.0500  
G00 X-3.0751 Y1.9036  
G01 Z-0.0040 F10    
G01 X-3.0796 Y1.8991  F20    
G01 X-3.0848 Y1.8956  
G01 X-3.0907 Y1.8932  
G01 X-3.0968 Y1.8920  
G01 X-3.1032 Y1.8920  
G01 X-3.1093 Y1.8932  
G01 X-3.1152 Y1.8956  
G01 X-3.1204 Y1.8991  
G01 X-3.1249 Y1.9036  
G01 X-3.1284 Y1.9088  
G01 X-3.1308 Y1.9147  
G01 X-3.1320 Y1.9208  
G01 X-3.1320 Y1.9792  
G01 X-3.1308 Y1.9853  
G01 X-3.1284 Y1.9912  
G01 X-3.1249 Y1.9964  
G01 X-3.1220 Y1.9993  
G01 X-3.1220 Y2.1267  
G01 X-3.1320 Y2.1367  
G01 X-3.1320 Y2.1633  
G01 X-3.1133 Y2.1820  
G01 X-3.0867 Y2.1820  
G01 X-3.0680 Y2.1633  
G01 X-3.0680 Y2.1367  
G01 X-3.0780 Y2.1267  
G01 X-3.0780 Y1.9993  
G01 X-3.0751 Y1.9964  
G01 X-3.0716 Y1.9912  
G01 X-3.0692 Y1.9853  
G01 X-3.0680 Y1.9792  
G01 X-3.0680 Y1.9208  
G01 X-3.0692 Y1.9147  
G01 X-3.0716 Y1.9088  
G01 X-3.0751 Y1.9036  
G00 Z0.0500  
G00 X-3.1751 Y1.9036  
G01 Z-0.0040 F10    
G01 X-3.1796 Y1.8991  F20    
G01 X-3.1848 Y1.8956  
G01 X-3.1907 Y1.8932  
G01 X-3.1968 Y1.8920  
G01 X-3.2032 Y1.8920  
G01 X-3.2093 Y1.8932  
G01 X-3.2152 Y1.8956  
G01 X-3.2204 Y1.8991  
G01 X-3.2249 Y1.9036  
G01 X-3.2284 Y1.9088  
G01 X-3.2308 Y1.9147  
G01 X-3.2320 Y1.9208  
G01 X-3.2320 Y1.9792  
G01 X-3.2308 Y1.9853  
G01 X-3.2284 Y1.9912  
G01 X-3.2249 Y1.9964  
G01 X-3.2220 Y1.9993  
G01 X-3.2220 Y2.0453  
G01 X-3.2249 Y2.0453  
G01 X-3.2271 Y2.0462  
G01 X-3.2288 Y2.0479  
G01 X-3.2297 Y2.0501  
G01 X-3.2297 Y2.0999  
G01 X-3.2288 Y2.1021  
G01 X-3.2271 Y2.1038  
G01 X-3.2249 Y2.1047  
G01 X-3.1751 Y2.1047  
G01 X-3.1729 Y2.1038  
G01 X-3.1712 Y2.1021  
G01 X-3.1703 Y2.0999  
G01 X-3.1703 Y2.0501  
G01 X-3.1712 Y2.0479  
G01 X-3.1729 Y2.0462  
G01 X-3.1751 Y2.0453  
G01 X-3.1780 Y2.0453  
G01 X-3.1780 Y1.9993  
G01 X-3.1751 Y1.9964  
G01 X-3.1716 Y1.9912  
G01 X-3.1692 Y1.9853  
G01 X-3.1680 Y1.9792  
G01 X-3.1680 Y1.9208  
G01 X-3.1692 Y1.9147  
G01 X-3.1716 Y1.9088  
G01 X-3.1751 Y1.9036  
G00 Z0.0500  
G00 X-3.4751 Y1.9036  
G01 Z-0.0040 F10    
G01 X-3.4796 Y1.8991  F20    
G01 X-3.4848 Y1.8956  
G01 X-3.4907 Y1.8932  
G01 X-3.4968 Y1.8920  
G01 X-3.5032 Y1.8920  
G01 X-3.5093 Y1.8932  
G01 X-3.5152 Y1.8956  
G01 X-3.5204 Y1.8991  
G01 X-3.5249 Y1.9036  
G01 X-3.5284 Y1.9088  
G01 X-3.5308 Y1.9147  
G01 X-3.5320 Y1.9208  
G01 X-3.5320 Y1.9792  
G01 X-3.5308 Y1.9853  
G01 X-3.5284 Y1.9912  
G01 X-3.5249 Y1.9964  
G01 X-3.5220 Y1.9993  
G01 X-3.5220 Y2.3986  
G01 X-3.5222 Y2.4001  
G01 X-3.5220 Y2.4015  
G01 X-3.5220 Y2.4029  
G01 X-3.5216 Y2.4044  
G01 X-3.5214 Y2.4059  
G01 X-3.5209 Y2.4072  
G01 X-3.5205 Y2.4085  
G01 X-3.5197 Y2.4098  
G01 X-3.5191 Y2.4112  
G01 X-3.5183 Y2.4123  
G01 X-3.5176 Y2.4135  
G01 X-3.5165 Y2.4146  
G01 X-3.5156 Y2.4158  
G01 X-3.5145 Y2.4166  
G01 X-3.5135 Y2.4176  
G01 X-3.5122 Y2.4184  
G01 X-3.5110 Y2.4193  
G01 X-3.5097 Y2.4198  
G01 X-3.5085 Y2.4205  
G01 X-3.5070 Y2.4209  
G01 X-3.5056 Y2.4215  
G01 X-3.5042 Y2.4216  
G01 X-3.5029 Y2.4220  
G01 X-3.5014 Y2.4220  
G01 X-3.1264 Y2.4689  
G01 X-3.1133 Y2.4820  
G01 X-3.0867 Y2.4820  
G01 X-3.0725 Y2.4677  
G01 X-2.8220 Y2.4260  
G01 X-2.8220 Y2.5267  
G01 X-2.8320 Y2.5367  
G01 X-2.8320 Y2.5633  
G01 X-2.8133 Y2.5820  
G01 X-2.7867 Y2.5820  
G01 X-2.7680 Y2.5633  
G01 X-2.7680 Y2.5367  
G01 X-2.7780 Y2.5267  
G01 X-2.7780 Y2.4233  
G01 X-2.7680 Y2.4133  
G01 X-2.7680 Y2.3867  
G01 X-2.7867 Y2.3680  
G01 X-2.8133 Y2.3680  
G01 X-2.8275 Y2.3823  
G01 X-3.0803 Y2.4244  
G01 X-3.0867 Y2.4180  
G01 X-3.1133 Y2.4180  
G01 X-3.1205 Y2.4253  
G01 X-3.4780 Y2.3806  
G01 X-3.4780 Y1.9993  
G01 X-3.4751 Y1.9964  
G01 X-3.4716 Y1.9912  
G01 X-3.4692 Y1.9853  
G01 X-3.4680 Y1.9792  
G01 X-3.4680 Y1.9208  
G01 X-3.4692 Y1.9147  
G01 X-3.4716 Y1.9088  
G01 X-3.4751 Y1.9036  
G00 Z0.0500  
G00 X-0.5430 Y1.7678  
G01 Z-0.0040 F10    
G01 X-0.5178 Y1.7930  F20    
G01 X-0.4822 Y1.7930  
G01 X-0.4570 Y1.7678  
G01 X-0.4570 Y1.7322  
G01 X-0.4822 Y1.7070  
G01 X-0.5178 Y1.7070  
G01 X-0.5430 Y1.7322  
G01 X-0.5430 Y1.7678  
G00 Z0.0500  
G00 X-0.4430 Y1.7678  
G01 Z-0.0040 F10    
G01 X-0.4178 Y1.7930  F20    
G01 X-0.3822 Y1.7930  
G01 X-0.3570 Y1.7678  
G01 X-0.3570 Y1.7322  
G01 X-0.3822 Y1.7070  
G01 X-0.4178 Y1.7070  
G01 X-0.4430 Y1.7322  
G01 X-0.4430 Y1.7678  
G00 Z0.0500  
G00 X-0.4430 Y1.5678  
G01 Z-0.0040 F10    
G01 X-0.4178 Y1.5930  F20    
G01 X-0.3822 Y1.5930  
G01 X-0.3570 Y1.5678  
G01 X-0.3570 Y1.5322  
G01 X-0.3822 Y1.5070  
G01 X-0.4178 Y1.5070  
G01 X-0.4430 Y1.5322  
G01 X-0.4430 Y1.5678  
G00 Z0.0500  
G00 X-0.4570 Y1.5678  
G01 Z-0.0040 F10    
G01 X-0.4570 Y1.5322  F20    
G01 X-0.4822 Y1.5070  
G01 X-0.5178 Y1.5070  
G01 X-0.5430 Y1.5322  
G01 X-0.5430 Y1.5678  
G01 X-0.5178 Y1.5930  
G01 X-0.4822 Y1.5930  
G01 X-0.4570 Y1.5678  
G00 Z0.0500  
G00 X-0.1093 Y0.0610  
G01 Z-0.0040 F10    
G01 X-0.1157 Y0.0546  F20    
G01 X-0.1230 Y0.0492  
G01 X-0.1311 Y0.0451  
G01 X-0.1397 Y0.0423  
G01 X-0.1486 Y0.0409  
G01 X-0.2577 Y0.0409  
G01 X-0.2666 Y0.0423  
G01 X-0.2752 Y0.0451  
G01 X-0.2833 Y0.0492  
G01 X-0.2906 Y0.0546  
G01 X-0.2970 Y0.0610  
G01 X-0.3023 Y0.0683  
G01 X-0.3057 Y0.0749  
G01 X-0.5039 Y0.0749  
G01 X-0.5084 Y0.0758  
G01 X-0.5127 Y0.0776  
G01 X-0.5166 Y0.0802  
G01 X-0.5382 Y0.1018  
G01 X-0.5413 Y0.1007  
G01 X-0.5492 Y0.0995  
G01 X-0.5571 Y0.0995  
G01 X-0.5650 Y0.1007  
G01 X-0.5725 Y0.1032  
G01 X-0.5796 Y0.1068  
G01 X-0.5827 Y0.1091  
G01 X-0.6317 Y0.0600  
G01 X-0.6350 Y0.0567  
G01 X-0.6389 Y0.0542  
G01 X-0.6431 Y0.0524  
G01 X-0.6477 Y0.0515  
G01 X-1.0523 Y0.0515  
G01 X-1.0569 Y0.0524  
G01 X-1.0611 Y0.0542  
G01 X-1.0650 Y0.0567  
G01 X-1.0683 Y0.0600  
G01 X-1.0708 Y0.0639  
G01 X-1.0726 Y0.0681  
G01 X-1.0735 Y0.0727  
G01 X-1.0735 Y0.0749  
G01 X-1.2006 Y0.0749  
G01 X-1.2040 Y0.0683  
G01 X-1.2093 Y0.0610  
G01 X-1.2157 Y0.0546  
G01 X-1.2230 Y0.0492  
G01 X-1.2311 Y0.0451  
G01 X-1.2397 Y0.0423  
G01 X-1.2486 Y0.0409  
G01 X-1.3577 Y0.0409  
G01 X-1.3666 Y0.0423  
G01 X-1.3752 Y0.0451  
G01 X-1.3833 Y0.0492  
G01 X-1.3906 Y0.0546  
G01 X-1.3970 Y0.0610  
G01 X-1.4023 Y0.0683  
G01 X-1.4064 Y0.0764  
G01 X-1.4092 Y0.0850  
G01 X-1.4106 Y0.0939  
G01 X-1.4106 Y0.1030  
G01 X-1.4092 Y0.1119  
G01 X-1.4064 Y0.1205  
G01 X-1.4023 Y0.1286  
G01 X-1.3970 Y0.1359  
G01 X-1.3906 Y0.1423  
G01 X-1.3833 Y0.1476  
G01 X-1.3752 Y0.1517  
G01 X-1.3666 Y0.1545  
G01 X-1.3577 Y0.1559  
G01 X-1.2486 Y0.1559  
G01 X-1.2397 Y0.1545  
G01 X-1.2311 Y0.1517  
G01 X-1.2230 Y0.1476  
G01 X-1.2157 Y0.1423  
G01 X-1.2093 Y0.1359  
G01 X-1.2040 Y0.1286  
G01 X-1.2006 Y0.1219  
G01 X-1.0735 Y0.1219  
G01 X-1.0735 Y0.2746  
G01 X-1.0736 Y0.2766  
G01 X-1.0735 Y0.2769  
G01 X-1.0735 Y0.2773  
G01 X-1.0731 Y0.2792  
G01 X-1.0728 Y0.2811  
G01 X-1.0727 Y0.2815  
G01 X-1.0726 Y0.2819  
G01 X-1.0719 Y0.2837  
G01 X-1.0712 Y0.2855  
G01 X-1.0710 Y0.2858  
G01 X-1.0708 Y0.2861  
G01 X-1.0697 Y0.2877  
G01 X-1.0687 Y0.2894  
G01 X-1.0685 Y0.2897  
G01 X-1.0683 Y0.2900  
G01 X-1.0669 Y0.2914  
G01 X-0.2985 Y1.1093  
G01 X-0.2985 Y1.9265  
G01 X-0.3606 Y1.9265  
G01 X-0.3816 Y1.9055  
G01 X-0.4184 Y1.9055  
G01 X-0.4394 Y1.9265  
G01 X-0.4606 Y1.9265  
G01 X-0.4816 Y1.9055  
G01 X-0.5184 Y1.9055  
G01 X-0.5394 Y1.9265  
G01 X-0.7683 Y1.9265  
G01 X-0.7838 Y1.9110  
G01 X-0.8162 Y1.9110  
G01 X-0.8228 Y1.9176  
G01 X-0.8515 Y1.9081  
G01 X-0.8515 Y0.7727  
G01 X-0.8524 Y0.7681  
G01 X-0.8542 Y0.7639  
G01 X-0.8567 Y0.7600  
G01 X-0.8600 Y0.7567  
G01 X-1.0568 Y0.5600  
G01 X-1.0584 Y0.5584  
G01 X-1.0600 Y0.5567  
G01 X-1.0620 Y0.5554  
G01 X-1.0639 Y0.5542  
G01 X-1.0660 Y0.5533  
G01 X-1.0665 Y0.5531  
G01 X-1.0780 Y0.5416  
G01 X-1.0783 Y0.5407  
G01 X-1.0805 Y0.5366  
G01 X-1.0835 Y0.5331  
G01 X-1.5843 Y0.1325  
G01 X-1.5850 Y0.1317  
G01 X-1.5861 Y0.1310  
G01 X-1.5871 Y0.1302  
G01 X-1.5880 Y0.1297  
G01 X-1.5889 Y0.1292  
G01 X-1.5901 Y0.1287  
G01 X-1.5912 Y0.1281  
G01 X-1.5922 Y0.1278  
G01 X-1.5931 Y0.1274  
G01 X-1.5944 Y0.1271  
G01 X-1.5957 Y0.1268  
G01 X-1.5967 Y0.1267  
G01 X-1.5977 Y0.1265  
G01 X-1.5990 Y0.1265  
G01 X-1.6003 Y0.1264  
G01 X-1.6013 Y0.1265  
G01 X-1.6084 Y0.1265  
G01 X-1.6100 Y0.1235  
G01 X-1.6146 Y0.1171  
G01 X-1.6203 Y0.1115  
G01 X-1.6267 Y0.1068  
G01 X-1.6338 Y0.1032  
G01 X-1.6413 Y0.1007  
G01 X-1.6492 Y0.0995  
G01 X-1.6571 Y0.0995  
G01 X-1.6650 Y0.1007  
G01 X-1.6725 Y0.1032  
G01 X-1.6796 Y0.1068  
G01 X-1.6827 Y0.1091  
G01 X-1.7350 Y0.0567  
G01 X-1.7389 Y0.0542  
G01 X-1.7431 Y0.0524  
G01 X-1.7477 Y0.0515  
G01 X-2.2273 Y0.0515  
G01 X-2.2319 Y0.0524  
G01 X-2.2361 Y0.0542  
G01 X-2.2400 Y0.0567  
G01 X-2.2433 Y0.0600  
G01 X-2.2858 Y0.1025  
G01 X-2.2913 Y0.1007  
G01 X-2.2992 Y0.0995  
G01 X-2.3071 Y0.0995  
G01 X-2.3150 Y0.1007  
G01 X-2.3225 Y0.1032  
G01 X-2.3296 Y0.1068  
G01 X-2.3360 Y0.1115  
G01 X-2.3417 Y0.1171  
G01 X-2.3463 Y0.1235  
G01 X-2.3499 Y0.1306  
G01 X-2.3524 Y0.1382  
G01 X-2.3536 Y0.1460  
G01 X-2.3536 Y0.1540  
G01 X-2.3524 Y0.1618  
G01 X-2.3499 Y0.1694  
G01 X-2.3463 Y0.1765  
G01 X-2.3417 Y0.1829  
G01 X-2.3360 Y0.1885  
G01 X-2.3296 Y0.1932  
G01 X-2.3225 Y0.1968  
G01 X-2.3150 Y0.1993  
G01 X-2.3071 Y0.2005  
