(.../pcb-gcode-3.6.2.4/pcb-gcode.ulp)
(Copyright 2005 - 2012 by John Johnson)
(See readme.txt for licensing terms.)
(This file generated from the board:)
(.../eurorack/EFM_VCF3/eagle/EFM_VCF3.brd)
(Current profile is .../pcb-gcode-3.6.2.4/profiles/mach.pp  )
(This file generated 10/24/16 9:32 PM)
(Settings from pcb-machine.h)
(spindle on time = 0.0000)
(spindle speed = 15000.0000)
(milling depth = -0.0730)
(tool change at 0.0000  0.0000  1.5000  )
(feed rate xy = F10    )
(feed rate z  = F5     )
(Z Axis Settings)
(  High     Up        Down     Drill)
(0.2500  	0.0500  	-0.0035 	-0.0710 )
(Settings from pcb-defaults.h)
(isolate min = 0.0040)
(isolate max = 0.0200)
(isolate step = 0.0025)
(Generated bottom outlines, bottom drill, )
(Unit of measure: inch)
(Inch Mode)
G20
(Absolute Coordinates)
G90
S15000
G00 Z0.2500  
G00 X0.0000  Y0.0000  
M03
G04 P0.000000
G00 Z0.0500  
G00 X0.0150  Y0.0500  
G01 Z-0.0730 F5     
G01 X-0.0500 Y-0.0350 F10    
G01 X-3.9000 Y-0.0350 
G01 X-4.0000 Y0.0500  
G01 X-4.0000 Y2.7600  
G01 X-3.9700 Y2.8000  
G01 X-0.0500 Y2.8000  
G00 Z0.0500  
G00 X-0.0300 Y2.7800  
G01 Z-0.0730 F5     
G01 X0.0150  Y2.7150  F10    
G01 X0.0150  Y0.0500  
G00 Z0.0500  
G00 X-0.1100 Y0.2900  
G01 Z-0.0730 F5     
G01 X-0.1900 Y0.2900  F10    
G01 X-0.1900 Y0.3600  
G01 X-0.1100 Y0.3600  
G01 X-0.1100 Y0.2900  
G00 Z0.0500  
G00 X-0.1200 Y2.5800  
G01 Z-0.0730 F5     
G01 X-0.2000 Y2.5800  F10    
G01 X-0.2000 Y2.6500  
G01 X-0.1200 Y2.6500  
G01 X-0.1200 Y2.5800  
G00 Z0.0500  
G00 X-3.7900 Y2.6000  
G01 Z-0.0730 F5     
G01 X-3.8700 Y2.6000  F10    
G01 X-3.8700 Y2.6700  
G01 X-3.7900 Y2.6700  
G01 X-3.7900 Y2.6000  
G00 Z0.0500  
G00 X-3.7600 Y0.3700  
G01 Z-0.0730 F5     
G01 X-3.6800 Y0.3700  F10    
G01 X-3.6800 Y0.3000  
G01 X-3.7600 Y0.3000  
G01 X-3.7600 Y0.3700  
G00 Z0.2500  
M05
M02
